meetsitaram/go2-rebot/recordings/test_20260423_095907.csv
t,joint1,joint2,joint3,joint4,joint5,joint6,gripper
0.007383,0.003242,0.008202,0.006294,0.001335,-0.005150,0.058175,-0.596056
0.017478,0.003242,0.008202,0.006294,0.001717,-0.004768,0.059701,-0.596056
0.027586,0.003242,0.008202,0.006294,0.002480,-0.004768,0.065042,-0.595675
0.037684,0.003242,0.008202,0.006294,0.002480,-0.004768,0.068856,-0.595675
0.047776,0.003242,0.008202,0.006294,0.002480,-0.004768,0.075341,-0.595675
0.057875,0.003242,0.008202,0.006294,0.002480,-0.004768,0.078393,-0.595675
0.067945,0.003242,0.008202,0.006294,0.002480,-0.004768,0.083352,-0.595675
0.078055,0.003242,0.008202,0.006294,0.002480,-0.004768,0.085259,-0.595675
0.088150,0.003242,0.008202,0.006294,0.002480,-0.005150,0.089456,-0.595675
0.098277,0.003242,0.008202,0.006294,0.002480,-0.005531,0.092126,-0.595675
0.108389,0.003242,0.008202,0.006294,0.002480,-0.006294,0.097467,-0.595675
0.118498,0.003242,0.008202,0.006294,0.002480,-0.006676,0.100519,-0.595675
0.128611,0.003242,0.008202,0.006294,0.002480,-0.006294,0.105478,-0.595675
0.138700,0.003242,0.008202,0.006294,0.002480,-0.005913,0.108149,-0.595675
0.148794,0.003242,0.008202,0.006294,0.002480,-0.005150,0.112345,-0.595675
0.158848,0.003242,0.008202,0.006294,0.002480,-0.004768,0.113871,-0.595675
0.168912,0.003242,0.008202,0.006294,0.002480,-0.004005,0.115396,-0.595675
0.179023,0.003242,0.008202,0.006294,0.002480,-0.003624,0.115778,-0.595675
0.189090,0.003242,0.008202,0.006294,0.002480,-0.003624,0.115396,-0.595675
0.199155,0.003242,0.008202,0.006294,0.002480,-0.004005,0.114252,-0.595675
0.209215,0.003242,0.008202,0.006294,0.002480,-0.004005,0.110819,-0.595675
0.219288,0.003242,0.008202,0.006294,0.002480,-0.004005,0.108912,-0.595675
0.229382,0.003242,0.008202,0.006294,0.002480,-0.004005,0.103952,-0.595675
0.239456,0.003242,0.008202,0.006294,0.002480,-0.004387,0.101282,-0.595675
0.249523,0.003242,0.008202,0.006294,0.002480,-0.004768,0.095942,-0.595675
0.259584,0.003242,0.008202,0.006294,0.002480,-0.004768,0.092507,-0.595675
0.269652,0.003242,0.008202,0.006294,0.002098,-0.005150,0.086022,-0.595675
0.279715,0.003242,0.008202,0.006294,0.002098,-0.005150,0.082208,-0.595675
0.289776,0.003242,0.008202,0.006294,0.002098,-0.004768,0.078393,-0.595675
0.299843,0.003242,0.008202,0.006294,0.002480,-0.004768,0.070382,-0.595675
0.309906,0.003242,0.008202,0.006294,0.002480,-0.004768,0.065804,-0.595675
0.319974,0.003242,0.008202,0.006294,0.002480,-0.004768,0.057031,-0.595675
0.330040,0.003242,0.008202,0.006294,0.002480,-0.004768,0.052453,-0.595675
0.340133,0.003242,0.008202,0.006294,0.002480,-0.004768,0.042916,-0.595675
0.350228,0.003242,0.008202,0.006294,0.002480,-0.004768,0.038339,-0.595675
0.360300,0.003242,0.008202,0.006294,0.002480,-0.004768,0.029564,-0.595675
0.370376,0.003242,0.008202,0.006294,0.002480,-0.004768,0.024986,-0.595675
0.380487,0.003242,0.008202,0.006294,0.002480,-0.004768,0.016975,-0.595675
0.390608,0.003242,0.008202,0.006294,0.002480,-0.004768,0.013161,-0.595675
0.400680,0.003242,0.008202,0.006294,0.002480,-0.004768,0.006294,-0.595675
0.410789,0.003242,0.008202,0.006294,0.002480,-0.004768,0.003242,-0.595675
0.420844,0.003242,0.008202,0.006294,0.002480,-0.004768,-0.003242,-0.595675
0.430901,0.003242,0.008202,0.006294,0.002480,-0.004768,-0.006294,-0.595675
0.440963,0.003242,0.008202,0.006294,0.002480,-0.004387,-0.012016,-0.595675
0.451071,0.003242,0.008202,0.006294,0.002480,-0.004387,-0.015068,-0.595675
0.461134,0.003242,0.008202,0.006294,0.002480,-0.004387,-0.020027,-0.595675
0.471200,0.003242,0.008202,0.006294,0.002480,-0.004387,-0.022316,-0.595675
0.481315,0.003242,0.008202,0.006294,0.002480,-0.004768,-0.026894,-0.595675
0.491430,0.003242,0.008202,0.006294,0.002480,-0.004768,-0.028801,-0.595675
0.501545,0.003242,0.008202,0.006294,0.002480,-0.004768,-0.032617,-0.595675
0.511625,0.003242,0.008202,0.006294,0.002480,-0.004768,-0.034142,-0.595675
0.521689,0.003242,0.008202,0.006294,0.002480,-0.004768,-0.036813,-0.595675
0.531799,0.003242,0.008202,0.006294,0.002480,-0.004768,-0.038339,-0.595675
0.541888,0.003242,0.008202,0.006294,0.002480,-0.004768,-0.040246,-0.595675
0.551977,0.003242,0.008202,0.006294,0.002480,-0.004768,-0.041009,-0.595675
0.562088,0.003242,0.008202,0.006294,0.002480,-0.004768,-0.042153,-0.595675
0.572199,0.003242,0.008202,0.006294,0.002480,-0.004768,-0.042916,-0.595675
0.582310,0.003242,0.008202,0.006294,0.002480,-0.004768,-0.043679,-0.595675
0.592389,0.003242,0.008202,0.006294,0.002480,-0.004768,-0.043679,-0.595675
0.602476,0.003242,0.008202,0.006294,0.002480,-0.004768,-0.043298,-0.595675
0.612593,0.003242,0.008202,0.006294,0.002480,-0.004768,-0.043298,-0.595675
0.622703,0.003242,0.008202,0.006294,0.002480,-0.004768,-0.043298,-0.595675
0.632785,0.003242,0.008202,0.006294,0.002480,-0.004768,-0.043298,-0.595675
0.642897,0.003242,0.008202,0.006294,0.002480,-0.004768,-0.043298,-0.595675
0.652990,0.003242,0.008202,0.006294,0.002480,-0.004768,-0.043298,-0.595675
0.663079,0.003242,0.008202,0.006294,0.002480,-0.005150,-0.043298,-0.595675
0.673142,0.003242,0.008202,0.006294,0.002480,-0.005150,-0.043298,-0.595675
0.683206,0.003242,0.008202,0.006294,0.002480,-0.005150,-0.043298,-0.595675
0.693267,0.003242,0.008202,0.006294,0.002480,-0.005150,-0.043298,-0.595675
0.703331,0.003242,0.008202,0.006294,0.002480,-0.005150,-0.043298,-0.595675
0.713393,0.003242,0.008202,0.006294,0.002480,-0.005150,-0.043298,-0.595675
0.723468,0.003242,0.008202,0.006294,0.002480,-0.005150,-0.043298,-0.595675
0.733531,0.003242,0.008202,0.006294,0.002480,-0.005150,-0.043298,-0.595675
0.743573,0.003242,0.008202,0.006294,0.002480,-0.005150,-0.043298,-0.595675
0.753640,0.003242,0.008202,0.006294,0.002480,-0.005150,-0.043298,-0.595675
0.763711,0.003242,0.008202,0.006294,0.002480,-0.005150,-0.043298,-0.595675
0.773781,0.003242,0.008202,0.006294,0.002480,-0.005150,-0.043298,-0.595675
0.783840,0.003242,0.008202,0.006294,0.002480,-0.005150,-0.043298,-0.595675
0.793951,0.003242,0.008202,0.006294,0.002480,-0.005150,-0.043298,-0.595675
0.804014,0.003242,0.008202,0.006294,0.002480,-0.005150,-0.043298,-0.595675
0.814087,0.003242,0.008202,0.006294,0.002480,-0.005150,-0.043298,-0.595675
0.824149,0.003242,0.008202,0.006294,0.002480,-0.005150,-0.043298,-0.595675
0.834214,0.003242,0.008202,0.006294,0.002480,-0.005150,-0.043298,-0.595675
0.844326,0.003242,0.008202,0.006294,0.002480,-0.005150,-0.043298,-0.595675
0.854411,0.003242,0.008202,0.006294,0.002480,-0.005150,-0.043298,-0.595675
0.864497,0.003242,0.008202,0.006294,0.002480,-0.005150,-0.043298,-0.595675
0.874562,0.003242,0.008202,0.006294,0.002480,-0.005150,-0.043298,-0.595675
0.884628,0.003242,0.008202,0.006294,0.002480,-0.005150,-0.043298,-0.595675
0.894691,0.003242,0.008202,0.006294,0.002480,-0.005150,-0.043298,-0.595675
0.904756,0.003242,0.008202,0.006294,0.002480,-0.005150,-0.043298,-0.595675
0.914880,0.003242,0.008202,0.006294,0.002480,-0.005150,-0.043298,-0.595675
0.924945,0.003242,0.008202,0.006294,0.002480,-0.005150,-0.043298,-0.595675
0.935010,0.003242,0.008202,0.006294,0.002480,-0.005150,-0.043298,-0.595675
0.945079,0.003242,0.008202,0.006294,0.002480,-0.005150,-0.043298,-0.595675
0.955143,0.003242,0.008202,0.006294,0.002480,-0.005150,-0.043298,-0.595675
0.965314,0.003242,0.008202,0.006294,0.002480,-0.005150,-0.043298,-0.595675
0.975382,0.003242,0.008202,0.006294,0.002480,-0.005150,-0.043298,-0.595675
0.985443,0.003242,0.008202,0.006294,0.002480,-0.005150,-0.043298,-0.595675
0.995505,0.003242,0.008202,0.006294,0.002480,-0.005150,-0.043298,-0.595675
1.005565,0.003242,0.008202,0.006294,0.002480,-0.005150,-0.043298,-0.595675
1.015743,0.003242,0.008202,0.006294,0.002480,-0.005150,-0.043298,-0.595675
1.025860,0.003242,0.008202,0.006294,0.002480,-0.005150,-0.043298,-0.595675
1.035942,0.003242,0.008202,0.006294,0.002480,-0.005150,-0.043298,-0.595675
1.046054,0.003242,0.008202,0.006294,0.002480,-0.005150,-0.043298,-0.595675
1.056094,0.003242,0.008202,0.006294,0.002480,-0.005150,-0.043298,-0.595675
1.066171,0.003242,0.008202,0.006294,0.002480,-0.005150,-0.043298,-0.595675
1.076241,0.003242,0.008202,0.006294,0.002480,-0.005150,-0.043298,-0.595675
1.086308,0.003242,0.008202,0.006294,0.002480,-0.005531,-0.043298,-0.595675
1.096387,0.003242,0.008202,0.006294,0.002480,-0.005913,-0.043298,-0.595675
1.106503,0.003242,0.008202,0.006294,0.002480,-0.005913,-0.043298,-0.595675
1.116599,0.003242,0.008202,0.006294,0.002480,-0.005913,-0.043298,-0.595675
1.126713,0.003242,0.008202,0.006294,0.002480,-0.005913,-0.043298,-0.595675
1.136803,0.003242,0.008202,0.006294,0.002480,-0.005913,-0.043298,-0.595675
1.146917,0.003242,0.008202,0.006294,0.002480,-0.005913,-0.043298,-0.595675
1.157009,0.003242,0.008202,0.006294,0.002480,-0.005913,-0.043679,-0.595675
1.167098,0.003242,0.008202,0.006294,0.002480,-0.005913,-0.043679,-0.595675
1.177216,0.003242,0.008202,0.006294,0.002480,-0.005913,-0.043679,-0.595675
1.187307,0.003242,0.008202,0.006294,0.002480,-0.005913,-0.043679,-0.595675
1.197419,0.003242,0.008202,0.006294,0.002480,-0.005913,-0.043679,-0.595675
1.207496,0.003242,0.008202,0.006294,0.002480,-0.005913,-0.043679,-0.595675
1.217566,0.003242,0.008202,0.006294,0.002480,-0.005913,-0.043298,-0.595675
1.227649,0.003242,0.008202,0.006294,0.002480,-0.005913,-0.043298,-0.595675
1.237754,0.003242,0.008202,0.006294,0.002480,-0.005913,-0.043298,-0.595675
1.247856,0.003242,0.008202,0.006294,0.002480,-0.005913,-0.043298,-0.595675
1.257954,0.003242,0.008202,0.006294,0.002480,-0.005913,-0.043298,-0.595675
1.268021,0.003242,0.008202,0.006294,0.002480,-0.005913,-0.043298,-0.595675
1.278087,0.003242,0.008202,0.006294,0.002480,-0.005913,-0.043298,-0.595675
1.288165,0.003242,0.008202,0.006294,0.002480,-0.005913,-0.043298,-0.595675
1.298260,0.003242,0.008202,0.006294,0.002480,-0.005913,-0.043298,-0.595675
1.308356,0.003242,0.008202,0.006294,0.002480,-0.006294,-0.043298,-0.595675
1.318428,0.003242,0.008202,0.006294,0.002480,-0.006676,-0.043298,-0.595675
1.328497,0.003242,0.008202,0.006294,0.002480,-0.007057,-0.043298,-0.595675
1.338564,0.003242,0.008202,0.006294,0.002480,-0.007439,-0.043298,-0.595675
1.348628,0.003242,0.008202,0.006294,0.002480,-0.007439,-0.043298,-0.595675
1.358695,0.003242,0.008202,0.006294,0.002098,-0.007820,-0.043298,-0.595675
1.368760,0.003242,0.008202,0.006294,0.002098,-0.008202,-0.043298,-0.595675
1.378839,0.003242,0.008202,0.006294,0.002098,-0.008202,-0.043298,-0.595675
1.388935,0.003242,0.008202,0.006294,0.002098,-0.008202,-0.043298,-0.595675
1.399034,0.003242,0.008202,0.006294,0.002098,-0.008202,-0.043298,-0.595675
1.409156,0.003624,0.008202,0.006294,0.002098,-0.008202,-0.043298,-0.595675
1.419226,0.003624,0.008202,0.006294,0.002098,-0.007820,-0.043298,-0.595675
1.429309,0.003624,0.008202,0.006294,0.002098,-0.007820,-0.043298,-0.595675
1.439375,0.003624,0.008202,0.006294,0.002098,-0.007820,-0.043298,-0.595675
1.449442,0.003624,0.008202,0.006294,0.002098,-0.007820,-0.043298,-0.595675
1.459534,0.003624,0.008202,0.006294,0.002098,-0.007820,-0.043298,-0.595675
1.469604,0.003624,0.008202,0.006294,0.002098,-0.007820,-0.043298,-0.595675
1.479670,0.003624,0.008202,0.006294,0.002098,-0.007820,-0.043298,-0.595675
1.489751,0.003624,0.008202,0.006294,0.002098,-0.007820,-0.043298,-0.595675
1.499872,0.003624,0.008202,0.006294,0.002098,-0.007820,-0.043298,-0.595675
1.509949,0.003624,0.008202,0.006294,0.002098,-0.007820,-0.043298,-0.595675
1.520018,0.003624,0.008202,0.006294,0.002098,-0.007439,-0.043298,-0.595675
1.530101,0.003624,0.008202,0.006294,0.002098,-0.007439,-0.043298,-0.595675
1.540172,0.003624,0.008202,0.006294,0.002480,-0.007439,-0.043298,-0.595675
1.551751,0.003624,0.008202,0.006294,0.002480,-0.007439,-0.043298,-0.595675
1.561859,0.003624,0.008202,0.006294,0.002480,-0.006676,-0.043298,-0.595675
1.571938,0.003624,0.008202,0.006294,0.002480,-0.006676,-0.043298,-0.595675
1.582009,0.003624,0.008202,0.006294,0.002480,-0.006676,-0.043298,-0.595675
1.592075,0.003624,0.008202,0.006294,0.002480,-0.006676,-0.043298,-0.595675
1.602171,0.003624,0.008202,0.006294,0.002480,-0.006676,-0.043298,-0.595675
1.612270,0.003624,0.008202,0.006294,0.002480,-0.006676,-0.043298,-0.595675
1.622366,0.003624,0.008202,0.006294,0.002480,-0.006676,-0.043298,-0.595675
1.632478,0.003624,0.008202,0.006294,0.002480,-0.006676,-0.043298,-0.595675
1.642575,0.003624,0.008202,0.006294,0.002480,-0.006676,-0.043298,-0.595675
1.652672,0.003624,0.008202,0.006294,0.002480,-0.006676,-0.043298,-0.595675
1.662753,0.003624,0.008202,0.006294,0.002480,-0.006676,-0.043679,-0.595675
1.672853,0.003624,0.008202,0.006294,0.002480,-0.006676,-0.043679,-0.595675
1.682956,0.003624,0.008202,0.006294,0.002480,-0.006676,-0.044061,-0.595675
1.693026,0.003624,0.008202,0.006294,0.002480,-0.006676,-0.044442,-0.595675
1.703088,0.003624,0.008202,0.006294,0.002480,-0.006676,-0.045587,-0.595675
1.713153,0.003624,0.008202,0.006294,0.002480,-0.006676,-0.045968,-0.595675
1.723262,0.003624,0.008202,0.006294,0.002480,-0.006676,-0.046350,-0.595675
1.733359,0.003624,0.008202,0.006294,0.002480,-0.006676,-0.045968,-0.595675
1.743459,0.003624,0.008202,0.006294,0.002480,-0.006676,-0.045968,-0.595675
1.753555,0.003624,0.008202,0.006294,0.002480,-0.006676,-0.045968,-0.595675
1.763654,0.003624,0.008202,0.006294,0.002480,-0.006676,-0.046350,-0.595675
1.773730,0.003624,0.008202,0.006294,0.002480,-0.006676,-0.046350,-0.595675
1.783805,0.003624,0.008202,0.006294,0.002480,-0.006294,-0.046350,-0.595675
1.793905,0.003624,0.008202,0.006294,0.002480,-0.006294,-0.046350,-0.595675
1.804001,0.003624,0.008202,0.006294,0.002480,-0.006294,-0.047112,-0.595675
1.814096,0.003624,0.008202,0.006294,0.002480,-0.006294,-0.047112,-0.595675
1.824181,0.003624,0.008202,0.006294,0.002480,-0.006294,-0.047875,-0.595675
1.834278,0.003624,0.008202,0.006294,0.002480,-0.006294,-0.048257,-0.595675
1.844344,0.003624,0.008202,0.006294,0.002480,-0.006294,-0.048257,-0.595675
1.854408,0.003624,0.008202,0.006294,0.002480,-0.006294,-0.048257,-0.595675
1.864480,0.003624,0.008202,0.006294,0.002480,-0.006294,-0.048257,-0.595675
1.874548,0.003624,0.008202,0.006294,0.002480,-0.006294,-0.048257,-0.596056
1.884614,0.003624,0.008202,0.006294,0.002480,-0.006294,-0.048257,-0.596056
1.894689,0.003624,0.008202,0.006294,0.002480,-0.006294,-0.048257,-0.596056
1.904761,0.003624,0.008202,0.006294,0.002480,-0.006294,-0.048257,-0.596056
1.914845,0.003624,0.008202,0.006294,0.002480,-0.006294,-0.048257,-0.596056
1.924912,0.003624,0.008202,0.006294,0.002480,-0.006294,-0.048257,-0.596056
1.934974,0.003624,0.008202,0.006294,0.002480,-0.006294,-0.048257,-0.596056
1.945043,0.003624,0.008202,0.006294,0.002480,-0.006294,-0.048257,-0.596056
1.955112,0.003624,0.008202,0.006294,0.002480,-0.006294,-0.048257,-0.596056
1.965182,0.003624,0.008202,0.006294,0.002480,-0.006676,-0.049020,-0.596056
1.975261,0.003624,0.008202,0.006294,0.002480,-0.006676,-0.049783,-0.596056
1.985325,0.003624,0.008202,0.006294,0.002480,-0.006676,-0.050546,-0.596056
1.995389,0.003624,0.008202,0.006294,0.002480,-0.006676,-0.050927,-0.596437
2.005453,0.003624,0.008202,0.006294,0.002480,-0.006676,-0.051690,-0.597200
2.015518,0.003624,0.008202,0.006294,0.002480,-0.006676,-0.051690,-0.598345
2.025584,0.003624,0.008202,0.006294,0.002480,-0.006676,-0.052072,-0.601778
2.035645,0.003624,0.008202,0.006294,0.002480,-0.006676,-0.052072,-0.604067
2.045708,0.003624,0.008202,0.006294,0.002480,-0.006676,-0.051690,-0.609407
2.055778,0.003624,0.008202,0.006294,0.002480,-0.006676,-0.051690,-0.612841
2.065853,0.003624,0.008202,0.006294,0.002480,-0.006676,-0.051690,-0.620470
2.075918,0.003624,0.008202,0.006294,0.002480,-0.006676,-0.051690,-0.624666
2.085978,0.003624,0.008202,0.006294,0.002480,-0.006676,-0.051690,-0.634203
2.096061,0.003624,0.008202,0.006294,0.002480,-0.006676,-0.051690,-0.639544
2.106128,0.003624,0.008202,0.006294,0.002480,-0.006676,-0.051690,-0.651751
2.116213,0.003624,0.008202,0.006294,0.002480,-0.006676,-0.051690,-0.658618
2.126298,0.003624,0.008202,0.006294,0.002480,-0.006676,-0.051690,-0.673877
2.136368,0.003624,0.008202,0.006294,0.002480,-0.006676,-0.051690,-0.681888
2.146440,0.003624,0.008202,0.006294,0.002480,-0.006676,-0.051690,-0.699817
2.156505,0.003624,0.008202,0.006294,0.002480,-0.006676,-0.051690,-0.709353
2.166568,0.003624,0.008202,0.006294,0.002480,-0.006676,-0.051690,-0.729191
2.176678,0.003624,0.008202,0.006294,0.002480,-0.006676,-0.051690,-0.739491
2.186755,0.003624,0.008202,0.006294,0.002480,-0.006676,-0.051690,-0.761997
2.196875,0.003624,0.008202,0.006294,0.002480,-0.006676,-0.051690,-0.773823
2.206968,0.003624,0.008202,0.006294,0.002480,-0.006676,-0.051690,-0.798619
2.217078,0.003624,0.008202,0.006294,0.002480,-0.006676,-0.051690,-0.811208
2.227189,0.003624,0.008202,0.006294,0.002480,-0.006676,-0.051690,-0.836766
2.237266,0.003624,0.008202,0.006294,0.002480,-0.006676,-0.051690,-0.849737
2.247358,0.003624,0.008202,0.006294,0.002480,-0.006676,-0.051690,-0.876822
2.257434,0.003624,0.008202,0.006294,0.002480,-0.006676,-0.051690,-0.890173
2.267537,0.003624,0.008202,0.006294,0.002480,-0.006676,-0.051690,-0.916877
2.277639,0.003624,0.008202,0.006294,0.002480,-0.006676,-0.051690,-0.930610
2.287732,0.003624,0.008202,0.006294,0.002480,-0.006676,-0.051690,-0.958457
2.297794,0.003624,0.008202,0.006294,0.002480,-0.006676,-0.051690,-0.971809
2.307855,0.003624,0.008202,0.006294,0.002480,-0.006676,-0.051690,-0.999657
2.317940,0.003624,0.008202,0.006294,0.002480,-0.006676,-0.051690,-1.013390
2.328052,0.003624,0.008202,0.006294,0.002480,-0.006676,-0.051690,-1.040475
2.338173,0.003624,0.008202,0.006294,0.002480,-0.006676,-0.051690,-1.053826
2.348285,0.003624,0.008202,0.006294,0.002480,-0.006676,-0.052072,-1.080529
2.358363,0.003624,0.008202,0.006294,0.002480,-0.006676,-0.052072,-1.093499
2.368464,0.003624,0.008202,0.006294,0.002480,-0.006676,-0.052072,-1.118677
2.378578,0.003624,0.008202,0.006294,0.002480,-0.006676,-0.052072,-1.130884
2.388676,0.003624,0.008202,0.006294,0.002480,-0.006676,-0.052072,-1.154535
2.398787,0.003624,0.008202,0.006294,0.002480,-0.006676,-0.052072,-1.165980
2.408885,0.003624,0.008202,0.006294,0.002480,-0.006676,-0.052072,-1.188106
2.418960,0.003624,0.008202,0.006294,0.002480,-0.006676,-0.052072,-1.198405
2.429057,0.003624,0.008202,0.006294,0.002480,-0.006676,-0.052072,-1.218623
2.439157,0.003624,0.008202,0.006294,0.002480,-0.006676,-0.052072,-1.228161
2.449253,0.003624,0.008202,0.006294,0.002480,-0.006294,-0.052072,-1.246853
2.459332,0.003624,0.008202,0.006294,0.002480,-0.006294,-0.052072,-1.255627
2.469395,0.003624,0.008202,0.006294,0.002480,-0.006294,-0.052072,-1.271648
2.479507,0.003624,0.008202,0.006294,0.002480,-0.006294,-0.052072,-1.279659
2.489603,0.003624,0.008202,0.006294,0.002480,-0.006294,-0.052072,-1.293775
2.499714,0.003624,0.008202,0.006294,0.002480,-0.006294,-0.052072,-1.300260
2.509827,0.003624,0.008202,0.006294,0.002098,-0.006294,-0.052072,-1.312085
2.519871,0.003624,0.008202,0.006294,0.002098,-0.006294,-0.052072,-1.317426
2.529935,0.003624,0.008202,0.006294,0.002098,-0.006294,-0.052072,-1.326200
2.540016,0.003624,0.008202,0.006294,0.002098,-0.006294,-0.052453,-1.330014
2.550128,0.003624,0.008202,0.006294,0.002098,-0.005913,-0.052835,-1.336499
2.560216,0.003624,0.008202,0.006294,0.002098,-0.005913,-0.052835,-1.339170
2.570312,0.003624,0.008202,0.006294,0.002098,-0.005913,-0.052835,-1.343366
2.580425,0.003624,0.008202,0.006294,0.002098,-0.005913,-0.052835,-1.344511
2.590495,0.003624,0.008202,0.006294,0.002098,-0.005913,-0.052835,-1.346037
2.600587,0.003624,0.008202,0.006294,0.002098,-0.005913,-0.052835,-1.346037
2.610683,0.003624,0.008202,0.006294,0.002098,-0.005913,-0.052453,-1.346037
2.620779,0.003624,0.008202,0.006294,0.002098,-0.005913,-0.052453,-1.346037
2.631379,0.003624,0.008202,0.006294,0.002098,-0.005913,-0.052453,-1.346037
2.641474,0.003624,0.008202,0.006294,0.002098,-0.005913,-0.052453,-1.346037
2.651584,0.003624,0.008202,0.006294,0.002098,-0.005913,-0.052453,-1.346037
2.661654,0.003624,0.008202,0.006294,0.002098,-0.005913,-0.052453,-1.346037
2.671730,0.003624,0.008202,0.006294,0.002098,-0.005913,-0.052453,-1.346037
2.681827,0.003624,0.008202,0.006294,0.002098,-0.005913,-0.052453,-1.346037
2.691905,0.003624,0.008202,0.006294,0.002098,-0.005913,-0.052453,-1.346037
2.701983,0.003624,0.008202,0.006294,0.002098,-0.005913,-0.052453,-1.346037
2.712070,0.003624,0.008202,0.006294,0.002098,-0.005913,-0.052453,-1.346037
2.722186,0.003624,0.008202,0.006294,0.002098,-0.005913,-0.052453,-1.346037
2.732299,0.003624,0.008202,0.006294,0.002098,-0.005913,-0.052453,-1.346037
2.742380,0.003624,0.008202,0.006294,0.002098,-0.005913,-0.052453,-1.346037
2.752472,0.003624,0.008202,0.006294,0.002098,-0.005913,-0.052453,-1.346037
2.762582,0.003624,0.008202,0.006294,0.002098,-0.005913,-0.052453,-1.346037
2.772672,0.003624,0.008202,0.006294,0.002098,-0.005913,-0.052453,-1.346037
2.782786,0.003624,0.008202,0.006294,0.002098,-0.005913,-0.052453,-1.346037
2.792898,0.003624,0.008202,0.006294,0.002098,-0.005913,-0.052453,-1.346037
2.802992,0.003624,0.008202,0.006294,0.002098,-0.005913,-0.052453,-1.346037
2.813103,0.003624,0.008202,0.006294,0.002098,-0.005913,-0.052453,-1.346037
2.823189,0.003624,0.008202,0.006294,0.002098,-0.005913,-0.052453,-1.346037
2.833303,0.003624,0.008202,0.006294,0.002098,-0.005913,-0.052453,-1.346037
2.843415,0.003624,0.008202,0.006294,0.002098,-0.005913,-0.052453,-1.346037
2.853509,0.003624,0.008202,0.006294,0.002098,-0.005913,-0.052453,-1.346037
2.863581,0.003624,0.008202,0.006294,0.002098,-0.005913,-0.052453,-1.346037
2.873655,0.003624,0.008202,0.006294,0.002098,-0.005913,-0.052453,-1.346037
2.883767,0.003624,0.008202,0.006294,0.002098,-0.005913,-0.052453,-1.346037
2.893839,0.003624,0.008202,0.006294,0.002098,-0.005913,-0.052453,-1.346037
2.903909,0.003624,0.008202,0.006294,0.002098,-0.005913,-0.052072,-1.346037
2.914018,0.003624,0.008202,0.006294,0.002098,-0.005913,-0.051690,-1.346037
2.924119,0.003624,0.008202,0.006294,0.002098,-0.005913,-0.051690,-1.346037
2.934229,0.003624,0.008202,0.006294,0.002098,-0.005913,-0.051690,-1.346037
2.944342,0.003624,0.008202,0.006294,0.002098,-0.005913,-0.051690,-1.346037
2.954419,0.003624,0.008202,0.006294,0.002098,-0.005913,-0.051690,-1.346037
2.964530,0.003624,0.008202,0.006294,0.002098,-0.005913,-0.051690,-1.346037
2.974608,0.003624,0.008202,0.006294,0.002098,-0.005913,-0.051690,-1.346037
2.984717,0.003624,0.008202,0.006294,0.002098,-0.005913,-0.051690,-1.346037
2.994826,0.003624,0.008202,0.006294,0.002098,-0.005913,-0.051690,-1.346037
3.004921,0.003624,0.008202,0.006294,0.002098,-0.005913,-0.051690,-1.346037
3.015024,0.003624,0.008202,0.006294,0.002098,-0.005913,-0.051690,-1.346037
3.025092,0.003624,0.008202,0.006294,0.002480,-0.005913,-0.052072,-1.346037
3.035182,0.003624,0.008202,0.006294,0.002480,-0.005913,-0.052072,-1.346037
3.045280,0.003624,0.008202,0.006294,0.002480,-0.005531,-0.052072,-1.346037
3.055372,0.003624,0.008202,0.006294,0.002480,-0.005150,-0.052072,-1.345655
3.065452,0.003624,0.008202,0.006294,0.002480,-0.004768,-0.052072,-1.345655
3.075552,0.003624,0.008202,0.006294,0.002480,-0.004768,-0.052072,-1.345655
3.085661,0.003624,0.008202,0.006294,0.002480,-0.004387,-0.052072,-1.345655
3.095774,0.003624,0.008202,0.006294,0.002480,-0.004387,-0.052072,-1.345655
3.105884,0.003242,0.008202,0.006294,0.002480,-0.004005,-0.052453,-1.345655
3.115980,0.003242,0.008202,0.006294,0.002480,-0.004005,-0.052453,-1.345274
3.126058,0.003242,0.008202,0.006294,0.002480,-0.004005,-0.052453,-1.344130
3.136166,0.003242,0.008202,0.006294,0.002480,-0.004005,-0.052453,-1.342984
3.146280,0.003242,0.008202,0.006294,0.002480,-0.004005,-0.052453,-1.340314
3.156392,0.003242,0.008202,0.006294,0.002480,-0.004005,-0.052453,-1.338788
3.166487,0.003242,0.008202,0.006294,0.002480,-0.004005,-0.052835,-1.335736
3.176584,0.003242,0.008202,0.006294,0.002480,-0.004005,-0.052835,-1.333829
3.186661,0.003242,0.008202,0.006294,0.002480,-0.004005,-0.052835,-1.330014
3.196723,0.003242,0.008202,0.006294,0.002480,-0.004005,-0.052835,-1.327725
3.206789,0.003242,0.008202,0.006294,0.002480,-0.004005,-0.053216,-1.323529
3.216834,0.003242,0.008202,0.006294,0.002480,-0.004005,-0.053979,-1.321240
3.226898,0.003242,0.008202,0.006294,0.002480,-0.004005,-0.055886,-1.316663
3.236969,0.003242,0.008202,0.006294,0.002480,-0.004005,-0.056649,-1.314374
3.247039,0.003242,0.008202,0.006294,0.002480,-0.004005,-0.057794,-1.310178
3.257107,0.003242,0.008202,0.006294,0.002480,-0.003624,-0.058175,-1.308270
3.267170,0.003242,0.008202,0.006294,0.002480,-0.003624,-0.058557,-1.304074
3.277232,0.003242,0.008202,0.006294,0.002480,-0.002861,-0.058557,-1.301785
3.287294,0.003242,0.008202,0.006294,0.002480,-0.002861,-0.058557,-1.297589
3.297350,0.003242,0.008202,0.006294,0.002480,-0.002861,-0.058557,-1.295300
3.307426,0.003242,0.008202,0.006294,0.002480,-0.002861,-0.058557,-1.290723
3.317487,0.003242,0.008202,0.006294,0.002480,-0.002861,-0.058557,-1.285764
3.327587,0.003242,0.008202,0.006294,0.002480,-0.002861,-0.058175,-1.283475
3.337687,0.003242,0.008202,0.006294,0.002480,-0.002861,-0.058175,-1.278515
3.347781,0.003242,0.008202,0.006294,0.002480,-0.002861,-0.058175,-1.276226
3.357834,0.003242,0.008202,0.006294,0.002480,-0.002861,-0.058175,-1.271648
3.367899,0.003242,0.008202,0.006294,0.002480,-0.002480,-0.058175,-1.269360
3.378000,0.003242,0.008202,0.006294,0.002480,-0.002480,-0.058175,-1.265163
3.388157,0.003242,0.008202,0.006294,0.002480,-0.002098,-0.058175,-1.263256
3.398256,0.003242,0.008202,0.006294,0.002480,-0.002480,-0.058175,-1.259823
3.408334,0.003242,0.008202,0.006294,0.002480,-0.002098,-0.058175,-1.257915
3.418442,0.003242,0.008202,0.006294,0.002480,-0.002098,-0.058175,-1.254482
3.428554,0.003242,0.008202,0.006294,0.002480,-0.002098,-0.058175,-1.252956
3.438648,0.003242,0.008202,0.006294,0.002480,-0.002098,-0.058175,-1.249523
3.448759,0.003242,0.008202,0.006294,0.002480,-0.002098,-0.058175,-1.247997
3.458858,0.003242,0.008202,0.006294,0.002480,-0.002098,-0.058175,-1.244946
3.468933,0.003242,0.008202,0.006294,0.002480,-0.001717,-0.058175,-1.243420
3.479003,0.003242,0.008202,0.006294,0.002861,-0.001717,-0.058175,-1.240368
3.489071,0.003242,0.008202,0.006294,0.002861,-0.001717,-0.058175,-1.239223
3.499169,0.003242,0.008202,0.006294,0.002861,-0.001335,-0.058175,-1.236553
3.509245,0.003242,0.008202,0.006294,0.003242,-0.001335,-0.058175,-1.235409
3.519355,0.003242,0.008202,0.006294,0.003242,-0.000954,-0.057412,-1.233120
3.529466,0.003242,0.008202,0.006294,0.003242,-0.000954,-0.057412,-1.232357
3.539558,0.003242,0.008202,0.006294,0.003242,-0.000954,-0.057031,-1.230068
3.549652,0.003242,0.008202,0.006294,0.003242,-0.000572,-0.057031,-1.228924
3.559730,0.003242,0.008202,0.006294,0.003242,-0.000572,-0.057031,-1.227016
3.569870,0.003242,0.008202,0.006294,0.003242,-0.000572,-0.057031,-1.226254
3.579941,0.003242,0.008202,0.006294,0.003242,-0.000191,-0.057031,-1.224346
3.590010,0.003242,0.008202,0.006294,0.003242,-0.000191,-0.057031,-1.223583
3.600105,0.003242,0.008202,0.006294,0.003242,-0.000572,-0.057031,-1.221676
3.610209,0.003242,0.008202,0.006294,0.003242,-0.000572,-0.057031,-1.220913
3.620288,0.003242,0.008202,0.006294,0.003242,-0.000572,-0.057031,-1.219387
3.630369,0.003242,0.008202,0.006294,0.003242,-0.000572,-0.057031,-1.219006
3.640440,0.003242,0.008202,0.006294,0.003242,-0.000572,-0.056649,-1.217479
3.650508,0.003242,0.008202,0.006294,0.003242,-0.000572,-0.056649,-1.216334
3.660572,0.003242,0.008202,0.006294,0.003242,-0.000954,-0.056649,-1.215571
3.670639,0.003242,0.008202,0.006294,0.003242,-0.001335,-0.056649,-1.215571
3.680762,0.003242,0.008202,0.006294,0.003242,-0.001335,-0.056649,-1.215571
3.690915,0.003242,0.008202,0.006294,0.003242,-0.001717,-0.056649,-1.215571
3.701034,0.003242,0.008202,0.006294,0.003242,-0.002098,-0.056649,-1.215571
3.711128,0.003242,0.008202,0.006294,0.003242,-0.002098,-0.056649,-1.215571
3.721195,0.003242,0.008202,0.006294,0.003242,-0.002480,-0.056649,-1.215571
3.731265,0.003242,0.008202,0.006294,0.003242,-0.002480,-0.056649,-1.215571
3.741326,0.003242,0.008202,0.006294,0.003242,-0.003242,-0.056649,-1.215571
3.751391,0.003242,0.008202,0.006294,0.003242,-0.003242,-0.056649,-1.215571
3.761457,0.003242,0.008202,0.006294,0.003242,-0.003624,-0.056649,-1.215571
3.771526,0.003242,0.008202,0.006294,0.003242,-0.003624,-0.056649,-1.215571
3.781639,0.003242,0.008202,0.006294,0.003242,-0.004005,-0.056649,-1.215571
3.791719,0.003242,0.008202,0.006294,0.003242,-0.004005,-0.056649,-1.215953
3.801811,0.003242,0.008202,0.006294,0.003242,-0.004005,-0.056649,-1.216716
3.811859,0.003242,0.008202,0.006294,0.003242,-0.004005,-0.056649,-1.217097
3.821927,0.003242,0.008202,0.006294,0.003242,-0.004005,-0.056649,-1.218242
3.831999,0.003242,0.008202,0.006294,0.003242,-0.004005,-0.056649,-1.219006
3.842064,0.003242,0.008202,0.006294,0.003242,-0.004005,-0.056649,-1.220913
3.852131,0.003242,0.008202,0.006294,0.003242,-0.004005,-0.056649,-1.222057
3.862200,0.003242,0.008202,0.006294,0.003242,-0.004005,-0.056649,-1.225109
3.872264,0.003242,0.008202,0.006294,0.003242,-0.004005,-0.056649,-1.227016
3.882374,0.003242,0.008202,0.006294,0.003242,-0.004005,-0.056649,-1.230831
3.892455,0.003242,0.008202,0.006294,0.003242,-0.004005,-0.056649,-1.233120
3.902563,0.003242,0.008202,0.006294,0.002861,-0.004005,-0.056649,-1.237316
3.912671,0.003242,0.008202,0.006294,0.002861,-0.004005,-0.056649,-1.239605
3.922756,0.003242,0.008202,0.006294,0.002861,-0.004005,-0.056649,-1.244183
3.932871,0.003242,0.008202,0.006294,0.002480,-0.004005,-0.056649,-1.246471
3.942989,0.003242,0.008202,0.006294,0.002480,-0.004005,-0.056649,-1.251431
3.953060,0.003242,0.008202,0.006294,0.002480,-0.004005,-0.056649,-1.253719
3.963125,0.003242,0.008202,0.006294,0.002480,-0.004005,-0.056649,-1.258297
3.973194,0.003242,0.008202,0.006294,0.002480,-0.004005,-0.056649,-1.260204
3.983256,0.003242,0.008202,0.006294,0.002480,-0.004005,-0.056649,-1.264400
3.993325,0.003242,0.008202,0.006294,0.002480,-0.004387,-0.056649,-1.266308
4.003436,0.003242,0.008202,0.006294,0.002480,-0.004387,-0.056649,-1.270504
4.013550,0.003242,0.008202,0.006294,0.002480,-0.004387,-0.056649,-1.272030
4.023661,0.003242,0.008202,0.006294,0.002480,-0.004387,-0.056649,-1.275463
4.033772,0.003242,0.008202,0.006294,0.002480,-0.004387,-0.056649,-1.277370
4.043884,0.003242,0.008202,0.006294,0.002480,-0.004387,-0.056649,-1.280422
4.053997,0.003242,0.008202,0.006294,0.002480,-0.004387,-0.056649,-1.283093
4.064089,0.003242,0.008202,0.006294,0.002480,-0.004387,-0.056649,-1.284619
4.074176,0.003242,0.008202,0.006294,0.002480,-0.004387,-0.056649,-1.286527
4.084291,0.003242,0.008202,0.006294,0.002480,-0.004387,-0.056649,-1.287671
4.094403,0.003242,0.008202,0.006294,0.002480,-0.004768,-0.056649,-1.289578
4.104515,0.003242,0.008202,0.006294,0.002480,-0.004768,-0.056649,-1.290341
4.114629,0.003242,0.008202,0.006294,0.002480,-0.004768,-0.056649,-1.291486
4.124745,0.003242,0.008202,0.006294,0.002480,-0.004768,-0.056649,-1.291867
4.134857,0.003242,0.008202,0.006294,0.002480,-0.004768,-0.056649,-1.292630
4.144939,0.003242,0.008202,0.006294,0.002480,-0.004768,-0.056649,-1.293012
4.155021,0.003242,0.008202,0.006294,0.002480,-0.004768,-0.056649,-1.294156
4.165090,0.003242,0.008202,0.006294,0.002480,-0.004768,-0.056649,-1.294538
4.175160,0.003242,0.008202,0.006294,0.002480,-0.004768,-0.056649,-1.295682
4.185267,0.003242,0.008202,0.006294,0.002480,-0.004768,-0.056649,-1.295682
4.195331,0.003242,0.008202,0.006294,0.002480,-0.004768,-0.056649,-1.296063
4.205400,0.003242,0.008202,0.006294,0.002480,-0.004768,-0.056649,-1.296063
4.215514,0.003242,0.008202,0.006294,0.002480,-0.004768,-0.056649,-1.296063
4.225598,0.003242,0.008202,0.006294,0.002480,-0.004768,-0.056649,-1.296063
4.235719,0.003242,0.008202,0.006294,0.002480,-0.004768,-0.056649,-1.296063
4.245851,0.003242,0.008202,0.006294,0.002480,-0.004768,-0.056268,-1.296063
4.255962,0.003242,0.008202,0.006294,0.002480,-0.004768,-0.056268,-1.296063
4.266052,0.003242,0.008202,0.006294,0.002480,-0.004768,-0.056268,-1.296063
4.276123,0.003242,0.008202,0.006294,0.002480,-0.005150,-0.056268,-1.296063
4.286232,0.003242,0.008202,0.006294,0.002480,-0.005150,-0.056268,-1.296063
4.296345,0.003242,0.008202,0.006294,0.002480,-0.005531,-0.056268,-1.296063
4.306521,0.003242,0.008202,0.006294,0.002480,-0.005913,-0.056268,-1.296063
4.316958,0.003242,0.008202,0.006294,0.002480,-0.006294,-0.056268,-1.295682
4.327072,0.003242,0.008202,0.006294,0.002480,-0.006294,-0.056268,-1.295682
4.337244,0.003242,0.008202,0.006294,0.002480,-0.005913,-0.056268,-1.295682
4.347367,0.003242,0.008202,0.006294,0.002480,-0.005913,-0.056268,-1.295682
4.357459,0.003242,0.008202,0.006294,0.002480,-0.005913,-0.056268,-1.295682
4.367569,0.003242,0.008202,0.006294,0.002480,-0.005913,-0.056268,-1.295682
4.377648,0.003242,0.008202,0.006294,0.002480,-0.005913,-0.056268,-1.295682
4.387763,0.003242,0.008202,0.006294,0.002480,-0.005913,-0.056268,-1.295682
4.397831,0.003242,0.008202,0.006294,0.002480,-0.005913,-0.056268,-1.295300
4.407894,0.003242,0.008202,0.006294,0.002480,-0.005913,-0.056268,-1.295300
4.417957,0.003242,0.008202,0.006294,0.002480,-0.005913,-0.056268,-1.295300
4.428026,0.003242,0.008202,0.006294,0.002480,-0.005913,-0.055886,-1.295300
4.438130,0.003242,0.008202,0.006294,0.002480,-0.005913,-0.055123,-1.295300
4.448195,0.003242,0.008202,0.006294,0.002480,-0.005913,-0.054742,-1.295300
4.458261,0.003242,0.008202,0.006294,0.002480,-0.005913,-0.053597,-1.295300
4.468328,0.003242,0.008202,0.006294,0.002480,-0.005913,-0.052835,-1.294919
4.478405,0.003242,0.008202,0.006294,0.002480,-0.005913,-0.051309,-1.293393
4.488514,0.003242,0.008202,0.006294,0.002480,-0.005913,-0.050927,-1.292249
4.498634,0.003242,0.008202,0.006294,0.002480,-0.005913,-0.050546,-1.288815
4.508705,0.003242,0.008202,0.006294,0.002480,-0.005913,-0.050546,-1.286145
4.518773,0.003242,0.008202,0.006294,0.002480,-0.005913,-0.050546,-1.280422
4.528851,0.003242,0.008202,0.006294,0.002480,-0.005913,-0.050927,-1.276989
4.538972,0.003242,0.008202,0.006294,0.002480,-0.005913,-0.050927,-1.269360
4.549085,0.003242,0.008202,0.006294,0.002480,-0.005913,-0.050927,-1.265163
4.559259,0.003242,0.008202,0.006294,0.002480,-0.005913,-0.050927,-1.256008
4.569369,0.003242,0.008202,0.006294,0.002480,-0.005913,-0.050927,-1.251049
4.579485,0.003242,0.008202,0.006294,0.002480,-0.005913,-0.050927,-1.240749
4.589570,0.003242,0.008202,0.006294,0.002480,-0.005913,-0.050927,-1.235409
4.599681,0.003242,0.008202,0.006294,0.002480,-0.005913,-0.050927,-1.223583
4.609768,0.003242,0.008202,0.006294,0.002480,-0.005913,-0.050927,-1.217860
4.619876,0.003242,0.008202,0.006294,0.002480,-0.005913,-0.050927,-1.205653
4.629989,0.003242,0.008202,0.006294,0.002480,-0.005531,-0.050927,-1.199168
4.640103,0.003242,0.008202,0.006294,0.002480,-0.005531,-0.050927,-1.185435
4.650214,0.003242,0.008202,0.006294,0.002480,-0.005531,-0.050927,-1.178569
4.660328,0.003242,0.008202,0.006294,0.002480,-0.005531,-0.050927,-1.164836
4.670406,0.003242,0.008202,0.006294,0.002480,-0.005531,-0.050927,-1.157969
4.680474,0.003242,0.008202,0.006294,0.002480,-0.005531,-0.050927,-1.144236
4.690540,0.003242,0.008202,0.006294,0.002480,-0.005150,-0.051309,-1.137751
4.700603,0.003242,0.008202,0.006294,0.002480,-0.005150,-0.051690,-1.124781
4.710633,0.003242,0.008202,0.006294,0.002480,-0.004768,-0.051690,-1.112192
4.720703,0.003242,0.008202,0.006294,0.002480,-0.004768,-0.051690,-1.106089
4.730821,0.003242,0.008202,0.006294,0.002480,-0.004768,-0.051690,-1.094263
4.740959,0.003242,0.008202,0.006294,0.002480,-0.004768,-0.051690,-1.088159
4.751043,0.003242,0.008202,0.006294,0.002480,-0.004768,-0.051690,-1.077477
4.761110,0.003242,0.008202,0.006294,0.002480,-0.004768,-0.051690,-1.072518
4.771202,0.003242,0.008202,0.006294,0.002480,-0.004768,-0.051690,-1.063363
4.781314,0.003242,0.008202,0.006294,0.002480,-0.004768,-0.051690,-1.059167
4.791382,0.003242,0.008202,0.006294,0.002480,-0.004768,-0.051690,-1.051538
4.801495,0.003242,0.008202,0.006294,0.002480,-0.004768,-0.051690,-1.048104
4.811565,0.003242,0.008202,0.006294,0.002480,-0.004768,-0.051690,-1.041619
4.821631,0.003242,0.008202,0.006294,0.002480,-0.004768,-0.051690,-1.038949
4.831694,0.003242,0.008202,0.006294,0.002480,-0.004768,-0.051690,-1.033990
4.841759,0.003242,0.008202,0.006294,0.002480,-0.004768,-0.051690,-1.031701
4.851821,0.003242,0.008202,0.006294,0.002480,-0.004768,-0.051690,-1.028267
4.861842,0.003242,0.008202,0.006294,0.002480,-0.004768,-0.051690,-1.026741
4.871908,0.003242,0.008202,0.006294,0.002480,-0.004768,-0.051690,-1.023308
4.881974,0.003242,0.008202,0.006294,0.002480,-0.004768,-0.051690,-1.022163
4.892042,0.003242,0.008202,0.006294,0.002480,-0.004768,-0.051690,-1.018730
4.902109,0.003242,0.008202,0.006294,0.002480,-0.004768,-0.051690,-1.017204
4.912191,0.003242,0.008202,0.006294,0.002480,-0.004768,-0.051690,-1.013390
4.922308,0.003242,0.008202,0.006294,0.002480,-0.004768,-0.051690,-1.011101
4.932424,0.003242,0.008202,0.006294,0.002480,-0.004768,-0.051690,-1.006905
4.942511,0.003242,0.008202,0.006294,0.002480,-0.004768,-0.051690,-1.004616
4.952620,0.003242,0.008202,0.006294,0.002480,-0.004768,-0.051690,-0.999657
4.962731,0.003242,0.008202,0.006294,0.002480,-0.004768,-0.051690,-0.996986
4.972817,0.003242,0.008202,0.006294,0.002480,-0.004768,-0.051690,-0.990883
4.982930,0.003242,0.008202,0.006294,0.002480,-0.004768,-0.051690,-0.987831
4.993027,0.003242,0.008202,0.006294,0.002480,-0.004768,-0.051690,-0.982109
5.003139,0.003242,0.008202,0.006294,0.002480,-0.004768,-0.051690,-0.979057
5.013222,0.003242,0.008202,0.006294,0.002480,-0.004768,-0.051690,-0.973717
5.023291,0.003242,0.008202,0.006294,0.002480,-0.004768,-0.051690,-0.971046
5.033357,0.003242,0.008202,0.006294,0.002480,-0.004387,-0.051690,-0.965705
5.043425,0.003242,0.008202,0.006294,0.002480,-0.004387,-0.051690,-0.963035
5.053500,0.003242,0.008202,0.006294,0.002480,-0.004387,-0.051690,-0.958076
5.063585,0.003242,0.008202,0.006294,0.002480,-0.004387,-0.051690,-0.955787
5.073658,0.003242,0.008202,0.006294,0.002480,-0.004005,-0.051690,-0.950828
5.083731,0.003242,0.008202,0.006294,0.002480,-0.004005,-0.051690,-0.948539
5.093854,0.003242,0.008202,0.006294,0.002480,-0.004005,-0.051690,-0.945868
5.103970,0.003242,0.008202,0.006294,0.002480,-0.004005,-0.051690,-0.941291
5.114083,0.003242,0.008202,0.006294,0.002480,-0.004005,-0.051690,-0.939002
5.124170,0.003242,0.008202,0.006294,0.002480,-0.004005,-0.051690,-0.934424
5.134281,0.003242,0.008202,0.006294,0.002480,-0.004005,-0.051690,-0.932136
5.144369,0.003242,0.008202,0.006294,0.002480,-0.004005,-0.051690,-0.927558
5.154429,0.003242,0.008202,0.006294,0.002480,-0.004005,-0.051690,-0.925269
5.164494,0.003242,0.008202,0.006294,0.002480,-0.004005,-0.051690,-0.920691
5.174556,0.003242,0.008202,0.006294,0.002480,-0.004005,-0.051690,-0.918403
5.184617,0.003242,0.008202,0.006294,0.002480,-0.004005,-0.051690,-0.913444
5.194679,0.003242,0.008202,0.006294,0.002480,-0.004005,-0.051690,-0.910773
5.204744,0.003242,0.008202,0.006294,0.002480,-0.004005,-0.051690,-0.904287
5.214804,0.003242,0.008202,0.006294,0.002480,-0.004005,-0.051690,-0.900854
5.224863,0.003242,0.008202,0.006294,0.002480,-0.004005,-0.051690,-0.893606
5.234974,0.003242,0.008202,0.006294,0.002480,-0.004005,-0.051690,-0.890173
5.245084,0.003242,0.008202,0.006294,0.002480,-0.004005,-0.051690,-0.883688
5.255195,0.003242,0.008202,0.006294,0.002480,-0.004005,-0.051690,-0.880636
5.265267,0.003242,0.008202,0.006294,0.002480,-0.004005,-0.051309,-0.874151
5.275330,0.003242,0.008202,0.006294,0.002480,-0.004005,-0.051309,-0.871099
5.285402,0.003242,0.008202,0.006294,0.002480,-0.004005,-0.051309,-0.864614
5.295473,0.003242,0.008202,0.006294,0.002480,-0.004005,-0.051309,-0.861563
5.305646,0.003242,0.008202,0.006294,0.002480,-0.004005,-0.051309,-0.855078
5.315726,0.003242,0.008202,0.006294,0.002480,-0.004005,-0.051309,-0.852026
5.325797,0.003242,0.008202,0.006294,0.002480,-0.004005,-0.051309,-0.845922
5.335840,0.003242,0.008202,0.006294,0.002480,-0.004005,-0.051309,-0.843251
5.345952,0.003242,0.008202,0.006294,0.002480,-0.004005,-0.051690,-0.837529
5.356067,0.003242,0.008202,0.006294,0.002480,-0.004005,-0.051690,-0.834477
5.366459,0.003242,0.008202,0.006294,0.002480,-0.004005,-0.051690,-0.828755
5.376636,0.003242,0.008202,0.006294,0.002480,-0.004005,-0.051690,-0.823033
5.386748,0.003242,0.008202,0.006294,0.002480,-0.004005,-0.051690,-0.820363
5.397087,0.003242,0.008202,0.006294,0.002480,-0.004005,-0.051690,-0.814260
5.407203,0.003242,0.008202,0.006294,0.002480,-0.004005,-0.051690,-0.811208
5.417289,0.003242,0.008202,0.006294,0.002480,-0.004005,-0.051690,-0.804723
5.427361,0.003242,0.008202,0.006294,0.002480,-0.004005,-0.051690,-0.801671
5.437471,0.003242,0.008202,0.006294,0.002480,-0.004005,-0.051690,-0.795186
5.447585,0.003242,0.008202,0.006294,0.002480,-0.004005,-0.051690,-0.792134
5.457698,0.003242,0.008202,0.006294,0.002480,-0.004005,-0.051690,-0.787175
5.467787,0.003242,0.008202,0.006294,0.002480,-0.004005,-0.051690,-0.784886
5.477846,0.003242,0.008202,0.006294,0.002480,-0.004005,-0.051690,-0.780689
5.487912,0.003242,0.008202,0.006294,0.002480,-0.004005,-0.051690,-0.778782
5.497975,0.003242,0.008202,0.006294,0.002480,-0.004005,-0.051690,-0.776112
5.508053,0.003242,0.008202,0.006294,0.002480,-0.004005,-0.051690,-0.775349
5.518389,0.003242,0.008202,0.006294,0.002480,-0.004005,-0.051690,-0.774967
5.528458,0.003242,0.008202,0.006294,0.002480,-0.004005,-0.051690,-0.774967
5.538522,0.003242,0.008202,0.006294,0.002480,-0.004005,-0.051309,-0.774967
5.548584,0.003242,0.008202,0.006294,0.002480,-0.004005,-0.051309,-0.774967
5.558649,0.003242,0.008202,0.006294,0.002480,-0.004005,-0.050164,-0.775349
5.568710,0.003242,0.008202,0.006294,0.002480,-0.004005,-0.049401,-0.775349
5.578779,0.003242,0.008202,0.006294,0.002480,-0.004005,-0.047112,-0.776493
5.588840,0.003242,0.008202,0.006294,0.002480,-0.004005,-0.045968,-0.778400
5.598903,0.003242,0.008202,0.006294,0.002480,-0.004005,-0.043679,-0.784505
5.608962,0.003242,0.008202,0.006294,0.002480,-0.004005,-0.042916,-0.788701
5.619024,0.003242,0.008202,0.006294,0.002480,-0.004005,-0.042916,-0.799001
5.629087,0.003242,0.008202,0.006294,0.002480,-0.004005,-0.042916,-0.805486
5.639157,0.003242,0.008202,0.006294,0.002480,-0.004005,-0.042916,-0.819219
5.649219,0.003242,0.008202,0.006294,0.002480,-0.004005,-0.043298,-0.827611
5.659290,0.003242,0.008202,0.006294,0.002480,-0.004005,-0.043298,-0.845922
5.669354,0.003242,0.008202,0.006294,0.002480,-0.004387,-0.043298,-0.856985
5.679419,0.003242,0.008202,0.006294,0.002480,-0.004387,-0.043298,-0.879873
5.689479,0.003242,0.008202,0.006294,0.002480,-0.004387,-0.043298,-0.891699
5.699549,0.003242,0.008202,0.006294,0.002480,-0.004387,-0.043298,-0.916877
5.709616,0.003242,0.008202,0.006294,0.002480,-0.004387,-0.043298,-0.929847
5.719726,0.003242,0.008202,0.006294,0.002480,-0.004387,-0.043298,-0.956931
5.729795,0.003242,0.008202,0.006294,0.002480,-0.004387,-0.043298,-0.970284
5.739888,0.003242,0.008202,0.006294,0.002480,-0.004387,-0.043679,-0.997749
5.749974,0.003242,0.008202,0.006294,0.002480,-0.004387,-0.044061,-1.011482
5.760086,0.003242,0.008202,0.006294,0.002480,-0.004768,-0.044824,-1.038186
5.770171,0.003242,0.008202,0.006294,0.002480,-0.004768,-0.045205,-1.051538
5.780281,0.003242,0.008202,0.006294,0.002480,-0.004768,-0.045587,-1.076715
5.790395,0.003242,0.008202,0.006294,0.002480,-0.004768,-0.045587,-1.088922
5.800507,0.003242,0.008202,0.006294,0.002480,-0.004768,-0.045587,-1.112955
5.810657,0.003242,0.008202,0.006294,0.002480,-0.004768,-0.045587,-1.123636
5.820766,0.003242,0.008202,0.006294,0.002480,-0.004768,-0.045587,-1.144617
5.830885,0.003242,0.008202,0.006294,0.002480,-0.004768,-0.045587,-1.154535
5.840979,0.003242,0.008202,0.006294,0.002480,-0.004768,-0.045587,-1.173228
5.851088,0.003242,0.008202,0.006294,0.002480,-0.004768,-0.045587,-1.182002
5.861206,0.003242,0.008202,0.006294,0.002480,-0.004768,-0.045587,-1.198024
5.871319,0.003242,0.008202,0.006294,0.002480,-0.004768,-0.045587,-1.205653
5.881394,0.003242,0.008202,0.006294,0.002480,-0.004768,-0.045587,-1.219006
5.891457,0.003242,0.008202,0.006294,0.002480,-0.004768,-0.045587,-1.225109
5.901522,0.003242,0.008202,0.006294,0.002480,-0.004768,-0.045587,-1.236172
5.911595,0.003242,0.008202,0.006294,0.002480,-0.004768,-0.045587,-1.241512
5.921705,0.003242,0.008202,0.006294,0.002480,-0.004768,-0.045587,-1.250668
5.931774,0.003242,0.008202,0.006294,0.002480,-0.004768,-0.045587,-1.259060
5.941847,0.003242,0.008202,0.006294,0.002480,-0.004768,-0.045587,-1.262875
5.951970,0.003242,0.008202,0.006294,0.002480,-0.004768,-0.045587,-1.269360
5.962056,0.003242,0.008202,0.006294,0.002480,-0.004768,-0.045587,-1.272411
5.972140,0.003242,0.008202,0.006294,0.002480,-0.004768,-0.045587,-1.275463
5.982217,0.003242,0.008202,0.006294,0.002480,-0.004768,-0.045587,-1.280422
5.992279,0.003242,0.008202,0.006294,0.002480,-0.004768,-0.045587,-1.284619
6.002393,0.003242,0.008202,0.006294,0.002480,-0.004768,-0.045587,-1.286145
6.012459,0.003242,0.008202,0.006294,0.002480,-0.004768,-0.045587,-1.289578
6.022570,0.003242,0.008202,0.006294,0.002480,-0.004768,-0.045587,-1.291104
6.032643,0.003242,0.008202,0.006294,0.002480,-0.004768,-0.045587,-1.293012
6.042757,0.003242,0.008202,0.006294,0.002480,-0.004768,-0.045587,-1.294156
6.052871,0.003242,0.008202,0.006294,0.002480,-0.004768,-0.045587,-1.296063
6.062984,0.003242,0.008202,0.006294,0.002480,-0.004768,-0.045587,-1.296445
6.073062,0.003242,0.008202,0.006294,0.002480,-0.004768,-0.045587,-1.296826
6.083171,0.003242,0.008202,0.006294,0.002480,-0.004768,-0.045587,-1.296826
6.093258,0.003242,0.008202,0.006294,0.002480,-0.004768,-0.045587,-1.296826
6.103366,0.003242,0.008202,0.006294,0.002480,-0.004768,-0.045587,-1.296826
6.113695,0.003242,0.008202,0.006294,0.002480,-0.004768,-0.045587,-1.296826
6.123781,0.003242,0.008202,0.006294,0.002480,-0.005150,-0.045587,-1.296826
6.133895,0.003242,0.008202,0.006294,0.002480,-0.005150,-0.045587,-1.296445
6.143982,0.003242,0.008202,0.006294,0.002480,-0.005150,-0.045587,-1.296445
6.154094,0.003242,0.008202,0.006294,0.002480,-0.005150,-0.045587,-1.296445
6.164207,0.003242,0.008202,0.006294,0.002480,-0.005150,-0.045587,-1.296445
6.174293,0.003242,0.008202,0.006294,0.002480,-0.005150,-0.045587,-1.296445
6.184370,0.003242,0.008202,0.006294,0.002480,-0.005150,-0.045587,-1.296063
6.194437,0.003242,0.008202,0.006294,0.002480,-0.005150,-0.045587,-1.296063
6.204508,0.003242,0.008202,0.006294,0.002480,-0.005150,-0.045587,-1.296063
6.214579,0.003242,0.008202,0.006294,0.002480,-0.005150,-0.045587,-1.295300
6.224771,0.003242,0.008202,0.006294,0.002480,-0.005150,-0.045587,-1.294919
6.234892,0.003242,0.008202,0.006294,0.002480,-0.005150,-0.045205,-1.293393
6.245011,0.003242,0.008202,0.006294,0.002480,-0.005150,-0.045205,-1.292249
6.255351,0.003242,0.008202,0.006294,0.002480,-0.005150,-0.045205,-1.288053
6.265467,0.003242,0.008202,0.006294,0.002480,-0.005531,-0.045205,-1.285382
6.275550,0.003242,0.008202,0.006294,0.002480,-0.005913,-0.045205,-1.278896
6.285670,0.003242,0.008202,0.006294,0.002480,-0.005913,-0.045205,-1.274700
6.295783,0.003242,0.008202,0.006294,0.002480,-0.005913,-0.045205,-1.265163
6.305894,0.003242,0.008202,0.006294,0.002480,-0.005913,-0.045205,-1.259823
6.316236,0.003242,0.008202,0.006294,0.002480,-0.005913,-0.044824,-1.247616
6.326304,0.003242,0.008202,0.006294,0.002480,-0.005913,-0.044824,-1.240749
6.336376,0.003242,0.008202,0.006294,0.002480,-0.005913,-0.044824,-1.225872
6.346440,0.003242,0.008202,0.006294,0.002480,-0.005913,-0.044442,-1.217479
6.356509,0.003242,0.008202,0.006294,0.002480,-0.005913,-0.044061,-1.199931
6.366571,0.003242,0.008202,0.006294,0.002480,-0.005913,-0.044061,-1.190394
6.376643,0.003242,0.008202,0.006294,0.002480,-0.005913,-0.044061,-1.170558
6.386756,0.003242,0.008202,0.006294,0.002480,-0.005913,-0.043679,-1.160640
6.396873,0.003242,0.008202,0.006294,0.002480,-0.005913,-0.043679,-1.140039
6.406958,0.003624,0.008202,0.006294,0.002480,-0.005913,-0.043298,-1.129740
6.417069,0.003624,0.008202,0.006294,0.002480,-0.005913,-0.043298,-1.108377
6.427181,0.003624,0.008202,0.006294,0.002480,-0.005913,-0.043298,-1.097315
6.437291,0.003624,0.008202,0.006294,0.002480,-0.005913,-0.043298,-1.075189
6.447404,0.003624,0.008202,0.006294,0.002480,-0.005913,-0.043298,-1.053826
6.457576,0.003624,0.008202,0.006294,0.002480,-0.005913,-0.043298,-1.043527
6.467664,0.003624,0.008202,0.006294,0.002480,-0.005913,-0.043298,-1.022926
6.477736,0.003624,0.008202,0.006294,0.002480,-0.005913,-0.043298,-1.013008
6.487862,0.003624,0.008202,0.006294,0.002480,-0.005913,-0.043298,-0.993553
6.497983,0.003624,0.008202,0.006294,0.002480,-0.005913,-0.043298,-0.982491
6.508057,0.003624,0.008202,0.006294,0.002480,-0.005913,-0.043298,-0.973717
6.518121,0.003624,0.008202,0.006294,0.002480,-0.005531,-0.043298,-0.956168
6.528187,0.003624,0.008202,0.006294,0.002480,-0.005531,-0.043679,-0.948157
6.538299,0.003624,0.008202,0.006294,0.002480,-0.005531,-0.044442,-0.932517
6.548367,0.003624,0.008202,0.006294,0.002480,-0.005531,-0.044824,-0.925269
6.558483,0.003624,0.008202,0.006294,0.002480,-0.005531,-0.045587,-0.910773
6.568594,0.003624,0.008202,0.006294,0.002480,-0.005531,-0.045968,-0.903143
6.578683,0.003624,0.008202,0.006294,0.002480,-0.005531,-0.045968,-0.889029
6.588794,0.003624,0.008202,0.006294,0.002480,-0.005531,-0.045968,-0.882162
6.598908,0.003624,0.008202,0.006294,0.002480,-0.005531,-0.045968,-0.869192
6.609046,0.003624,0.008202,0.006294,0.002480,-0.005531,-0.045968,-0.856604
6.619183,0.003624,0.008202,0.006294,0.002480,-0.005531,-0.045968,-0.850500
6.629303,0.003624,0.008202,0.006294,0.002480,-0.005531,-0.045968,-0.839437
6.639414,0.003624,0.008202,0.006294,0.002480,-0.005531,-0.046350,-0.834477
6.649531,0.003624,0.008202,0.006294,0.002480,-0.005531,-0.046350,-0.824559
6.659652,0.003624,0.008202,0.006294,0.002480,-0.005531,-0.046350,-0.819982
6.669731,0.003624,0.008202,0.006294,0.002480,-0.005150,-0.047112,-0.810445
6.679803,0.003624,0.008202,0.006294,0.002480,-0.005150,-0.047494,-0.805486
6.689918,0.003624,0.008202,0.006294,0.002480,-0.005150,-0.048638,-0.795949
6.700030,0.003624,0.008202,0.006294,0.002480,-0.005150,-0.049401,-0.791371
6.710126,0.003624,0.008202,0.006294,0.002480,-0.005150,-0.050164,-0.782598
6.720235,0.003624,0.008202,0.006294,0.002480,-0.005150,-0.050164,-0.778400
6.730354,0.003624,0.008202,0.006294,0.002480,-0.005150,-0.050164,-0.770008
6.740465,0.003624,0.008202,0.006294,0.002480,-0.004768,-0.050164,-0.766193
6.750583,0.003624,0.008202,0.006294,0.002480,-0.004768,-0.050546,-0.758945
6.760697,0.003624,0.008202,0.006294,0.002480,-0.004768,-0.050927,-0.755512
6.770888,0.003624,0.008202,0.006294,0.002098,-0.004768,-0.051309,-0.749027
6.780999,0.003624,0.008202,0.006294,0.002098,-0.004768,-0.051309,-0.746357
6.791111,0.003624,0.008202,0.006294,0.002098,-0.004768,-0.051690,-0.740635
6.801221,0.003624,0.008202,0.006294,0.002098,-0.004768,-0.051690,-0.738346
6.811311,0.003624,0.008202,0.006294,0.002098,-0.004768,-0.051690,-0.733768
6.821419,0.003624,0.008202,0.006294,0.002098,-0.004768,-0.051690,-0.732243
6.831528,0.003624,0.008202,0.006294,0.002098,-0.004768,-0.051690,-0.730335
6.841641,0.003624,0.008202,0.006294,0.002098,-0.004768,-0.051690,-0.729954
6.851753,0.003624,0.008202,0.006294,0.002098,-0.004768,-0.051690,-0.729954
6.861900,0.003624,0.008202,0.006294,0.002098,-0.004768,-0.051690,-0.729954
6.872011,0.003624,0.008202,0.006294,0.002098,-0.004768,-0.051690,-0.729954
6.882123,0.003624,0.008202,0.006294,0.002098,-0.004768,-0.051690,-0.729954
6.892230,0.003624,0.008202,0.006294,0.002480,-0.004768,-0.051690,-0.730335
6.902341,0.003624,0.008202,0.006294,0.002480,-0.004768,-0.051690,-0.730335
6.912454,0.003624,0.008202,0.006294,0.002480,-0.004768,-0.051690,-0.730335
6.922565,0.003624,0.008202,0.006294,0.002480,-0.004768,-0.051690,-0.730335
6.932675,0.003624,0.008202,0.006294,0.002480,-0.004768,-0.051690,-0.731098
6.942792,0.003624,0.008202,0.006294,0.002098,-0.004768,-0.051309,-0.733006
6.952905,0.003624,0.008202,0.006294,0.002098,-0.004768,-0.051309,-0.734531
6.963017,0.003624,0.008202,0.006294,0.002098,-0.004768,-0.050927,-0.738346
6.973127,0.003624,0.008202,0.006294,0.002098,-0.005150,-0.050546,-0.741016
6.983238,0.003624,0.008202,0.006294,0.001717,-0.005150,-0.049401,-0.748264
6.993351,0.003624,0.008202,0.006294,0.001717,-0.005150,-0.049401,-0.752460
7.003460,0.003624,0.008202,0.006294,0.001335,-0.005150,-0.049020,-0.763523
7.013574,0.003624,0.008202,0.006294,0.001335,-0.005150,-0.049020,-0.770008
7.023683,0.003624,0.008202,0.006294,0.001717,-0.005150,-0.049020,-0.785649
7.033794,0.003624,0.008202,0.006294,0.001717,-0.005150,-0.049020,-0.794042
7.043861,0.003624,0.008202,0.006294,0.001717,-0.004768,-0.048638,-0.811971
7.053971,0.003624,0.008202,0.006294,0.001717,-0.004768,-0.048638,-0.821889
7.064063,0.003624,0.008202,0.006294,0.001717,-0.004768,-0.048638,-0.842488
7.074175,0.003624,0.008202,0.006294,0.001717,-0.005150,-0.048638,-0.853170
7.084290,0.003624,0.008202,0.006294,0.001717,-0.005150,-0.048638,-0.876059
7.094412,0.003624,0.008202,0.006294,0.001717,-0.005150,-0.048638,-0.887884
7.104524,0.003624,0.008202,0.006294,0.001717,-0.005150,-0.048638,-0.911918
7.114640,0.003624,0.008202,0.006294,0.001717,-0.005150,-0.048257,-0.924125
7.124751,0.003624,0.008202,0.006294,0.001717,-0.005150,-0.047112,-0.948920
7.134818,0.003624,0.008202,0.006294,0.001717,-0.005150,-0.046350,-0.961890
7.144932,0.003624,0.008202,0.006294,0.001717,-0.005150,-0.045205,-0.987068
7.155265,0.003624,0.008202,0.006294,0.001717,-0.005150,-0.044824,-0.998894
7.165607,0.003624,0.008202,0.006294,0.002098,-0.005150,-0.044824,-1.022545
7.175726,0.003624,0.008202,0.006294,0.002098,-0.005150,-0.044824,-1.034753
7.185849,0.003624,0.008202,0.006294,0.002480,-0.005150,-0.044824,-1.058022
7.195914,0.003624,0.008202,0.006294,0.002480,-0.005150,-0.044824,-1.069467
7.205987,0.003624,0.008202,0.006294,0.002480,-0.005150,-0.044824,-1.091210
7.216054,0.003624,0.008202,0.006294,0.002480,-0.005150,-0.044824,-1.101511
7.226165,0.003624,0.008202,0.006294,0.002480,-0.005150,-0.044824,-1.121729
7.236279,0.003624,0.008202,0.006294,0.002480,-0.005150,-0.045205,-1.130884
7.246396,0.003624,0.008202,0.006294,0.002480,-0.005150,-0.045205,-1.148813
7.256510,0.003624,0.008202,0.006294,0.002480,-0.005150,-0.045205,-1.157588
7.266602,0.003624,0.008202,0.006294,0.002480,-0.005150,-0.045205,-1.173610
7.276664,0.003624,0.008202,0.006294,0.002098,-0.005150,-0.045205,-1.181239
7.286727,0.003624,0.008202,0.006294,0.002098,-0.005150,-0.045205,-1.195354
7.296789,0.003624,0.008202,0.006294,0.002098,-0.005150,-0.045205,-1.201457
7.306905,0.003624,0.008202,0.006294,0.002098,-0.005150,-0.045205,-1.213283
7.316981,0.003624,0.008202,0.006294,0.002098,-0.005150,-0.045205,-1.218623
7.327093,0.003624,0.008202,0.006294,0.002098,-0.005150,-0.045205,-1.228924
7.337205,0.003624,0.008202,0.006294,0.002098,-0.005150,-0.045205,-1.233501
7.347322,0.003624,0.008202,0.006294,0.002098,-0.005150,-0.045205,-1.241894
7.357433,0.003624,0.008202,0.006294,0.002098,-0.005150,-0.045205,-1.245327
7.367546,0.003624,0.008202,0.006294,0.002098,-0.005150,-0.045205,-1.252575
7.377659,0.003624,0.008202,0.006294,0.002098,-0.005150,-0.045205,-1.255627
7.387773,0.003624,0.008202,0.006294,0.002098,-0.005150,-0.045205,-1.261349
7.397890,0.003624,0.008202,0.006294,0.002098,-0.005150,-0.045205,-1.264019
7.407956,0.003624,0.008202,0.006294,0.002098,-0.005150,-0.045205,-1.268597
7.418070,0.003624,0.008202,0.006294,0.002098,-0.005150,-0.045205,-1.270504
7.428181,0.003624,0.008202,0.006294,0.002098,-0.005150,-0.045205,-1.274319
7.438266,0.003624,0.008202,0.006294,0.002098,-0.005150,-0.045205,-1.275845
7.448333,0.003624,0.008202,0.006294,0.002098,-0.005150,-0.045205,-1.278896
7.458393,0.003624,0.008202,0.006294,0.002098,-0.005150,-0.045205,-1.280041
7.468456,0.003624,0.008202,0.006294,0.002098,-0.005150,-0.045205,-1.281949
7.478524,0.003624,0.008202,0.006294,0.002098,-0.005150,-0.045205,-1.282712
7.488596,0.003624,0.008202,0.006294,0.002098,-0.005150,-0.045205,-1.283856
7.498704,0.003624,0.008202,0.006294,0.002098,-0.005150,-0.045205,-1.284238
7.508820,0.003624,0.008202,0.006294,0.002098,-0.005150,-0.045205,-1.284238
7.518933,0.003624,0.008202,0.006294,0.002098,-0.005150,-0.045205,-1.284238
7.529142,0.003624,0.008202,0.006294,0.002098,-0.005150,-0.045205,-1.284238
7.539255,0.003624,0.008202,0.006294,0.002098,-0.005150,-0.045205,-1.284238
7.549369,0.003624,0.008202,0.006294,0.002098,-0.005150,-0.045205,-1.284238
7.559482,0.003624,0.008202,0.006294,0.002098,-0.005150,-0.045205,-1.284238
7.569593,0.003624,0.008202,0.006294,0.002098,-0.005150,-0.045205,-1.284238
7.579657,0.003624,0.008202,0.006294,0.002098,-0.005150,-0.045205,-1.284238
7.589733,0.003624,0.008202,0.006294,0.002098,-0.005150,-0.045205,-1.284238
7.599816,0.003624,0.008202,0.006294,0.002098,-0.005150,-0.045205,-1.284238
7.609878,0.003624,0.008202,0.006294,0.002098,-0.005150,-0.045205,-1.284238
7.619991,0.003624,0.008202,0.006294,0.002098,-0.005150,-0.045205,-1.284238
7.630105,0.003624,0.008202,0.006294,0.002098,-0.005150,-0.045205,-1.284238
7.640219,0.003624,0.008202,0.006294,0.002098,-0.005150,-0.045205,-1.284238
7.650332,0.003624,0.008202,0.006294,0.002098,-0.005150,-0.045205,-1.284238
7.660449,0.003624,0.008202,0.006294,0.002098,-0.005150,-0.045205,-1.284238
7.670529,0.003624,0.008202,0.006294,0.002098,-0.005150,-0.045205,-1.284238
7.680600,0.003624,0.008202,0.006294,0.002098,-0.005150,-0.045205,-1.284238
7.690669,0.003624,0.008202,0.006294,0.002480,-0.005150,-0.045205,-1.284238
7.700785,0.003624,0.008202,0.006294,0.002480,-0.005150,-0.045205,-1.284238
7.710892,0.003624,0.008202,0.006294,0.002480,-0.005150,-0.045205,-1.284238
7.720965,0.003624,0.008202,0.006294,0.002480,-0.005150,-0.045205,-1.284238
7.731029,0.003624,0.008202,0.006294,0.002480,-0.005150,-0.045205,-1.284238
7.741109,0.003624,0.008202,0.006294,0.002480,-0.005150,-0.045205,-1.284238
7.751222,0.003624,0.008202,0.006294,0.002480,-0.005150,-0.045205,-1.284238
7.761341,0.003624,0.008202,0.006294,0.002480,-0.005150,-0.045205,-1.284238
7.771452,0.003624,0.008202,0.006294,0.002480,-0.005150,-0.045205,-1.284238
7.781563,0.003624,0.008202,0.006294,0.002480,-0.005150,-0.045205,-1.284238
7.791673,0.003624,0.008202,0.006294,0.002480,-0.005150,-0.045205,-1.284238
7.801789,0.003624,0.008202,0.006294,0.002480,-0.005531,-0.045205,-1.284238
7.811862,0.003624,0.008202,0.006294,0.002480,-0.005913,-0.045205,-1.284238
7.821972,0.003624,0.008202,0.006294,0.002480,-0.005913,-0.045205,-1.284238
7.832058,0.003624,0.008202,0.006294,0.002480,-0.005913,-0.045205,-1.284238
7.842167,0.003624,0.008202,0.006294,0.002480,-0.005913,-0.045205,-1.284238
7.852251,0.003624,0.008202,0.006294,0.002480,-0.005913,-0.045205,-1.284238
7.862330,0.003624,0.008202,0.006294,0.002480,-0.005913,-0.045205,-1.284238
7.872396,0.003624,0.008202,0.006294,0.002480,-0.005913,-0.045205,-1.284238
7.882462,0.003624,0.008202,0.006294,0.002098,-0.006294,-0.045205,-1.284238
7.892570,0.003624,0.008202,0.006294,0.002098,-0.006294,-0.045205,-1.284238
7.902683,0.003624,0.008202,0.006294,0.002098,-0.006294,-0.045205,-1.284238
7.912749,0.003624,0.008202,0.006294,0.002098,-0.006676,-0.045205,-1.284238
7.922858,0.003624,0.008202,0.006294,0.002098,-0.007057,-0.045205,-1.284238
7.932995,0.003624,0.008202,0.006294,0.002098,-0.007057,-0.045205,-1.284238
7.943225,0.003624,0.008202,0.006294,0.002098,-0.007057,-0.045205,-1.284238
7.953362,0.003624,0.008202,0.006294,0.002098,-0.007439,-0.045205,-1.284238
7.963430,0.003624,0.008202,0.006294,0.002098,-0.007439,-0.045205,-1.283856
7.973540,0.003624,0.008202,0.006294,0.002098,-0.007820,-0.045205,-1.283856
7.983653,0.003624,0.008202,0.006294,0.002098,-0.007820,-0.045205,-1.283475
7.993788,0.003624,0.008202,0.006294,0.002098,-0.007820,-0.045205,-1.283093
8.003896,0.003624,0.008202,0.006294,0.002098,-0.007820,-0.045205,-1.281949
8.013984,0.003624,0.008202,0.006294,0.002098,-0.008202,-0.045205,-1.281185
8.024095,0.003624,0.008202,0.006294,0.002098,-0.008202,-0.045205,-1.278896
8.034206,0.003624,0.008202,0.006294,0.002098,-0.008583,-0.045205,-1.277370
8.044306,0.003624,0.008202,0.006294,0.002098,-0.008965,-0.045205,-1.273556
8.054418,0.003624,0.008202,0.006294,0.002098,-0.008965,-0.045205,-1.271648
8.064526,0.003624,0.008202,0.006294,0.002098,-0.008965,-0.045205,-1.266689
8.074624,0.003624,0.008202,0.006294,0.002098,-0.008965,-0.045205,-1.263638
8.084708,0.003624,0.008202,0.006294,0.002098,-0.008965,-0.045205,-1.257153
8.094804,0.003624,0.008202,0.006294,0.002098,-0.008965,-0.045205,-1.253338
8.104843,0.003624,0.008202,0.006294,0.002098,-0.008965,-0.045205,-1.245327
8.114911,0.003624,0.008202,0.006294,0.002098,-0.008965,-0.045205,-1.240749
8.124974,0.003624,0.008202,0.006294,0.002098,-0.008965,-0.045205,-1.231213
8.135036,0.003624,0.008202,0.006294,0.002098,-0.008965,-0.045205,-1.225872
8.145150,0.003624,0.008202,0.006294,0.002098,-0.008965,-0.045205,-1.214808
8.155260,0.003624,0.008202,0.006294,0.002098,-0.008965,-0.045205,-1.208705
8.165346,0.003624,0.008202,0.006294,0.002098,-0.008965,-0.045587,-1.196116
8.175412,0.003624,0.008202,0.006294,0.002098,-0.008965,-0.045587,-1.189250
8.185525,0.003624,0.008202,0.006294,0.002098,-0.008965,-0.045968,-1.175136
8.195604,0.003624,0.008202,0.006294,0.002098,-0.008965,-0.046350,-1.168269
8.205676,0.003624,0.008202,0.006294,0.002098,-0.008965,-0.046350,-1.154154
8.215736,0.003624,0.008202,0.006294,0.002098,-0.008965,-0.046350,-1.147287
8.225807,0.003624,0.008202,0.006294,0.002098,-0.008583,-0.046350,-1.133554
8.235839,0.003624,0.008202,0.006294,0.002098,-0.008583,-0.046731,-1.127069
8.245909,0.003624,0.008202,0.006294,0.002098,-0.008583,-0.047875,-1.113718
8.255969,0.003624,0.008202,0.006294,0.002098,-0.008583,-0.048638,-1.106852
8.266037,0.003624,0.008202,0.006294,0.002098,-0.008583,-0.050927,-1.093118
8.276100,0.003624,0.008202,0.006294,0.002098,-0.008202,-0.051690,-1.086251
8.286172,0.003624,0.008202,0.006294,0.002098,-0.008202,-0.052835,-1.073663
8.296247,0.003624,0.008202,0.006294,0.002098,-0.007439,-0.053216,-1.067559
8.306358,0.003624,0.008202,0.006294,0.002098,-0.007439,-0.053597,-1.056115
8.316445,0.003624,0.008202,0.006294,0.002098,-0.006294,-0.053979,-1.050393
8.326562,0.003624,0.008202,0.006294,0.002098,-0.005531,-0.054360,-1.039712
8.336673,0.003624,0.008202,0.006294,0.002098,-0.005150,-0.055123,-1.029411
8.346784,0.003624,0.008202,0.006294,0.002098,-0.004768,-0.055886,-1.024834
8.356839,0.003624,0.008202,0.006294,0.002480,-0.004768,-0.057031,-1.019493
8.366914,0.003624,0.008202,0.006294,0.002480,-0.004768,-0.057412,-1.009193
8.377025,0.003624,0.008202,0.006294,0.002480,-0.004768,-0.057794,-0.997749
8.387138,0.003624,0.008202,0.006294,0.002480,-0.004768,-0.057794,-0.992027
8.397208,0.003624,0.008202,0.006294,0.002480,-0.004768,-0.058557,-0.985924
8.407278,0.003624,0.008202,0.006294,0.002480,-0.004768,-0.058557,-0.974480
8.417339,0.003624,0.008202,0.006294,0.002480,-0.004768,-0.058557,-0.968758
8.427403,0.003624,0.008202,0.006294,0.002480,-0.004768,-0.058557,-0.957313
8.437465,0.003624,0.008202,0.006294,0.002480,-0.004768,-0.058557,-0.951591
8.447533,0.003624,0.008202,0.006294,0.002480,-0.004768,-0.058557,-0.940528
8.457594,0.003242,0.008202,0.006294,0.002098,-0.004768,-0.058938,-0.934806
8.467663,0.003242,0.008202,0.006294,0.002098,-0.004768,-0.059319,-0.924125
8.477733,0.003242,0.008202,0.006294,0.002098,-0.004768,-0.060082,-0.914207
8.487804,0.003242,0.008202,0.006294,0.002098,-0.004768,-0.060845,-0.909247
8.497841,0.003242,0.008202,0.006294,0.002098,-0.004768,-0.062371,-0.899328
8.507949,0.003242,0.008202,0.006294,0.002098,-0.004768,-0.063516,-0.894369
8.518058,0.003242,0.008202,0.006294,0.002098,-0.004768,-0.064660,-0.885214
8.528137,0.003242,0.008202,0.006294,0.002098,-0.004768,-0.065042,-0.881018
8.538202,0.003242,0.008202,0.006294,0.002098,-0.004768,-0.065042,-0.873007
8.548275,0.003242,0.008202,0.006294,0.002098,-0.004768,-0.065042,-0.869192
8.558341,0.003242,0.008202,0.006294,0.002098,-0.004768,-0.065042,-0.862326
8.568406,0.003242,0.008202,0.006294,0.002098,-0.004768,-0.065042,-0.858892
8.578470,0.003242,0.008202,0.006294,0.002098,-0.004768,-0.065042,-0.852407
8.588593,0.003242,0.008202,0.006294,0.002098,-0.004768,-0.065042,-0.849356
8.598664,0.003242,0.008202,0.006294,0.002098,-0.004768,-0.065042,-0.843633
8.608739,0.003242,0.008202,0.006294,0.002098,-0.004768,-0.065042,-0.840962
8.618807,0.003242,0.008202,0.006294,0.002098,-0.004768,-0.065042,-0.835622
8.628869,0.003242,0.008202,0.006294,0.002098,-0.004768,-0.065042,-0.832952
8.638937,0.003242,0.008202,0.006294,0.002098,-0.004768,-0.065042,-0.827229
8.649008,0.003242,0.008202,0.006294,0.002098,-0.004768,-0.065042,-0.824559
8.659075,0.003242,0.008202,0.006294,0.002098,-0.004768,-0.065042,-0.819600
8.669191,0.003242,0.008202,0.006294,0.002098,-0.004768,-0.065042,-0.816930
8.679264,0.003242,0.008202,0.006294,0.002098,-0.004768,-0.065042,-0.811971
8.689339,0.003242,0.008202,0.006294,0.002098,-0.004768,-0.065042,-0.809682
8.699402,0.003242,0.008202,0.006294,0.002098,-0.004768,-0.065042,-0.804723
8.709473,0.003242,0.008202,0.006294,0.002098,-0.004768,-0.065042,-0.802434
8.719536,0.003242,0.008202,0.006294,0.002098,-0.004768,-0.065042,-0.798238
8.729602,0.003242,0.008202,0.006294,0.002098,-0.004768,-0.065042,-0.795949
8.739667,0.003242,0.008202,0.006294,0.002098,-0.004768,-0.065042,-0.791753
8.749738,0.003242,0.008202,0.006294,0.002098,-0.004768,-0.065042,-0.790227
8.759804,0.003242,0.008202,0.006294,0.002098,-0.004768,-0.065042,-0.787557
8.769881,0.003242,0.008202,0.006294,0.002098,-0.004768,-0.065042,-0.786031
8.779949,0.003242,0.008202,0.006294,0.002098,-0.004768,-0.065042,-0.783742
8.790020,0.003242,0.008202,0.006294,0.002098,-0.004768,-0.065042,-0.782598
8.800085,0.003242,0.008202,0.006294,0.002098,-0.004768,-0.065042,-0.780689
8.810149,0.003242,0.008202,0.006294,0.002098,-0.004768,-0.065042,-0.779545
8.820215,0.003242,0.008202,0.006294,0.002098,-0.004768,-0.065042,-0.777256
8.830290,0.003242,0.008202,0.006294,0.002098,-0.004768,-0.065042,-0.776112
8.840354,0.003242,0.008202,0.006294,0.002098,-0.004768,-0.065042,-0.774204
8.850418,0.003242,0.008202,0.006294,0.002098,-0.004768,-0.065042,-0.773060
8.860489,0.003242,0.008202,0.006294,0.002098,-0.004768,-0.065042,-0.770390
8.870554,0.003242,0.008202,0.006294,0.002098,-0.004768,-0.065042,-0.769245
8.880625,0.003242,0.008202,0.006294,0.002098,-0.004768,-0.065042,-0.766193
8.890705,0.003242,0.008202,0.006294,0.002098,-0.004768,-0.065042,-0.764286
8.900794,0.003242,0.008202,0.006294,0.002098,-0.004768,-0.065042,-0.761234
8.910906,0.003242,0.008202,0.006294,0.002098,-0.004768,-0.065042,-0.760090
8.921017,0.003242,0.008202,0.006294,0.002098,-0.004768,-0.065042,-0.757801
8.931088,0.003242,0.008202,0.006294,0.002098,-0.004768,-0.065042,-0.756657
8.941155,0.003242,0.008202,0.006294,0.002098,-0.004768,-0.065042,-0.754749
8.951223,0.003242,0.008202,0.006294,0.002098,-0.004768,-0.065042,-0.753986
8.961288,0.003242,0.008202,0.006294,0.002098,-0.004768,-0.065042,-0.751698
8.971369,0.003242,0.008202,0.006294,0.002098,-0.004768,-0.065042,-0.750553
8.981435,0.003242,0.008202,0.006294,0.002098,-0.004768,-0.065042,-0.748646
8.991509,0.003242,0.008202,0.006294,0.002098,-0.004768,-0.065042,-0.747883
9.001581,0.003242,0.008202,0.006294,0.002098,-0.004768,-0.065042,-0.746738
9.011670,0.003242,0.008202,0.006294,0.002098,-0.004768,-0.065042,-0.746357
9.021737,0.003242,0.008202,0.006294,0.002098,-0.004768,-0.065042,-0.745975
9.031804,0.003242,0.008202,0.006294,0.002098,-0.004768,-0.065042,-0.745594
9.041893,0.003242,0.008202,0.006294,0.002098,-0.004768,-0.065042,-0.745594
9.052006,0.003242,0.008202,0.006294,0.002098,-0.004768,-0.065042,-0.745213
9.062121,0.003242,0.008202,0.006294,0.002098,-0.004768,-0.065042,-0.745213
9.072212,0.003242,0.008202,0.006294,0.002098,-0.004768,-0.065042,-0.745213
9.082280,0.003242,0.008202,0.006294,0.002098,-0.004768,-0.065042,-0.745213
9.092350,0.003242,0.008202,0.006294,0.002098,-0.004768,-0.065042,-0.745213
9.102420,0.003242,0.008202,0.006294,0.002098,-0.004768,-0.065042,-0.745213
9.112502,0.003242,0.008202,0.006294,0.002098,-0.004768,-0.065042,-0.745213
9.122567,0.003242,0.008202,0.006294,0.002098,-0.004768,-0.065042,-0.745213
9.132634,0.003242,0.008202,0.006294,0.002098,-0.004768,-0.064660,-0.745213
9.142697,0.003242,0.008202,0.006294,0.002098,-0.004768,-0.064660,-0.745213
9.152767,0.003242,0.008202,0.006294,0.002098,-0.004768,-0.064660,-0.745213
9.162831,0.003242,0.008202,0.006294,0.002480,-0.004768,-0.064660,-0.745213
9.172905,0.003242,0.008202,0.006294,0.002480,-0.004768,-0.064660,-0.745213
9.182972,0.003242,0.008202,0.006294,0.002480,-0.004768,-0.064660,-0.745213
9.193040,0.003242,0.008202,0.006294,0.002480,-0.004768,-0.064660,-0.745213
9.203105,0.003242,0.008202,0.006294,0.002480,-0.004768,-0.064660,-0.745213
9.213187,0.003242,0.008202,0.006294,0.002480,-0.004768,-0.065042,-0.745213
9.223250,0.003242,0.008202,0.006294,0.002480,-0.004768,-0.065042,-0.745213
9.233315,0.003242,0.008202,0.006294,0.002480,-0.004768,-0.065042,-0.745213
9.243381,0.003242,0.008202,0.006294,0.002480,-0.004768,-0.065042,-0.745213
9.253450,0.003242,0.008202,0.006294,0.002480,-0.004768,-0.064660,-0.745594
9.263516,0.003242,0.008202,0.006294,0.002480,-0.004768,-0.064660,-0.745975
9.273581,0.003242,0.008202,0.006294,0.002480,-0.004768,-0.064660,-0.746357
9.283648,0.003242,0.008202,0.006294,0.002480,-0.004768,-0.063516,-0.748646
9.293713,0.003242,0.008202,0.006294,0.002480,-0.004768,-0.062753,-0.750172
9.303778,0.003242,0.008202,0.006294,0.002480,-0.004768,-0.061608,-0.756275
9.313847,0.003242,0.008202,0.006294,0.002480,-0.004768,-0.061227,-0.760853
9.323918,0.003242,0.008202,0.006294,0.002480,-0.004768,-0.060082,-0.771915
9.333985,0.003242,0.008202,0.006294,0.002480,-0.004768,-0.059701,-0.778782
9.344057,0.003242,0.008202,0.006294,0.002480,-0.004768,-0.058557,-0.794805
9.354120,0.003242,0.008202,0.006294,0.002480,-0.005150,-0.057794,-0.803578
9.364185,0.003242,0.008202,0.006294,0.002480,-0.005150,-0.057412,-0.822270
9.374246,0.003242,0.008202,0.006294,0.002480,-0.005150,-0.057412,-0.832570
9.384309,0.003242,0.008202,0.006294,0.002480,-0.005150,-0.057412,-0.854696
9.394374,0.003242,0.008202,0.006294,0.002480,-0.005150,-0.057412,-0.866903
9.404484,0.003242,0.008202,0.006294,0.002480,-0.005150,-0.057412,-0.890554
9.414552,0.003242,0.008202,0.006294,0.002480,-0.005150,-0.057031,-0.903143
9.424661,0.003242,0.008202,0.006294,0.002480,-0.005150,-0.057031,-0.929084
9.434771,0.003242,0.008202,0.006294,0.002480,-0.005150,-0.056649,-0.942054
9.444892,0.003242,0.008202,0.006294,0.002480,-0.005150,-0.056268,-0.968375
9.454978,0.003242,0.008202,0.006294,0.002480,-0.005150,-0.055886,-0.981346
9.465088,0.003242,0.008202,0.006294,0.002480,-0.005150,-0.055886,-1.007286
9.475155,0.003242,0.008202,0.006294,0.002480,-0.005150,-0.055886,-1.019875
9.485222,0.003242,0.008202,0.006294,0.002480,-0.005150,-0.055505,-1.044671
9.495334,0.003242,0.008202,0.006294,0.002480,-0.005150,-0.055505,-1.056878
9.505401,0.003242,0.008202,0.006294,0.002480,-0.005150,-0.055505,-1.080529
9.515493,0.003242,0.008202,0.006294,0.002480,-0.005150,-0.055505,-1.091592
9.525604,0.003242,0.008202,0.006294,0.002480,-0.004768,-0.055505,-1.112955
9.535717,0.003242,0.008202,0.006294,0.002480,-0.004768,-0.055505,-1.122873
9.545850,0.003242,0.008202,0.006294,0.002480,-0.004768,-0.055505,-1.141947
9.555962,0.003242,0.008202,0.006294,0.002480,-0.004768,-0.055505,-1.151102
9.566034,0.003242,0.008202,0.006294,0.002480,-0.004768,-0.055505,-1.167506
9.576144,0.003242,0.008202,0.006294,0.002480,-0.005150,-0.055505,-1.182384
9.586256,0.003242,0.008202,0.006294,0.002480,-0.005150,-0.055505,-1.189631
9.596353,0.003242,0.008202,0.006294,0.002480,-0.005150,-0.055505,-1.201838
9.606453,0.003242,0.008202,0.006294,0.002480,-0.005150,-0.055505,-1.207942
9.616604,0.003242,0.008202,0.006294,0.002480,-0.005150,-0.055505,-1.218242
9.626716,0.003242,0.008202,0.006294,0.002480,-0.005150,-0.055505,-1.223202
9.636841,0.003242,0.008202,0.006294,0.002480,-0.005150,-0.055505,-1.232357
9.646921,0.003242,0.008202,0.006294,0.002480,-0.005150,-0.055505,-1.236172
9.657038,0.003242,0.008202,0.006294,0.002480,-0.005150,-0.055505,-1.243801
9.667126,0.003242,0.008202,0.006294,0.002480,-0.005150,-0.055505,-1.247234
9.677194,0.003242,0.008202,0.006294,0.002480,-0.005150,-0.055505,-1.253719
9.687263,0.003242,0.008202,0.006294,0.002480,-0.005150,-0.055505,-1.256771
9.697341,0.003242,0.008202,0.006294,0.002480,-0.005150,-0.055505,-1.262112
9.707409,0.003242,0.008202,0.006294,0.002480,-0.005150,-0.055505,-1.264782
9.717483,0.003242,0.008202,0.006294,0.002480,-0.005150,-0.055505,-1.268978
9.727548,0.003242,0.008202,0.006294,0.002480,-0.005150,-0.055505,-1.270885
9.737613,0.003242,0.008202,0.006294,0.002480,-0.005531,-0.055505,-1.274319
9.747678,0.003242,0.008202,0.006294,0.002480,-0.005531,-0.055505,-1.275845
9.757745,0.003242,0.008202,0.006294,0.002480,-0.005913,-0.055505,-1.278515
9.767812,0.003242,0.008202,0.006294,0.002480,-0.005913,-0.055505,-1.279659
9.777925,0.003242,0.008202,0.006294,0.002480,-0.005913,-0.055505,-1.281568
9.788003,0.003242,0.008202,0.006294,0.002480,-0.005913,-0.055505,-1.282712
9.798088,0.003242,0.008202,0.006294,0.002480,-0.005913,-0.055505,-1.283856
9.808197,0.003242,0.008202,0.006294,0.002480,-0.005913,-0.055505,-1.284619
9.818308,0.003242,0.008202,0.006294,0.002480,-0.005913,-0.055505,-1.285001
9.828415,0.003242,0.008202,0.006294,0.002098,-0.005913,-0.055505,-1.285382
9.838497,0.003242,0.008202,0.006294,0.002098,-0.005913,-0.055505,-1.285382
9.848563,0.003242,0.008202,0.006294,0.002098,-0.005913,-0.055505,-1.285382
9.858673,0.003242,0.008202,0.006294,0.002098,-0.005913,-0.055505,-1.285382
9.868782,0.003242,0.008202,0.006294,0.002098,-0.005913,-0.055505,-1.285382
9.878905,0.003242,0.008202,0.006294,0.002098,-0.005913,-0.055505,-1.285382
9.888973,0.003242,0.008202,0.006294,0.002098,-0.005913,-0.055505,-1.285382
9.899041,0.003242,0.008202,0.006294,0.002098,-0.005913,-0.055505,-1.285382
9.909107,0.003242,0.008202,0.006294,0.002098,-0.005913,-0.055505,-1.285382
9.919190,0.003242,0.008202,0.006294,0.002098,-0.005913,-0.055505,-1.285382
9.929267,0.003242,0.008202,0.006294,0.002098,-0.005913,-0.055505,-1.285382
9.939338,0.003242,0.008202,0.006294,0.002098,-0.005913,-0.055505,-1.285382
9.949413,0.003242,0.008202,0.006294,0.002098,-0.005913,-0.055505,-1.285382
9.959528,0.003242,0.008202,0.006294,0.002098,-0.005913,-0.055505,-1.285382
9.969642,0.003242,0.008202,0.006294,0.002098,-0.005913,-0.055505,-1.285382
9.979755,0.003242,0.008202,0.006294,0.002098,-0.005531,-0.055505,-1.285382
9.989843,0.003242,0.008202,0.006294,0.002098,-0.005531,-0.055505,-1.285382
9.999931,0.003242,0.008202,0.006294,0.002098,-0.005531,-0.055505,-1.285382
10.010042,0.003242,0.008202,0.006294,0.002098,-0.005531,-0.055505,-1.285382
10.020155,0.003242,0.008202,0.006294,0.002098,-0.005531,-0.055886,-1.285382
10.030268,0.003242,0.008202,0.006294,0.002098,-0.005531,-0.055886,-1.285382
10.040382,0.003242,0.008202,0.006294,0.002098,-0.005531,-0.055886,-1.285382
10.050495,0.003242,0.008202,0.006294,0.002098,-0.005531,-0.055886,-1.285382
10.060610,0.003242,0.008202,0.006294,0.002098,-0.005531,-0.055886,-1.285382
10.070683,0.003242,0.008202,0.006294,0.002098,-0.005531,-0.055886,-1.285382
10.080796,0.003242,0.008202,0.006294,0.002098,-0.005531,-0.056268,-1.285382
10.090843,0.003242,0.008202,0.006294,0.002098,-0.005531,-0.056268,-1.285382
10.100921,0.003242,0.008202,0.006294,0.002098,-0.005531,-0.056268,-1.285382
10.111032,0.003242,0.008202,0.006294,0.002098,-0.005531,-0.056268,-1.285382
10.121104,0.003242,0.008202,0.006294,0.002098,-0.005913,-0.056268,-1.285382
10.131215,0.003242,0.008202,0.006294,0.002098,-0.005913,-0.056268,-1.285382
10.141300,0.003242,0.008202,0.006294,0.002098,-0.005913,-0.056268,-1.285382
10.151414,0.003242,0.008202,0.006294,0.002098,-0.005913,-0.056268,-1.285382
10.161526,0.003242,0.008202,0.006294,0.002098,-0.005913,-0.056268,-1.285382
10.171639,0.003242,0.008202,0.006294,0.002098,-0.005913,-0.056268,-1.285382
10.181725,0.003242,0.008202,0.006294,0.002098,-0.005913,-0.056268,-1.285382
10.191857,0.003242,0.008202,0.006294,0.002098,-0.005913,-0.056268,-1.285382
10.201968,0.003242,0.008202,0.006294,0.002098,-0.005913,-0.056268,-1.285382
10.212077,0.003242,0.008202,0.006294,0.002098,-0.005913,-0.056268,-1.285382
10.222191,0.003242,0.008202,0.006294,0.002098,-0.005913,-0.056268,-1.285382
10.232276,0.003242,0.008202,0.006294,0.002098,-0.005913,-0.056268,-1.285382
10.242387,0.003242,0.008202,0.006294,0.002098,-0.005913,-0.056268,-1.285382
10.252457,0.003242,0.008202,0.006294,0.002098,-0.005913,-0.056268,-1.285382
10.262521,0.003242,0.008202,0.006294,0.002098,-0.005913,-0.056268,-1.285382
10.272588,0.003242,0.008202,0.006294,0.002098,-0.005913,-0.056268,-1.285382
10.282659,0.003242,0.008202,0.006294,0.002098,-0.005913,-0.056268,-1.285382
10.292723,0.003242,0.008202,0.006294,0.002098,-0.005913,-0.056268,-1.285382
10.302792,0.003242,0.008202,0.006294,0.002098,-0.005913,-0.056268,-1.285382
10.312847,0.003242,0.008202,0.006294,0.002098,-0.005913,-0.056268,-1.285382
10.322918,0.003242,0.008202,0.006294,0.002098,-0.005913,-0.056268,-1.285382
10.332980,0.003242,0.008202,0.006294,0.002098,-0.005913,-0.056268,-1.285382
10.343042,0.003242,0.008202,0.006294,0.002098,-0.005913,-0.056268,-1.285382
10.353126,0.003242,0.008202,0.006294,0.002098,-0.005913,-0.056268,-1.285382
10.363246,0.003242,0.008202,0.006294,0.002098,-0.005913,-0.056268,-1.285382
10.373356,0.003242,0.008202,0.006294,0.002098,-0.005913,-0.056268,-1.285382
10.383441,0.003242,0.008202,0.006294,0.002098,-0.005913,-0.056268,-1.285382
10.393485,0.003242,0.008202,0.006294,0.002098,-0.005913,-0.056268,-1.285382
10.403548,0.003242,0.008202,0.006294,0.002098,-0.005913,-0.056268,-1.285382
10.413608,0.003242,0.008202,0.006294,0.002098,-0.005913,-0.056268,-1.285382
10.423677,0.003242,0.008202,0.006294,0.002480,-0.005913,-0.056268,-1.285382
10.433739,0.003242,0.008202,0.006294,0.002480,-0.005913,-0.056268,-1.285382
10.443802,0.003242,0.008202,0.006294,0.002480,-0.005913,-0.056268,-1.285382
10.453842,0.003242,0.008202,0.006294,0.002480,-0.005913,-0.056268,-1.285382
10.463915,0.003242,0.008202,0.006294,0.002480,-0.005913,-0.056268,-1.285382
10.473976,0.003242,0.008202,0.006294,0.002480,-0.005913,-0.056268,-1.285382
10.484038,0.003242,0.008202,0.006294,0.002480,-0.005913,-0.056268,-1.285382
10.494099,0.003242,0.008202,0.006294,0.002480,-0.005913,-0.056268,-1.285382
10.504158,0.003242,0.008202,0.006294,0.002480,-0.005913,-0.056268,-1.285382
10.514218,0.003242,0.008202,0.006294,0.002480,-0.005913,-0.056268,-1.285382
10.524279,0.003242,0.008202,0.006294,0.002480,-0.005913,-0.056268,-1.285382
10.534341,0.003242,0.008202,0.006294,0.002480,-0.005913,-0.056268,-1.285382
10.544409,0.003242,0.008202,0.006294,0.002480,-0.005913,-0.056268,-1.285382
10.554472,0.003242,0.008202,0.006294,0.002480,-0.005913,-0.056268,-1.285382
10.564537,0.003242,0.008202,0.006294,0.002480,-0.005913,-0.056268,-1.285382
10.574603,0.003242,0.008202,0.006294,0.002480,-0.005913,-0.056268,-1.285382
10.584667,0.003242,0.008202,0.006294,0.002480,-0.005913,-0.056268,-1.285382
10.594735,0.003242,0.008202,0.006294,0.002480,-0.005913,-0.056268,-1.285382
10.604803,0.003242,0.008202,0.006294,0.002480,-0.005913,-0.056268,-1.285382
10.614898,0.003242,0.008202,0.006294,0.002480,-0.005913,-0.056268,-1.285382
10.624977,0.003242,0.008202,0.006294,0.002480,-0.005913,-0.056268,-1.285382
10.635053,0.003242,0.008202,0.006294,0.002480,-0.005913,-0.056268,-1.285382
10.645163,0.003242,0.008202,0.006294,0.002480,-0.005913,-0.056268,-1.285382
10.655249,0.003242,0.008202,0.006294,0.002480,-0.005913,-0.056268,-1.285382
10.665358,0.003242,0.008202,0.006294,0.002480,-0.005913,-0.056268,-1.285382
10.675468,0.003242,0.008202,0.006294,0.002480,-0.005913,-0.056268,-1.285382
10.685546,0.003242,0.008202,0.006294,0.002480,-0.005913,-0.056268,-1.285382
10.695654,0.003242,0.008202,0.006294,0.002480,-0.005913,-0.056268,-1.285382
10.705727,0.003242,0.008202,0.006294,0.002480,-0.005913,-0.056268,-1.285382
10.715816,0.003242,0.008202,0.006294,0.002480,-0.005913,-0.056268,-1.285382
10.725887,0.003242,0.008202,0.006294,0.002480,-0.005913,-0.056268,-1.285001
10.735954,0.003242,0.008202,0.006294,0.002480,-0.005913,-0.056268,-1.285001
10.746067,0.003242,0.008202,0.006294,0.002480,-0.005913,-0.056268,-1.285001
10.756151,0.003242,0.008202,0.006294,0.002480,-0.005913,-0.056268,-1.285001
10.766236,0.003242,0.008202,0.006294,0.002480,-0.005913,-0.056268,-1.285001
10.776351,0.003242,0.008202,0.006294,0.002480,-0.005913,-0.056268,-1.285001
10.786466,0.003242,0.008202,0.006294,0.002480,-0.005913,-0.056268,-1.285001
10.796811,0.003242,0.008202,0.006294,0.002480,-0.005913,-0.056649,-1.285001
10.806926,0.003242,0.008202,0.006294,0.002480,-0.005913,-0.056649,-1.285001
10.817037,0.003242,0.008202,0.006294,0.002480,-0.005913,-0.056649,-1.284619
10.827149,0.003242,0.008202,0.006294,0.002098,-0.005913,-0.056649,-1.283475
10.837235,0.003242,0.008202,0.006294,0.002098,-0.005913,-0.057031,-1.282712
10.847345,0.003242,0.008202,0.006294,0.002098,-0.005913,-0.057794,-1.281185
10.857462,0.003242,0.008202,0.006294,0.002098,-0.005913,-0.058175,-1.280041
10.867574,0.003242,0.008202,0.006294,0.002098,-0.005913,-0.058557,-1.276989
10.877684,0.003242,0.008202,0.006294,0.002098,-0.005913,-0.058938,-1.275463
10.887798,0.003242,0.008202,0.006294,0.002098,-0.005913,-0.059319,-1.271267
10.897913,0.003242,0.008202,0.006294,0.002098,-0.005913,-0.059319,-1.268978
10.908028,0.003242,0.008202,0.006294,0.002098,-0.005913,-0.059319,-1.264019
10.918116,0.003242,0.008202,0.006294,0.002098,-0.005913,-0.059701,-1.260967
10.928456,0.003242,0.008202,0.006294,0.002098,-0.005913,-0.059701,-1.254482
10.938571,0.003242,0.008202,0.006294,0.002098,-0.005913,-0.060082,-1.246853
10.948681,0.003242,0.008202,0.006294,0.002098,-0.005913,-0.060464,-1.242657
10.958796,0.003242,0.008202,0.006294,0.002098,-0.005913,-0.061608,-1.233120
10.968895,0.003242,0.008202,0.006294,0.002098,-0.005913,-0.062371,-1.227779
10.979230,0.003242,0.008202,0.006294,0.002098,-0.005913,-0.063516,-1.217097
10.989365,0.003242,0.008202,0.006294,0.002098,-0.005913,-0.063516,-1.211375
10.999492,0.003242,0.008202,0.006294,0.002098,-0.005913,-0.063897,-1.198405
11.009606,0.003242,0.008202,0.006294,0.002098,-0.005913,-0.063897,-1.191539
11.019772,0.003242,0.008202,0.006294,0.002098,-0.005531,-0.064279,-1.176661
11.029885,0.003242,0.008202,0.006294,0.002098,-0.005531,-0.064279,-1.169032
11.039995,0.003242,0.008202,0.006294,0.002098,-0.005531,-0.065042,-1.153009
11.050081,0.003242,0.008202,0.006294,0.002098,-0.005531,-0.065423,-1.145380
11.060192,0.003242,0.008202,0.006294,0.002098,-0.005531,-0.066186,-1.128977
11.070284,0.003242,0.008202,0.006294,0.002098,-0.005531,-0.066567,-1.120584
11.080362,0.003242,0.008202,0.006294,0.002098,-0.005531,-0.068093,-1.104181
11.090431,0.003242,0.008202,0.006294,0.002098,-0.005531,-0.069238,-1.095789
11.100517,0.003242,0.008202,0.006294,0.002098,-0.005531,-0.070382,-1.079003
11.110627,0.003242,0.008202,0.006294,0.002098,-0.005913,-0.070764,-1.070611
11.120738,0.003242,0.008202,0.006294,0.002098,-0.005913,-0.071908,-1.054208
11.130857,0.003242,0.008202,0.006294,0.002098,-0.005913,-0.072289,-1.045815
11.140939,0.003242,0.008202,0.006294,0.002098,-0.005913,-0.072671,-1.029411
11.151051,0.003242,0.008202,0.006294,0.002098,-0.005913,-0.073052,-1.021019
11.161162,0.003242,0.008202,0.006294,0.002098,-0.005913,-0.073815,-1.004997
11.171252,0.003242,0.008202,0.006294,0.002098,-0.005913,-0.074578,-0.996986
11.181329,0.003242,0.008202,0.006294,0.002098,-0.005913,-0.076104,-0.981728
11.191413,0.003242,0.008202,0.006294,0.002098,-0.005913,-0.076867,-0.974480
11.201483,0.003242,0.008202,0.006294,0.002098,-0.005913,-0.078012,-0.961890
11.211595,0.003242,0.008202,0.006294,0.002098,-0.005913,-0.078393,-0.955405
11.221708,0.003242,0.008202,0.006294,0.002098,-0.005913,-0.079156,-0.943198
11.231819,0.003242,0.008202,0.006294,0.002098,-0.005913,-0.079156,-0.932136
11.241931,0.003242,0.008202,0.006294,0.002098,-0.005913,-0.079156,-0.926795
11.252041,0.003242,0.008202,0.006294,0.002098,-0.005913,-0.079156,-0.921073
11.262153,0.003242,0.008202,0.006294,0.002098,-0.005913,-0.079156,-0.910010
11.272241,0.003242,0.008202,0.006294,0.002098,-0.005913,-0.079156,-0.905050
11.282310,0.003242,0.008202,0.006294,0.002098,-0.005913,-0.079537,-0.894369
11.292370,0.003242,0.008202,0.006294,0.002098,-0.005913,-0.080682,-0.889410
11.302565,0.003242,0.008202,0.006294,0.002098,-0.005913,-0.081063,-0.880255
11.312677,0.003242,0.008202,0.006294,0.002098,-0.005913,-0.082589,-0.875677
11.322788,0.003242,0.008202,0.006294,0.002098,-0.005913,-0.082971,-0.867666
11.332916,0.003242,0.008202,0.006294,0.002098,-0.005913,-0.083734,-0.863470
11.342989,0.003242,0.008202,0.006294,0.001717,-0.005913,-0.084115,-0.856604
11.353102,0.003242,0.008202,0.006294,0.001717,-0.005913,-0.084496,-0.853933
11.363195,0.003242,0.008202,0.006294,0.001717,-0.005913,-0.084496,-0.848593
11.373267,0.003242,0.008202,0.006294,0.001335,-0.005913,-0.084496,-0.846685
11.383333,0.003242,0.008202,0.006294,0.001335,-0.005913,-0.084496,-0.843251
11.393402,0.003242,0.008202,0.006294,0.001335,-0.005913,-0.084496,-0.841725
11.403475,0.003242,0.008202,0.006294,0.001335,-0.005913,-0.084496,-0.839055
11.413549,0.003242,0.008202,0.006294,0.001335,-0.005913,-0.084496,-0.836003
11.423620,0.003242,0.008202,0.006294,0.001335,-0.005913,-0.084496,-0.834859
11.433687,0.003242,0.008202,0.006294,0.001335,-0.005913,-0.084496,-0.833714
11.443753,0.003242,0.008202,0.006294,0.001335,-0.005913,-0.084496,-0.832189
11.453820,0.003242,0.008202,0.006294,0.001335,-0.005913,-0.084496,-0.831426
11.464160,0.003242,0.008202,0.006294,0.001335,-0.005913,-0.084496,-0.829900
11.474257,0.003242,0.008202,0.006294,0.001335,-0.005913,-0.084496,-0.829137
11.484365,0.003242,0.008202,0.006294,0.001335,-0.005913,-0.084496,-0.829137
11.494480,0.003242,0.008202,0.006294,0.001335,-0.005531,-0.084115,-0.829137
11.504590,0.003242,0.008202,0.006294,0.001335,-0.005531,-0.084115,-0.829137
11.514655,0.003242,0.008202,0.006294,0.001335,-0.005531,-0.083734,-0.829137
11.524724,0.003242,0.008202,0.006294,0.001335,-0.005531,-0.083352,-0.829137
11.534849,0.003242,0.008202,0.006294,0.001335,-0.005913,-0.083352,-0.829137
11.544928,0.003242,0.008202,0.006294,0.001335,-0.005913,-0.083352,-0.829518
11.555022,0.003242,0.008202,0.006294,0.001335,-0.005913,-0.083352,-0.829518
11.565130,0.003242,0.008202,0.006294,0.001335,-0.005913,-0.083352,-0.829900
11.575244,0.003242,0.008202,0.006294,0.001335,-0.005913,-0.082971,-0.831044
11.585336,0.003242,0.008202,0.006294,0.001335,-0.005913,-0.082208,-0.831807
11.595417,0.003242,0.008202,0.006294,0.001335,-0.005913,-0.081063,-0.834477
11.605534,0.003242,0.008202,0.006294,0.001335,-0.005913,-0.079919,-0.837148
11.615648,0.003242,0.008202,0.006294,0.001335,-0.005531,-0.077249,-0.843633
11.625763,0.003242,0.008202,0.006294,0.001335,-0.005531,-0.076104,-0.847830
11.635890,0.003242,0.008202,0.006294,0.001335,-0.005531,-0.073434,-0.858892
11.646002,0.003242,0.008202,0.006294,0.001335,-0.005531,-0.071908,-0.865377
11.656113,0.003242,0.008202,0.006294,0.001335,-0.005531,-0.069238,-0.880255
11.666232,0.003242,0.008202,0.006294,0.001335,-0.005913,-0.068093,-0.888266
11.676334,0.003242,0.008202,0.006294,0.001335,-0.005913,-0.066949,-0.905050
11.686451,0.003242,0.008202,0.006294,0.001335,-0.005913,-0.066186,-0.913825
11.696931,0.003242,0.008202,0.006294,0.001335,-0.005913,-0.065423,-0.932517
11.707017,0.003242,0.008202,0.006294,0.001717,-0.005913,-0.064660,-0.942054
11.717126,0.003242,0.008202,0.006294,0.001717,-0.005913,-0.064279,-0.961509
11.727187,0.003242,0.008202,0.006294,0.001717,-0.005913,-0.064279,-0.971809
11.737250,0.003242,0.008202,0.006294,0.001717,-0.005913,-0.063516,-0.992409
11.747320,0.003242,0.008202,0.006294,0.001717,-0.005913,-0.063516,-1.002327
11.757413,0.003242,0.008202,0.006294,0.001717,-0.005913,-0.063134,-1.022926
11.767525,0.003242,0.008202,0.006294,0.001717,-0.005913,-0.062753,-1.032845
11.777591,0.003242,0.008202,0.006294,0.001717,-0.005913,-0.062753,-1.053063
11.787651,0.003242,0.008202,0.006294,0.001717,-0.005913,-0.062753,-1.062982
11.797715,0.003242,0.008202,0.006294,0.001717,-0.005913,-0.062753,-1.082437
11.807778,0.003242,0.008202,0.006294,0.001717,-0.005913,-0.062753,-1.091973
11.817840,0.003242,0.008202,0.006294,0.001717,-0.005913,-0.062753,-1.111048
11.827900,0.003242,0.008202,0.006294,0.001717,-0.005913,-0.062753,-1.120203
11.837962,0.003242,0.008202,0.006294,0.001717,-0.005913,-0.062753,-1.137369
11.848021,0.003242,0.008202,0.006294,0.001717,-0.005913,-0.062753,-1.146143
11.858087,0.003242,0.008202,0.006294,0.001717,-0.005913,-0.062753,-1.162166
11.868153,0.003242,0.008202,0.006294,0.001717,-0.005913,-0.062753,-1.169795
11.878218,0.003242,0.008202,0.006294,0.001717,-0.005913,-0.062753,-1.184672
11.888282,0.003242,0.008202,0.006294,0.001717,-0.005913,-0.062753,-1.191539
11.898355,0.003242,0.008202,0.006294,0.001717,-0.005913,-0.062753,-1.204509
11.908416,0.003242,0.008202,0.006294,0.001717,-0.005913,-0.062753,-1.210612
11.918478,0.003242,0.008202,0.006294,0.001717,-0.005913,-0.062753,-1.222057
11.928558,0.003242,0.008202,0.006294,0.001717,-0.005913,-0.062753,-1.227016
11.938734,0.003242,0.008202,0.006294,0.001717,-0.005913,-0.062753,-1.236935
11.948854,0.003242,0.008202,0.006294,0.001717,-0.005913,-0.062753,-1.241512
11.958967,0.003242,0.008202,0.006294,0.001717,-0.005913,-0.062753,-1.249905
11.969081,0.003242,0.008202,0.006294,0.001717,-0.005913,-0.062753,-1.253719
11.979422,0.003242,0.008202,0.006294,0.001717,-0.005913,-0.062753,-1.260967
11.989543,0.003242,0.008202,0.006294,0.001717,-0.005913,-0.062753,-1.267071
11.999660,0.003242,0.008202,0.006294,0.001717,-0.005913,-0.062753,-1.269741
12.009770,0.003242,0.008202,0.006294,0.001717,-0.005913,-0.062753,-1.275082
12.019842,0.003242,0.008202,0.006294,0.001717,-0.005913,-0.062753,-1.277370
12.029913,0.003242,0.008202,0.006294,0.001717,-0.005913,-0.062753,-1.281185
12.039991,0.003242,0.008202,0.006294,0.001717,-0.005913,-0.062753,-1.283093
12.050140,0.003242,0.008202,0.006294,0.001717,-0.005913,-0.062753,-1.286145
12.060254,0.003242,0.008202,0.006294,0.001717,-0.005913,-0.062753,-1.287671
12.070378,0.003242,0.008202,0.006294,0.001717,-0.005913,-0.062753,-1.290341
12.080494,0.003242,0.008202,0.006294,0.001717,-0.005913,-0.062753,-1.291486
12.090611,0.003242,0.008202,0.006294,0.001717,-0.005913,-0.062753,-1.293012
12.100721,0.003242,0.008202,0.006294,0.001717,-0.005913,-0.062753,-1.293775
12.110856,0.003242,0.008202,0.006294,0.001717,-0.005913,-0.062753,-1.295300
12.120965,0.003242,0.008202,0.006294,0.001717,-0.005913,-0.062753,-1.296063
12.131077,0.003242,0.008202,0.006294,0.001717,-0.005913,-0.062753,-1.296445
12.141189,0.003242,0.008202,0.006294,0.001717,-0.005913,-0.062753,-1.296445
12.151299,0.003242,0.008202,0.006294,0.001717,-0.005913,-0.062753,-1.296445
12.161413,0.003242,0.008202,0.006294,0.001717,-0.005913,-0.062753,-1.296445
12.171522,0.003242,0.008202,0.006294,0.001717,-0.005913,-0.062753,-1.296445
12.182145,0.003242,0.008202,0.006294,0.001717,-0.005913,-0.062753,-1.296445
12.192258,0.003242,0.008202,0.006294,0.001717,-0.005913,-0.062753,-1.296445
12.202367,0.003242,0.008202,0.006294,0.001717,-0.005913,-0.062753,-1.296445
12.212483,0.003242,0.008202,0.006294,0.001717,-0.005913,-0.062753,-1.296445
12.222593,0.003242,0.008202,0.006294,0.001717,-0.005913,-0.062753,-1.296445
12.232701,0.003242,0.008202,0.006294,0.001717,-0.005913,-0.062753,-1.296445
12.242813,0.003242,0.008202,0.006294,0.001717,-0.005913,-0.062753,-1.296445
12.252924,0.003242,0.008202,0.006294,0.001717,-0.005913,-0.062753,-1.296445
12.263039,0.003242,0.008202,0.006294,0.001717,-0.005913,-0.062753,-1.296445
12.273127,0.003242,0.008202,0.006294,0.001717,-0.005913,-0.062753,-1.296445
12.283215,0.003242,0.008202,0.006294,0.001717,-0.005913,-0.062753,-1.296445
12.293330,0.003242,0.008202,0.006294,0.001717,-0.005913,-0.062753,-1.296445
12.303504,0.003242,0.008202,0.006294,0.001717,-0.005913,-0.062753,-1.296445
12.313614,0.003242,0.008202,0.006294,0.001717,-0.005913,-0.062753,-1.296445
12.323680,0.003242,0.008202,0.006294,0.001717,-0.005913,-0.062753,-1.296445
12.333742,0.003242,0.008202,0.006294,0.001717,-0.005913,-0.062753,-1.296445
12.343852,0.003242,0.008202,0.006294,0.001717,-0.005913,-0.062753,-1.296445
12.353963,0.003242,0.008202,0.006294,0.001717,-0.005913,-0.062753,-1.296445
12.364079,0.003242,0.008202,0.006294,0.001717,-0.005913,-0.062753,-1.296445
12.374165,0.003242,0.008202,0.006294,0.001717,-0.005913,-0.062753,-1.296445
12.384275,0.003242,0.008202,0.006294,0.001717,-0.005913,-0.062753,-1.296445
12.394387,0.003242,0.008202,0.006294,0.001717,-0.005913,-0.062753,-1.296445
12.404503,0.003242,0.008202,0.006294,0.001717,-0.005913,-0.062753,-1.296445
12.414614,0.003242,0.008202,0.006294,0.001717,-0.005913,-0.062753,-1.296445
12.424729,0.003242,0.008202,0.006294,0.001717,-0.005913,-0.062753,-1.296445
12.434854,0.003242,0.008202,0.006294,0.001717,-0.005913,-0.062753,-1.296445
12.445191,0.003242,0.008202,0.006294,0.001717,-0.005913,-0.062753,-1.296445
12.455302,0.003242,0.008202,0.006294,0.001717,-0.005913,-0.062753,-1.296445
12.465649,0.003242,0.008202,0.006294,0.001717,-0.005913,-0.062753,-1.296445
12.475726,0.003242,0.008202,0.006294,0.001717,-0.005913,-0.062753,-1.296445
12.485880,0.003242,0.008202,0.006294,0.001717,-0.005913,-0.062753,-1.296445
12.495947,0.003242,0.008202,0.006294,0.001717,-0.005913,-0.062753,-1.296445
12.506061,0.003242,0.008202,0.006294,0.001717,-0.005913,-0.062753,-1.296445
12.516175,0.003242,0.008202,0.006294,0.001717,-0.005913,-0.062753,-1.296445
12.526287,0.003242,0.008202,0.006294,0.001717,-0.005913,-0.062753,-1.296445
12.536398,0.003242,0.008202,0.006294,0.001717,-0.005913,-0.062753,-1.296445
12.546490,0.003242,0.008202,0.006294,0.001717,-0.005913,-0.062753,-1.296445
12.556600,0.003242,0.008202,0.006294,0.001717,-0.005913,-0.062753,-1.296445
12.566720,0.003242,0.008202,0.006294,0.001717,-0.005913,-0.062753,-1.296445
12.576790,0.003242,0.008202,0.006294,0.001717,-0.005913,-0.062753,-1.296445
12.586864,0.003242,0.008202,0.006294,0.001717,-0.005913,-0.062753,-1.296445
12.596977,0.003242,0.008202,0.006294,0.001717,-0.005913,-0.062753,-1.296445
12.607088,0.003242,0.008202,0.006294,0.001717,-0.005913,-0.062753,-1.296445
12.617207,0.003242,0.008202,0.006294,0.001717,-0.005913,-0.062753,-1.296445
12.627289,0.003242,0.008202,0.006294,0.001717,-0.005913,-0.062753,-1.296445
12.637373,0.003242,0.008202,0.006294,0.001717,-0.005913,-0.062753,-1.296445
12.647453,0.003242,0.008202,0.006294,0.001717,-0.005913,-0.062753,-1.296445
12.657522,0.003242,0.008202,0.006294,0.001717,-0.005913,-0.062753,-1.296445
12.667593,0.003242,0.008202,0.006294,0.001717,-0.005913,-0.062753,-1.296445
12.677661,0.003242,0.008202,0.006294,0.001717,-0.005913,-0.062753,-1.296445
12.687733,0.003242,0.008202,0.006294,0.001717,-0.005913,-0.062753,-1.296445
12.697801,0.003242,0.008202,0.006294,0.001717,-0.005913,-0.062753,-1.296445
12.707846,0.003242,0.008202,0.006294,0.001717,-0.005913,-0.062753,-1.296445
12.717921,0.003242,0.008202,0.006294,0.001717,-0.005913,-0.062753,-1.296445
12.727992,0.003242,0.008202,0.006294,0.001717,-0.005913,-0.062753,-1.296445
12.738052,0.003242,0.008202,0.006294,0.001717,-0.005913,-0.062753,-1.296445
12.748134,0.003242,0.008202,0.006294,0.001717,-0.005913,-0.062753,-1.296445
12.758197,0.003242,0.008202,0.006294,0.001717,-0.005913,-0.062753,-1.296445
12.768268,0.003242,0.008202,0.006294,0.001717,-0.005913,-0.062753,-1.296445
12.778381,0.003242,0.008202,0.006294,0.001717,-0.005913,-0.062753,-1.296445
12.788447,0.003242,0.008202,0.006294,0.001717,-0.005913,-0.062753,-1.296445
12.798556,0.003242,0.008202,0.006294,0.001717,-0.005913,-0.062753,-1.296445
12.808644,0.003242,0.008202,0.006294,0.001717,-0.005913,-0.062753,-1.296445
12.818755,0.003242,0.008202,0.006294,0.001717,-0.005913,-0.062753,-1.296445
12.828872,0.003242,0.008202,0.006294,0.001717,-0.005913,-0.062753,-1.296445
12.838958,0.003242,0.008202,0.006294,0.001717,-0.005913,-0.062753,-1.296445
12.849021,0.003242,0.008202,0.006294,0.001717,-0.005913,-0.062753,-1.296445
12.859083,0.003242,0.008202,0.006294,0.001717,-0.005913,-0.062753,-1.296445
12.869157,0.003242,0.008202,0.006294,0.001717,-0.005913,-0.062753,-1.296445
12.879220,0.003242,0.008202,0.006294,0.001717,-0.005913,-0.062753,-1.296445
12.889294,0.003242,0.008202,0.006294,0.001717,-0.005913,-0.062753,-1.296445
12.899358,0.003242,0.008202,0.006294,0.001717,-0.005913,-0.062753,-1.296445
12.909423,0.003242,0.008202,0.006294,0.001717,-0.005913,-0.062753,-1.296445
12.919483,0.003242,0.008202,0.006294,0.001717,-0.005913,-0.062753,-1.296445
12.929550,0.003242,0.008202,0.006294,0.001717,-0.005913,-0.062753,-1.296445
12.939612,0.003242,0.008202,0.006294,0.001717,-0.005913,-0.062753,-1.296445
12.949677,0.003242,0.008202,0.006294,0.001717,-0.005913,-0.062753,-1.296445
12.959746,0.003242,0.008202,0.006294,0.001717,-0.005913,-0.062753,-1.296445
12.969863,0.003242,0.008202,0.006294,0.001717,-0.005913,-0.062753,-1.296445
12.979928,0.003242,0.008202,0.006294,0.001717,-0.005913,-0.062753,-1.296445
12.990001,0.003242,0.008202,0.006294,0.001717,-0.005913,-0.062753,-1.296445
13.000110,0.003242,0.008202,0.006294,0.001717,-0.005913,-0.062753,-1.296445
13.010224,0.003242,0.008202,0.006294,0.001717,-0.005913,-0.062753,-1.296445
13.020339,0.003242,0.008202,0.006294,0.001717,-0.005913,-0.062753,-1.296445
13.030455,0.003242,0.008202,0.006294,0.001717,-0.005913,-0.062753,-1.296445
13.040541,0.003242,0.008202,0.006294,0.001717,-0.005913,-0.062753,-1.296445
13.050713,0.003242,0.008202,0.006294,0.001717,-0.005913,-0.062753,-1.296445
13.060827,0.003242,0.008202,0.006294,0.001717,-0.005913,-0.062753,-1.296445
13.070862,0.003242,0.008202,0.006294,0.001717,-0.005913,-0.062753,-1.296445
13.080976,0.003242,0.008202,0.006294,0.001717,-0.005913,-0.062753,-1.296445
13.091063,0.003242,0.008202,0.006294,0.001717,-0.005913,-0.062753,-1.296445
13.101221,0.003242,0.008202,0.006294,0.001717,-0.005913,-0.062753,-1.296445
13.111351,0.003242,0.008202,0.006294,0.001717,-0.005913,-0.062753,-1.296445
13.121463,0.003242,0.008202,0.006294,0.001717,-0.005913,-0.062753,-1.296445
13.131577,0.003242,0.008202,0.006294,0.001717,-0.005913,-0.062753,-1.296445
13.141695,0.003242,0.008202,0.006294,0.001717,-0.005913,-0.062753,-1.296445
13.151803,0.003242,0.008202,0.006294,0.001717,-0.005913,-0.062753,-1.296445
13.162345,0.003242,0.008202,0.006294,0.001717,-0.005913,-0.062753,-1.296445
13.172457,0.003242,0.008202,0.006294,0.001717,-0.005913,-0.062753,-1.296445
13.182568,0.003242,0.008202,0.006294,0.001717,-0.005913,-0.062753,-1.296445
13.192681,0.003242,0.008202,0.006294,0.001717,-0.005913,-0.062753,-1.296445
13.202800,0.003242,0.008202,0.006294,0.001717,-0.005913,-0.062753,-1.296445
13.212917,0.003242,0.008202,0.006294,0.001717,-0.005913,-0.062753,-1.296445
13.223040,0.003242,0.008202,0.006294,0.001717,-0.005913,-0.062753,-1.296445
13.233376,0.003242,0.008202,0.006294,0.001717,-0.005913,-0.062753,-1.296445
