meetsitaram/go2-rebot/recordings/test_20260423_100124.csv
t,joint1,joint2,joint3,joint4,joint5,joint6,gripper
0.001309,0.008202,-0.004005,-0.004005,-0.002098,-0.005531,0.046350,-0.022697
0.011383,0.008202,-0.004005,-0.004005,-0.002098,-0.005531,0.047494,-0.022697
0.021453,0.008202,-0.004005,-0.004005,-0.002098,-0.005531,0.051309,-0.022697
0.031527,0.008202,-0.004005,-0.004005,-0.002098,-0.005531,0.054360,-0.022697
0.041596,0.008202,-0.004005,-0.004005,-0.002098,-0.005531,0.059701,-0.022697
0.051662,0.008202,-0.004005,-0.004005,-0.002098,-0.005531,0.062753,-0.022697
0.061736,0.008202,-0.004005,-0.004005,-0.002098,-0.005150,0.068475,-0.022697
0.071816,0.008202,-0.004005,-0.004005,-0.002098,-0.005150,0.071527,-0.022697
0.081885,0.008202,-0.004005,-0.004005,-0.002098,-0.004768,0.076486,-0.022697
0.091966,0.008202,-0.004005,-0.004005,-0.002098,-0.004768,0.079156,-0.022697
0.102034,0.008202,-0.004005,-0.004005,-0.002098,-0.004768,0.082971,-0.022697
0.112250,0.008202,-0.004005,-0.004005,-0.002098,-0.004768,0.084496,-0.022697
0.122685,0.008202,-0.004005,-0.004005,-0.002098,-0.004768,0.087167,-0.022697
0.132804,0.008202,-0.004005,-0.004005,-0.002098,-0.004768,0.088311,-0.022697
0.142917,0.008202,-0.004005,-0.004005,-0.002098,-0.004768,0.090219,-0.022697
0.153054,0.008202,-0.004005,-0.004005,-0.002098,-0.004768,0.090981,-0.022697
0.163132,0.008202,-0.004005,-0.004005,-0.002098,-0.004768,0.092507,-0.022697
0.173214,0.008202,-0.004005,-0.004005,-0.002098,-0.004768,0.093270,-0.022697
0.183285,0.008202,-0.004005,-0.004005,-0.002098,-0.004768,0.094416,-0.022697
0.193396,0.008202,-0.004005,-0.004005,-0.001717,-0.004768,0.094416,-0.022697
0.203462,0.008202,-0.004005,-0.004005,-0.001717,-0.004387,0.094034,-0.022697
0.213519,0.008202,-0.004005,-0.004005,-0.001717,-0.004387,0.094034,-0.022697
0.223582,0.008202,-0.004005,-0.004005,-0.001717,-0.004005,0.093270,-0.022697
0.233649,0.008202,-0.004005,-0.004005,-0.001717,-0.004005,0.092507,-0.022697
0.243721,0.008202,-0.004005,-0.004005,-0.001717,-0.004005,0.090981,-0.022697
0.253788,0.008202,-0.004005,-0.004005,-0.001717,-0.004005,0.090219,-0.022697
0.263875,0.008202,-0.004005,-0.004005,-0.001717,-0.004005,0.087548,-0.023079
0.273941,0.008202,-0.004005,-0.004005,-0.001717,-0.004005,0.086404,-0.023842
0.284006,0.008202,-0.004005,-0.004005,-0.001717,-0.004005,0.084496,-0.025368
0.294076,0.008202,-0.004005,-0.004005,-0.001717,-0.003624,0.083734,-0.026131
0.304143,0.008202,-0.004005,-0.004005,-0.001717,-0.003624,0.081445,-0.028419
0.314211,0.008202,-0.004005,-0.004005,-0.001717,-0.003242,0.080300,-0.029945
0.324282,0.008202,-0.004005,-0.004005,-0.001717,-0.002861,0.077630,-0.033380
0.334352,0.008202,-0.004005,-0.004005,-0.001717,-0.002861,0.076104,-0.035668
0.344417,0.008202,-0.004005,-0.004005,-0.001717,-0.002861,0.072671,-0.040627
0.354487,0.008202,-0.004005,-0.004005,-0.001717,-0.002861,0.070764,-0.043679
0.364539,0.008202,-0.004005,-0.004005,-0.001717,-0.002861,0.066186,-0.050927
0.374651,0.007820,-0.004005,-0.004005,-0.001717,-0.002861,0.064279,-0.055123
0.384737,0.007820,-0.004005,-0.004005,-0.001335,-0.002861,0.059319,-0.065042
0.394846,0.007820,-0.004005,-0.004005,-0.001335,-0.002861,0.057031,-0.070382
0.404928,0.007820,-0.004005,-0.004005,-0.001335,-0.002480,0.051690,-0.081826
0.414995,0.007820,-0.004005,-0.004005,-0.001335,-0.002480,0.049401,-0.087930
0.425059,0.007820,-0.004005,-0.004005,-0.001335,-0.002098,0.044061,-0.101282
0.435131,0.007820,-0.004005,-0.004005,-0.001335,-0.002098,0.041390,-0.108530
0.445306,0.007820,-0.004005,-0.004005,-0.001335,-0.002098,0.035668,-0.123789
0.455378,0.007820,-0.004005,-0.004005,-0.001335,-0.002098,0.032998,-0.131418
0.465449,0.007820,-0.004005,-0.004005,-0.001335,-0.002098,0.028419,-0.147058
0.475547,0.007820,-0.004005,-0.004005,-0.001335,-0.002098,0.026131,-0.155069
0.485661,0.007820,-0.004005,-0.004005,-0.001335,-0.002098,0.022316,-0.171855
0.495791,0.007820,-0.004005,-0.004005,-0.001335,-0.002098,0.020409,-0.180247
0.505903,0.007820,-0.004005,-0.003624,-0.001335,-0.002098,0.018883,-0.189021
0.516019,0.007820,-0.004005,-0.003624,-0.001335,-0.002098,0.015450,-0.206950
0.526131,0.007820,-0.004005,-0.002861,-0.001335,-0.002098,0.013542,-0.215724
0.536243,0.007820,-0.004005,-0.002861,-0.001335,-0.002098,0.010109,-0.233273
0.546337,0.007820,-0.004005,-0.002861,-0.001335,-0.002098,0.008202,-0.242046
0.556677,0.007820,-0.004005,-0.002861,-0.001335,-0.002098,0.004768,-0.259594
0.566850,0.007820,-0.004005,-0.002861,-0.001335,-0.002098,0.001717,-0.268368
0.576959,0.007820,-0.004005,-0.002861,-0.001335,-0.002098,0.000191,-0.286298
0.587070,0.007820,-0.004005,-0.002861,-0.001335,-0.002098,-0.001717,-0.295453
0.597169,0.007820,-0.004005,-0.002861,-0.001335,-0.002098,-0.002861,-0.313382
0.607234,0.007820,-0.004005,-0.002861,-0.001335,-0.002098,-0.003624,-0.322156
0.617309,0.007820,-0.004005,-0.002861,-0.001335,-0.002098,-0.006294,-0.338941
0.627377,0.007820,-0.004005,-0.002861,-0.001335,-0.002098,-0.007057,-0.347334
0.637450,0.007820,-0.004005,-0.002861,-0.001335,-0.002098,-0.009346,-0.364119
0.647551,0.007820,-0.004005,-0.002861,-0.001335,-0.002098,-0.010872,-0.372511
0.657617,0.007820,-0.004005,-0.002861,-0.001335,-0.002098,-0.013161,-0.389677
0.667680,0.007820,-0.004005,-0.002861,-0.001335,-0.002098,-0.013924,-0.398451
0.677741,0.007820,-0.004005,-0.002861,-0.001335,-0.002098,-0.015831,-0.414855
0.687801,0.007820,-0.004005,-0.002861,-0.001335,-0.002098,-0.016975,-0.422484
0.697863,0.007820,-0.004005,-0.002861,-0.001335,-0.002480,-0.018883,-0.437362
0.707922,0.007820,-0.004005,-0.002861,-0.001335,-0.002480,-0.019646,-0.444610
0.717992,0.007820,-0.004005,-0.002861,-0.001335,-0.002861,-0.020409,-0.459868
0.728051,0.008202,-0.004005,-0.002861,-0.001335,-0.003242,-0.020790,-0.467879
0.738120,0.008202,-0.004005,-0.002861,-0.001335,-0.003242,-0.022316,-0.484283
0.748182,0.008202,-0.004005,-0.002861,-0.001335,-0.003624,-0.023460,-0.492294
0.758243,0.008202,-0.004005,-0.002861,-0.001335,-0.004387,-0.025368,-0.509079
0.768304,0.008202,-0.004005,-0.002861,-0.001335,-0.004387,-0.026131,-0.517090
0.778366,0.008202,-0.004005,-0.002861,-0.001335,-0.005150,-0.026894,-0.532731
0.788426,0.008202,-0.004005,-0.002861,-0.001335,-0.005150,-0.027275,-0.540360
0.798513,0.008202,-0.004005,-0.002861,-0.001335,-0.005531,-0.028801,-0.555619
0.808625,0.008202,-0.004005,-0.002861,-0.001335,-0.005531,-0.029182,-0.563630
0.818738,0.008202,-0.004005,-0.002861,-0.001335,-0.005913,-0.030327,-0.580033
0.829079,0.008202,-0.004005,-0.002861,-0.001335,-0.005913,-0.030327,-0.588807
0.839190,0.008202,-0.004005,-0.002861,-0.001335,-0.005531,-0.030327,-0.605974
0.849277,0.008202,-0.004005,-0.002861,-0.001335,-0.005531,-0.030708,-0.614367
0.859387,0.008202,-0.004005,-0.002861,-0.001335,-0.005531,-0.031472,-0.631151
0.869503,0.008202,-0.004005,-0.002861,-0.001335,-0.005531,-0.031472,-0.639544
0.879642,0.008202,-0.004005,-0.002861,-0.001335,-0.004768,-0.032235,-0.656711
0.889755,0.008202,-0.004005,-0.002861,-0.001335,-0.004768,-0.032235,-0.665484
0.899866,0.008202,-0.004005,-0.002861,-0.001335,-0.004387,-0.032235,-0.683414
0.909985,0.008202,-0.004005,-0.002861,-0.001335,-0.004387,-0.032235,-0.692187
0.920101,0.008202,-0.004005,-0.002861,-0.001335,-0.004005,-0.032235,-0.710879
0.930222,0.008202,-0.004005,-0.002861,-0.001335,-0.004005,-0.032235,-0.720036
0.940336,0.008202,-0.004005,-0.002861,-0.001335,-0.004005,-0.032235,-0.738728
0.950453,0.008202,-0.004005,-0.002861,-0.001335,-0.004005,-0.032235,-0.748264
0.960579,0.008202,-0.004005,-0.002861,-0.001335,-0.004005,-0.032998,-0.768482
0.970707,0.008202,-0.004005,-0.002861,-0.001335,-0.004005,-0.033380,-0.778782
0.980803,0.008202,-0.004005,-0.002861,-0.001335,-0.004005,-0.033761,-0.799382
0.990867,0.008202,-0.004005,-0.002861,-0.001335,-0.004005,-0.034524,-0.810063
1.000940,0.008202,-0.004005,-0.002861,-0.001335,-0.004005,-0.035668,-0.831044
1.011049,0.008202,-0.004005,-0.002861,-0.001335,-0.004005,-0.036431,-0.842488
1.021129,0.008202,-0.004005,-0.002861,-0.001335,-0.004005,-0.037957,-0.864233
1.031238,0.008202,-0.004005,-0.002861,-0.001335,-0.004005,-0.038339,-0.875296
1.041349,0.008202,-0.004005,-0.002861,-0.001335,-0.004005,-0.039483,-0.897421
1.051436,0.008202,-0.004005,-0.002861,-0.001335,-0.004005,-0.039483,-0.909247
1.061553,0.008202,-0.004005,-0.002861,-0.001335,-0.004005,-0.039483,-0.932517
1.071664,0.008202,-0.004005,-0.002861,-0.001335,-0.004005,-0.039483,-0.944343
1.081749,0.008202,-0.004005,-0.002861,-0.001335,-0.004005,-0.039483,-0.967994
1.091858,0.008202,-0.004005,-0.002861,-0.001335,-0.004005,-0.039483,-0.979820
1.101982,0.007820,-0.004005,-0.002861,-0.001335,-0.004005,-0.039483,-1.003471
1.112068,0.007820,-0.004005,-0.002861,-0.001335,-0.004005,-0.039483,-1.014915
1.122405,0.007820,-0.004005,-0.002861,-0.001335,-0.003624,-0.039483,-1.038186
1.132521,0.007820,-0.004005,-0.002861,-0.001335,-0.003624,-0.039483,-1.049630
1.142629,0.007820,-0.004005,-0.002861,-0.001335,-0.003624,-0.039483,-1.072518
1.152738,0.007820,-0.004005,-0.002861,-0.001335,-0.003624,-0.039483,-1.083581
1.162852,0.007820,-0.004005,-0.002861,-0.001335,-0.004005,-0.039483,-1.105326
1.172961,0.007820,-0.004005,-0.002861,-0.001335,-0.004005,-0.039483,-1.116007
1.183072,0.007820,-0.004005,-0.002861,-0.001335,-0.004005,-0.039483,-1.137751
1.193180,0.007820,-0.004005,-0.002861,-0.001335,-0.004005,-0.039483,-1.148432
1.203292,0.007820,-0.004005,-0.002861,-0.001335,-0.004005,-0.039483,-1.169414
1.213402,0.007820,-0.004005,-0.002861,-0.001335,-0.004005,-0.039483,-1.180095
1.223541,0.007820,-0.004005,-0.002861,-0.001335,-0.004005,-0.039483,-1.200694
1.233627,0.007820,-0.004005,-0.002861,-0.001335,-0.004005,-0.039483,-1.210612
1.243738,0.007820,-0.004005,-0.002861,-0.001335,-0.004005,-0.039483,-1.229305
1.253827,0.007820,-0.004005,-0.002861,-0.001335,-0.004005,-0.039483,-1.238461
1.263945,0.007820,-0.004005,-0.002861,-0.001335,-0.004005,-0.039483,-1.255627
1.274010,0.007820,-0.004005,-0.002861,-0.001335,-0.004005,-0.039483,-1.264019
1.284078,0.007820,-0.004005,-0.002861,-0.001335,-0.004387,-0.039865,-1.278515
1.294144,0.007820,-0.004005,-0.002861,-0.001335,-0.004768,-0.039865,-1.285382
1.304211,0.007820,-0.004005,-0.002861,-0.001335,-0.004768,-0.039865,-1.297589
1.314334,0.007820,-0.004005,-0.002861,-0.001335,-0.004768,-0.039865,-1.302930
1.324691,0.007820,-0.004005,-0.002861,-0.001335,-0.005150,-0.039483,-1.312467
1.334761,0.007820,-0.004005,-0.002861,-0.001335,-0.005150,-0.039483,-1.316663
1.344824,0.007820,-0.004005,-0.002861,-0.001335,-0.004768,-0.039483,-1.323911
1.354885,0.007820,-0.004005,-0.002861,-0.001335,-0.004768,-0.039483,-1.326962
1.364967,0.007820,-0.004005,-0.002861,-0.001335,-0.004387,-0.039483,-1.332303
1.375092,0.007820,-0.004005,-0.002861,-0.001335,-0.004005,-0.039483,-1.334592
1.385161,0.007820,-0.004005,-0.002861,-0.001335,-0.003624,-0.039483,-1.338025
1.395222,0.007820,-0.004005,-0.002861,-0.001335,-0.003624,-0.039483,-1.339170
1.405335,0.007820,-0.004005,-0.002861,-0.001335,-0.004005,-0.039483,-1.341077
1.415404,0.007820,-0.004005,-0.002861,-0.001335,-0.004005,-0.039483,-1.341458
1.425531,0.007820,-0.004005,-0.002861,-0.001335,-0.004005,-0.039483,-1.341458
1.435594,0.007820,-0.004005,-0.002861,-0.001335,-0.004005,-0.039483,-1.341077
1.445656,0.007820,-0.004005,-0.002861,-0.001335,-0.004005,-0.039483,-1.341077
1.455721,0.007820,-0.004005,-0.002861,-0.001335,-0.004005,-0.039483,-1.341077
1.465788,0.007820,-0.004005,-0.002861,-0.001335,-0.004005,-0.039483,-1.341077
1.475855,0.007820,-0.004005,-0.002861,-0.001335,-0.004005,-0.039483,-1.341077
1.485934,0.007820,-0.004005,-0.002861,-0.001335,-0.004005,-0.039483,-1.341077
1.496021,0.007820,-0.004005,-0.002861,-0.001335,-0.004005,-0.039483,-1.341077
1.506083,0.007820,-0.004005,-0.002861,-0.001335,-0.004005,-0.039483,-1.341077
1.516155,0.007820,-0.004005,-0.002861,-0.001335,-0.004005,-0.039483,-1.341077
1.526267,0.007820,-0.004005,-0.002861,-0.001335,-0.004005,-0.039483,-1.341077
1.536382,0.007820,-0.004005,-0.002861,-0.001335,-0.004005,-0.039483,-1.341077
1.546492,0.007820,-0.004005,-0.002861,-0.001335,-0.004005,-0.039483,-1.341077
1.556567,0.007820,-0.004005,-0.002861,-0.001335,-0.004005,-0.039483,-1.341077
1.566637,0.007820,-0.004005,-0.002861,-0.001335,-0.004005,-0.039483,-1.341077
1.576745,0.007820,-0.004005,-0.002861,-0.001335,-0.004005,-0.039483,-1.341077
1.586859,0.007820,-0.004005,-0.002861,-0.001335,-0.004005,-0.039483,-1.341077
1.596970,0.007820,-0.004005,-0.002861,-0.001335,-0.004005,-0.039483,-1.341077
1.607084,0.007820,-0.004005,-0.002861,-0.001335,-0.004005,-0.039483,-1.341077
1.617171,0.007820,-0.004005,-0.002861,-0.001335,-0.004005,-0.039483,-1.341077
1.627282,0.007820,-0.004005,-0.002861,-0.001335,-0.004005,-0.039483,-1.341077
1.637395,0.007820,-0.004005,-0.002861,-0.001335,-0.004005,-0.039483,-1.341077
1.647505,0.007820,-0.004005,-0.002861,-0.001335,-0.004005,-0.039483,-1.341077
1.657574,0.007820,-0.004005,-0.002861,-0.001335,-0.004005,-0.039483,-1.341077
1.667641,0.007820,-0.004005,-0.002861,-0.001335,-0.004005,-0.039865,-1.341077
1.677714,0.007820,-0.004005,-0.002861,-0.001335,-0.004005,-0.039865,-1.341077
1.687783,0.007820,-0.004005,-0.002861,-0.001335,-0.004005,-0.040246,-1.341077
1.697851,0.007820,-0.004005,-0.002861,-0.001335,-0.004005,-0.042153,-1.341077
1.707922,0.007820,-0.004005,-0.002861,-0.001335,-0.004005,-0.043298,-1.341077
1.717995,0.007820,-0.004005,-0.002861,-0.001335,-0.004005,-0.045587,-1.341077
1.728061,0.007820,-0.004005,-0.002861,-0.001335,-0.004005,-0.046731,-1.341077
1.738131,0.007820,-0.004005,-0.002861,-0.001335,-0.004005,-0.047875,-1.341077
1.748245,0.007820,-0.004005,-0.002861,-0.001335,-0.004005,-0.049020,-1.341077
1.758357,0.007820,-0.004005,-0.002861,-0.001335,-0.004005,-0.049783,-1.341077
1.768442,0.007820,-0.004005,-0.003242,-0.001335,-0.004005,-0.050164,-1.341077
1.778561,0.007820,-0.004005,-0.003242,-0.001335,-0.004005,-0.050164,-1.341077
1.788624,0.007820,-0.004005,-0.003242,-0.001335,-0.004005,-0.050164,-1.341077
1.798737,0.007820,-0.004005,-0.003242,-0.000954,-0.004005,-0.050164,-1.341077
1.808847,0.007820,-0.004005,-0.003242,-0.000191,-0.004005,-0.050164,-1.341077
1.818937,0.007820,-0.004005,-0.003242,0.000191,-0.004005,-0.050164,-1.341077
1.829049,0.007820,-0.004005,-0.003242,0.000191,-0.003624,-0.050164,-1.341077
1.839160,0.007820,-0.004005,-0.003242,0.000191,-0.003624,-0.050164,-1.341077
1.849270,0.007820,-0.004005,-0.003242,0.000191,-0.003624,-0.050164,-1.341077
1.859336,0.007820,-0.004387,-0.003242,0.000191,-0.003242,-0.049783,-1.341077
1.869400,0.007820,-0.005150,-0.003242,0.000191,-0.002861,-0.049783,-1.341077
1.879477,0.007820,-0.005531,-0.003242,0.000191,-0.002861,-0.049783,-1.341077
1.889518,0.007820,-0.007057,-0.003242,0.000191,-0.002861,-0.049783,-1.341077
1.899592,0.007820,-0.007439,-0.003242,0.000191,-0.003242,-0.049783,-1.341077
1.909656,0.007820,-0.009727,-0.003242,0.000191,-0.003242,-0.049783,-1.341077
1.919721,0.007820,-0.011253,-0.003242,0.000191,-0.003242,-0.049783,-1.341077
1.929840,0.007820,-0.013924,-0.003242,0.000191,-0.003242,-0.049783,-1.341077
1.939952,0.007820,-0.015450,-0.003242,0.000191,-0.003624,-0.049783,-1.341077
1.950103,0.007820,-0.019264,-0.003242,0.000191,-0.004005,-0.049783,-1.341077
1.960212,0.007820,-0.021172,-0.003242,0.000191,-0.004387,-0.049783,-1.341077
1.970325,0.007820,-0.025368,-0.003242,0.000191,-0.004387,-0.049401,-1.341077
1.980439,0.007820,-0.027657,-0.003242,0.000191,-0.004387,-0.048638,-1.341077
1.990553,0.008202,-0.032235,-0.003242,0.000191,-0.004768,-0.047875,-1.341077
2.000604,0.008202,-0.034524,-0.003242,-0.000191,-0.004768,-0.045205,-1.341077
2.010957,0.008202,-0.039483,-0.003242,-0.000191,-0.004768,-0.043298,-1.341077
2.021068,0.008202,-0.042153,-0.003242,-0.000191,-0.004768,-0.040246,-1.341077
2.031191,0.008202,-0.048257,-0.003242,-0.000572,-0.004768,-0.037957,-1.341077
2.041304,0.008202,-0.052072,-0.003242,-0.000572,-0.004768,-0.033380,-1.341077
2.051391,0.008202,-0.059701,-0.004387,-0.000572,-0.005150,-0.030708,-1.341077
2.061460,0.008202,-0.063897,-0.005531,-0.000572,-0.005150,-0.025368,-1.341077
2.071521,0.008202,-0.072289,-0.007439,-0.000191,-0.005150,-0.022697,-1.341077
2.081567,0.008202,-0.076867,-0.008583,-0.000191,-0.005150,-0.017738,-1.341077
2.091634,0.008202,-0.086022,-0.011253,-0.000191,-0.005150,-0.015831,-1.341077
2.101743,0.008202,-0.090981,-0.012779,-0.000191,-0.005150,-0.012779,-1.341077
2.112175,0.008202,-0.100519,-0.016594,-0.000191,-0.005150,-0.010490,-1.341077
2.122290,0.008202,-0.105478,-0.018883,-0.000191,-0.005150,-0.010109,-1.341077
2.132411,0.008202,-0.115015,-0.023460,-0.000572,-0.005150,-0.010490,-1.341077
2.142543,0.008202,-0.119974,-0.026131,-0.000572,-0.005150,-0.010490,-1.341077
2.152658,0.008202,-0.129129,-0.031854,-0.000572,-0.004768,-0.010872,-1.341077
2.162769,0.008202,-0.133707,-0.034905,-0.000572,-0.004768,-0.010872,-1.341077
2.172883,0.008202,-0.142099,-0.042153,-0.000572,-0.004768,-0.012398,-1.341077
2.182955,0.008202,-0.145914,-0.045968,-0.000572,-0.004768,-0.012779,-1.341077
2.193022,0.008202,-0.153162,-0.053979,-0.000191,-0.004768,-0.013542,-1.341077
2.203087,0.008202,-0.156978,-0.058175,-0.000191,-0.004768,-0.014305,-1.341077
2.213197,0.008202,-0.164226,-0.066567,0.000954,-0.004768,-0.016594,-1.341077
2.223706,0.008202,-0.167659,-0.071145,0.000954,-0.004768,-0.018120,-1.341077
2.233817,0.008202,-0.174907,-0.080300,0.001717,-0.004768,-0.020790,-1.341077
2.243926,0.008202,-0.178340,-0.085259,0.002098,-0.004387,-0.021935,-1.341077
2.253998,0.008202,-0.185588,-0.095179,0.003242,-0.004005,-0.024986,-1.341077
2.264063,0.008202,-0.189021,-0.100138,0.004005,-0.004005,-0.026131,-1.341077
2.274142,0.007820,-0.195888,-0.110437,0.005531,-0.004005,-0.027657,-1.341077
2.284257,0.007820,-0.200465,-0.117304,0.006294,-0.004005,-0.028419,-1.341077
2.294369,0.007820,-0.204280,-0.122644,0.007439,-0.004005,-0.029182,-1.341077
2.304481,0.007820,-0.211528,-0.132944,0.009346,-0.004005,-0.030327,-1.341077
2.314573,0.007820,-0.215343,-0.137903,0.010872,-0.004005,-0.030327,-1.341077
2.324681,0.007820,-0.223354,-0.148203,0.013542,-0.004005,-0.030327,-1.341077
2.334795,0.007820,-0.227169,-0.153925,0.014687,-0.004005,-0.029945,-1.341077
2.344907,0.007820,-0.235561,-0.164607,0.017357,-0.004005,-0.029945,-1.341077
2.355023,0.007820,-0.244335,-0.169948,0.019264,-0.004005,-0.029945,-1.341077
2.365135,0.007820,-0.248913,-0.180629,0.021553,-0.004005,-0.029945,-1.341077
2.375246,0.007820,-0.258831,-0.186351,0.022697,-0.004005,-0.029945,-1.341077
2.385362,0.007820,-0.263790,-0.196651,0.025749,-0.004005,-0.029945,-1.341077
2.395474,0.007820,-0.273708,-0.207332,0.026894,-0.004005,-0.029945,-1.341077
2.405586,0.007820,-0.279049,-0.212672,0.028801,-0.004005,-0.029945,-1.341077
2.415645,0.008202,-0.290112,-0.218013,0.030327,-0.004005,-0.029945,-1.341077
2.425759,0.008202,-0.295835,-0.228695,0.032998,-0.004005,-0.029945,-1.341077
2.435875,0.008202,-0.307279,-0.234035,0.033761,-0.004005,-0.029945,-1.341077
2.445986,0.008202,-0.313382,-0.244717,0.035668,-0.004005,-0.029945,-1.341077
2.456055,0.008202,-0.325589,-0.250057,0.037194,-0.004005,-0.029945,-1.341077
2.466147,0.008202,-0.331693,-0.260357,0.038720,-0.004005,-0.029945,-1.341077
2.476257,0.008202,-0.343901,-0.270657,0.039102,-0.004005,-0.029945,-1.341077
2.486369,0.008202,-0.350386,-0.275616,0.040246,-0.004005,-0.029945,-1.341077
2.496480,0.008202,-0.363356,-0.284772,0.040246,-0.004005,-0.029945,-1.341077
2.506518,0.008202,-0.369841,-0.288968,0.040246,-0.004005,-0.029945,-1.341077
2.516579,0.008202,-0.382811,-0.293546,0.040246,-0.004005,-0.029945,-1.341077
2.526649,0.008202,-0.389296,-0.301938,0.039865,-0.004005,-0.029945,-1.341077
2.536709,0.008202,-0.401884,-0.306134,0.039865,-0.004005,-0.029945,-1.341077
2.546772,0.008202,-0.407607,-0.314527,0.039865,-0.004005,-0.029945,-1.341077
2.556885,0.008202,-0.420196,-0.318723,0.039483,-0.004005,-0.029945,-1.341077
2.567003,0.008202,-0.426299,-0.327115,0.039102,-0.004005,-0.029945,-1.341077
2.577116,0.008202,-0.438506,-0.330930,0.038720,-0.004005,-0.029945,-1.341077
2.587228,0.008202,-0.444610,-0.338941,0.038720,-0.004005,-0.029945,-1.341077
2.597340,0.008202,-0.456435,-0.343137,0.038720,-0.004005,-0.029945,-1.341077
2.607450,0.008202,-0.462157,-0.351149,0.038720,-0.004005,-0.029945,-1.341077
2.617540,0.008202,-0.473602,-0.355345,0.038720,-0.004005,-0.029945,-1.341077
2.627648,0.008202,-0.478943,-0.362974,0.039102,-0.004005,-0.029945,-1.341077
2.637709,0.008202,-0.489243,-0.366407,0.039102,-0.004005,-0.029945,-1.341077
2.647777,0.008202,-0.494202,-0.373655,0.039102,-0.004005,-0.029945,-1.341077
2.657891,0.008202,-0.503357,-0.380903,0.039102,-0.004005,-0.029945,-1.341077
2.667980,0.008202,-0.507935,-0.384336,0.039102,-0.004005,-0.029945,-1.341077
2.678089,0.008202,-0.516327,-0.390821,0.039102,-0.004005,-0.029945,-1.341077
2.688202,0.008202,-0.520905,-0.394255,0.039102,-0.004387,-0.029945,-1.341077
2.698315,0.008202,-0.529297,-0.401121,0.039102,-0.004387,-0.029945,-1.341077
2.708609,0.008202,-0.533494,-0.404173,0.039102,-0.004387,-0.029945,-1.341077
2.718722,0.008202,-0.542268,-0.411040,0.039102,-0.004768,-0.029945,-1.341077
2.728835,0.008202,-0.546845,-0.414474,0.039102,-0.004768,-0.029945,-1.341077
2.738951,0.008202,-0.556001,-0.422103,0.038720,-0.004768,-0.029945,-1.341077
2.749127,0.008202,-0.560960,-0.425918,0.038720,-0.004768,-0.029945,-1.341077
2.759239,0.008202,-0.570878,-0.434310,0.038720,-0.004768,-0.029945,-1.341077
2.769364,0.008202,-0.575837,-0.438888,0.038720,-0.004768,-0.029945,-1.341077
2.779481,0.008202,-0.586900,-0.448424,0.038720,-0.004768,-0.030327,-1.341077
2.789566,0.008202,-0.592622,-0.453383,0.038720,-0.004768,-0.030327,-1.341077
2.799741,0.008202,-0.604448,-0.464446,0.038720,-0.004768,-0.030327,-1.341077
2.809853,0.008202,-0.610933,-0.470169,0.038720,-0.004768,-0.030327,-1.341077
2.819963,0.008202,-0.623903,-0.481995,0.038720,-0.004768,-0.030327,-1.341077
2.830074,0.008202,-0.630770,-0.488098,0.038720,-0.004768,-0.030708,-1.341077
2.840186,0.008202,-0.644884,-0.501068,0.038720,-0.004768,-0.030708,-1.341077
2.850303,0.008202,-0.652514,-0.507553,0.038720,-0.004768,-0.031854,-1.341077
2.860416,0.008202,-0.667773,-0.520905,0.038720,-0.004768,-0.032235,-1.341077
2.870553,0.008202,-0.675403,-0.528152,0.038720,-0.004768,-0.032998,-1.341077
2.880666,0.008202,-0.691806,-0.543031,0.038720,-0.004768,-0.033380,-1.341077
2.890732,0.008202,-0.700580,-0.550660,0.039102,-0.004768,-0.034524,-1.341077
2.900798,0.008202,-0.718127,-0.565919,0.039102,-0.004768,-0.034905,-1.341077
2.910914,0.008202,-0.726902,-0.573930,0.039102,-0.004768,-0.036431,-1.341077
2.921027,0.008202,-0.745594,-0.590333,0.039102,-0.004768,-0.037194,-1.341077
2.931137,0.008202,-0.754749,-0.598345,0.039102,-0.004768,-0.038339,-1.341077
2.941248,0.008202,-0.774204,-0.615511,0.039102,-0.004768,-0.039102,-1.341077
2.951376,0.008202,-0.784123,-0.624285,0.039102,-0.004768,-0.039483,-1.341077
2.961438,0.008202,-0.803960,-0.641832,0.039102,-0.004768,-0.039865,-1.341077
2.971501,0.008202,-0.814260,-0.650988,0.039102,-0.004768,-0.039865,-1.341077
2.981526,0.008202,-0.834477,-0.668918,0.039483,-0.004768,-0.039865,-1.341077
2.991590,0.008202,-0.844397,-0.678073,0.040246,-0.004768,-0.039865,-1.341077
3.001653,0.008202,-0.864996,-0.696765,0.040246,-0.004768,-0.039865,-1.341077
3.011726,0.008202,-0.875677,-0.706302,0.040246,-0.004768,-0.039865,-1.341077
3.021811,0.008202,-0.896658,-0.724995,0.040246,-0.004768,-0.039865,-1.341077
3.031920,0.008202,-0.907340,-0.734531,0.040246,-0.004768,-0.039865,-1.341077
3.042031,0.008202,-0.928702,-0.753605,0.040246,-0.004768,-0.039865,-1.341077
3.052116,0.008202,-0.939002,-0.763523,0.040246,-0.004768,-0.039865,-1.341077
3.062230,0.008202,-0.960364,-0.783360,0.040246,-0.004768,-0.039483,-1.341077
3.072347,0.008202,-0.971046,-0.793279,0.040246,-0.004768,-0.039483,-1.341077
3.082411,0.008202,-0.992027,-0.812734,0.040246,-0.004768,-0.039483,-1.341077
3.092473,0.008202,-1.002327,-0.822652,0.040246,-0.004768,-0.039483,-1.341077
3.102516,0.008202,-1.022926,-0.842107,0.040246,-0.004768,-0.039483,-1.341077
3.112578,0.008202,-1.033990,-0.852789,0.041009,-0.004768,-0.039483,-1.341077
3.122637,0.008202,-1.054589,-0.863089,0.041390,-0.004768,-0.039483,-1.341077
3.132698,0.008202,-1.064889,-0.883688,0.042916,-0.004768,-0.039483,-1.341077
3.142758,0.008202,-1.084725,-0.893988,0.043679,-0.004768,-0.039483,-1.341077
3.152826,0.008202,-1.094645,-0.914969,0.045587,-0.004768,-0.039102,-1.341077
3.162897,0.008202,-1.114100,-0.925651,0.046350,-0.004768,-0.038720,-1.341077
3.173010,0.008202,-1.123636,-0.947013,0.048257,-0.004768,-0.038720,-1.341077
3.183117,0.008202,-1.142710,-0.967994,0.049783,-0.004768,-0.038720,-1.341077
3.193191,0.008202,-1.152246,-0.978676,0.052835,-0.004768,-0.038720,-1.341077
3.203254,0.008202,-1.170939,-0.989357,0.053979,-0.004768,-0.038720,-1.341077
3.213316,0.008202,-1.180095,-1.011101,0.057031,-0.004768,-0.038720,-1.341077
3.223378,0.008202,-1.198405,-1.032083,0.058938,-0.004768,-0.038720,-1.341077
3.233440,0.008202,-1.207179,-1.042764,0.061608,-0.004768,-0.038720,-1.341077
3.243499,0.008202,-1.225109,-1.064126,0.063516,-0.004768,-0.038720,-1.341077
3.253534,0.008202,-1.233883,-1.074807,0.067330,-0.004768,-0.038720,-1.341077
3.263609,0.008202,-1.251431,-1.096170,0.068856,-0.004768,-0.038720,-1.341077
3.273717,0.008202,-1.260204,-1.106852,0.073052,-0.004768,-0.038720,-1.341077
3.283837,0.008202,-1.278133,-1.127451,0.074578,-0.004768,-0.038720,-1.341077
3.293952,0.008202,-1.286527,-1.138132,0.078393,-0.004768,-0.038720,-1.341077
3.304063,0.008202,-1.304074,-1.158351,0.079919,-0.004768,-0.038720,-1.341077
3.314174,0.008202,-1.312467,-1.168269,0.083352,-0.004768,-0.038720,-1.341077
3.324286,0.008202,-1.330014,-1.178569,0.085259,-0.004768,-0.038720,-1.341077
3.334395,0.008202,-1.338788,-1.198024,0.088693,-0.004768,-0.038720,-1.341077
3.344525,0.008202,-1.356337,-1.217097,0.090600,-0.004768,-0.038720,-1.341077
3.354638,0.008202,-1.365110,-1.226635,0.094034,-0.004768,-0.038720,-1.341077
3.364752,0.008202,-1.382658,-1.235790,0.095560,-0.004768,-0.038720,-1.341077
3.374866,0.008202,-1.391050,-1.253719,0.098993,-0.004768,-0.038720,-1.341077
3.384942,0.008202,-1.408217,-1.270885,0.100138,-0.004768,-0.038720,-1.341077
3.395047,0.008202,-1.416991,-1.279278,0.103571,-0.004768,-0.038720,-1.341077
3.405158,0.008202,-1.434157,-1.287671,0.105097,-0.004768,-0.038720,-1.341077
3.415265,0.008202,-1.442550,-1.304074,0.107767,-0.004768,-0.038720,-1.341077
3.425378,0.008202,-1.459334,-1.319715,0.109293,-0.004768,-0.038720,-1.341077
3.435458,0.008202,-1.467727,-1.327344,0.112345,-0.004768,-0.038720,-1.341077
3.445539,0.008202,-1.484512,-1.334973,0.113489,-0.004768,-0.038720,-1.341077
3.455607,0.008202,-1.492523,-1.349470,0.116541,-0.005150,-0.038720,-1.341077
3.465670,0.008202,-1.508926,-1.356718,0.118067,-0.005150,-0.038720,-1.341077
3.475738,0.008202,-1.516937,-1.370832,0.120356,-0.005150,-0.038720,-1.341077
3.485810,0.008202,-1.525330,-1.377699,0.121881,-0.005150,-0.038720,-1.341077
3.495874,0.008202,-1.540971,-1.391050,0.125315,-0.005150,-0.038720,-1.341077
3.505937,0.008202,-1.548600,-1.397154,0.126459,-0.005531,-0.038720,-1.341077
3.516047,0.008202,-1.563859,-1.409743,0.129892,-0.005913,-0.038720,-1.341077
3.526160,0.008202,-1.571488,-1.415847,0.131037,-0.006294,-0.038720,-1.341077
3.536311,0.008202,-1.585984,-1.427291,0.132944,-0.006676,-0.038720,-1.341077
3.546419,0.008202,-1.593232,-1.433013,0.134089,-0.007057,-0.038720,-1.341077
3.556562,0.008202,-1.607729,-1.443694,0.136759,-0.007820,-0.038720,-1.341077
3.566672,0.008202,-1.614595,-1.449035,0.137522,-0.008583,-0.038720,-1.341077
3.576785,0.008202,-1.627947,-1.458953,0.139429,-0.010109,-0.038720,-1.341077
3.586896,0.008202,-1.634432,-1.463912,0.140192,-0.011253,-0.038720,-1.341077
3.597006,0.008202,-1.647783,-1.472687,0.142481,-0.012398,-0.038720,-1.341077
3.607117,0.008202,-1.653887,-1.476883,0.142862,-0.013161,-0.038720,-1.341077
3.617187,0.008202,-1.666858,-1.484894,0.144007,-0.014305,-0.038720,-1.341077
3.627300,0.008202,-1.673343,-1.488708,0.144770,-0.015068,-0.038720,-1.341077
3.637392,0.008202,-1.685550,-1.495575,0.145533,-0.016975,-0.038720,-1.341077
3.647502,0.008202,-1.691653,-1.498627,0.145914,-0.017738,-0.039102,-1.341077
3.657577,0.008202,-1.703097,-1.503967,0.146677,-0.019264,-0.039102,-1.341077
3.667667,0.008202,-1.708438,-1.506638,0.147058,-0.020027,-0.039102,-1.341077
3.677782,0.008202,-1.719501,-1.511215,0.147440,-0.021172,-0.039102,-1.341077
3.687869,0.008202,-1.725224,-1.513123,0.147821,-0.022316,-0.039102,-1.341077
3.697977,0.008202,-1.735905,-1.516556,0.148203,-0.023842,-0.039483,-1.341077
3.708090,0.008202,-1.741245,-1.518082,0.148584,-0.024605,-0.039483,-1.341077
3.718216,0.008202,-1.751926,-1.521133,0.148584,-0.025368,-0.039483,-1.341077
3.728329,0.008202,-1.757267,-1.522278,0.148966,-0.025749,-0.039483,-1.341077
3.738446,0.008202,-1.767185,-1.524567,0.148966,-0.026131,-0.039483,-1.341077
3.748556,0.008202,-1.772144,-1.525330,0.148966,-0.026512,-0.039483,-1.341077
3.758668,0.008202,-1.782063,-1.526855,0.149347,-0.026512,-0.039483,-1.341077
3.768767,0.008202,-1.786641,-1.527237,0.149347,-0.026512,-0.039483,-1.341077
3.778876,0.008202,-1.796178,-1.526855,0.149347,-0.026512,-0.039483,-1.341077
3.788999,0.008202,-1.801137,-1.526855,0.149347,-0.026512,-0.039483,-1.341077
3.799110,0.008202,-1.809911,-1.526474,0.149347,-0.026512,-0.039483,-1.341077
3.809224,0.008202,-1.819066,-1.526474,0.149347,-0.026512,-0.039483,-1.341077
3.819295,0.008202,-1.823644,-1.526474,0.149347,-0.026512,-0.039483,-1.341077
3.829406,0.008202,-1.828221,-1.526474,0.149347,-0.026512,-0.039483,-1.341077
3.839545,0.008202,-1.837377,-1.526474,0.149347,-0.026512,-0.039483,-1.341077
3.849659,0.008202,-1.842336,-1.526474,0.149347,-0.026512,-0.039483,-1.341077
3.859731,0.008202,-1.851492,-1.526474,0.149347,-0.026512,-0.039483,-1.341077
3.869816,0.008202,-1.855688,-1.526474,0.149347,-0.026512,-0.039483,-1.341077
3.879922,0.008202,-1.864462,-1.526474,0.149347,-0.026512,-0.039865,-1.341077
3.890052,0.008202,-1.868658,-1.526474,0.149347,-0.026894,-0.039865,-1.341077
3.900165,0.008202,-1.876287,-1.526474,0.149347,-0.026894,-0.039865,-1.341077
3.910277,0.008202,-1.884298,-1.526474,0.149347,-0.026894,-0.039865,-1.341077
3.920431,0.008202,-1.888113,-1.526474,0.149347,-0.026894,-0.039865,-1.341077
3.930525,0.008202,-1.895742,-1.526474,0.149347,-0.026894,-0.039865,-1.341077
3.940596,0.008202,-1.899176,-1.526474,0.149347,-0.026894,-0.040246,-1.341077
3.950674,0.008202,-1.906042,-1.526474,0.149347,-0.026894,-0.040627,-1.341077
3.960749,0.008202,-1.909476,-1.526474,0.149347,-0.026894,-0.041772,-1.341077
3.970818,0.008202,-1.916343,-1.526474,0.149347,-0.026894,-0.042153,-1.341077
3.980928,0.008202,-1.919776,-1.526474,0.149347,-0.026512,-0.043298,-1.341077
3.991019,0.008202,-1.926642,-1.526474,0.149347,-0.026512,-0.044061,-1.341077
4.001128,0.008202,-1.930076,-1.526855,0.149347,-0.026512,-0.044824,-1.341077
4.011246,0.008202,-1.936561,-1.526855,0.148966,-0.026512,-0.045587,-1.341077
4.021397,0.008202,-1.939612,-1.526855,0.148584,-0.026512,-0.045587,-1.341077
4.031521,0.008202,-1.946097,-1.526855,0.148203,-0.026512,-0.045587,-1.341077
4.041634,0.008202,-1.949149,-1.526855,0.148203,-0.026512,-0.045587,-1.341077
4.051724,0.008202,-1.955634,-1.526855,0.148203,-0.026512,-0.045205,-1.341077
4.061840,0.008202,-1.958686,-1.526855,0.148203,-0.026512,-0.045205,-1.341077
4.071932,0.008202,-1.965171,-1.526855,0.148203,-0.026512,-0.045205,-1.341077
4.082044,0.008202,-1.968223,-1.526855,0.148584,-0.026512,-0.045205,-1.341077
4.092130,0.008202,-1.974709,-1.526855,0.148584,-0.026512,-0.045205,-1.341077
4.102214,0.008202,-1.977379,-1.526855,0.148584,-0.026894,-0.045205,-1.341077
4.112285,0.008202,-1.983482,-1.526855,0.148584,-0.026894,-0.045205,-1.341077
4.122359,0.008202,-1.986534,-1.526855,0.148584,-0.026894,-0.045205,-1.341077
4.132471,0.008202,-1.992256,-1.526855,0.148584,-0.026894,-0.045205,-1.341077
4.142543,0.008202,-1.994926,-1.526855,0.148584,-0.026894,-0.045205,-1.341077
4.152667,0.008202,-2.000648,-1.526855,0.148584,-0.026894,-0.045205,-1.341077
4.162787,0.008202,-2.003319,-1.526855,0.148584,-0.026894,-0.045205,-1.341077
4.172864,0.008202,-2.008659,-1.526855,0.148584,-0.026894,-0.045205,-1.341077
4.182975,0.008202,-2.011330,-1.526855,0.148584,-0.026894,-0.045205,-1.341077
4.193084,0.008202,-2.016670,-1.526855,0.148584,-0.026894,-0.045205,-1.341077
4.203169,0.008202,-2.019341,-1.526855,0.148584,-0.026894,-0.045205,-1.341077
4.213289,0.008202,-2.024300,-1.526855,0.148584,-0.026894,-0.045205,-1.341077
4.223395,0.008202,-2.026970,-1.526855,0.148584,-0.026894,-0.045205,-1.341077
4.233523,0.008202,-2.032311,-1.526855,0.148584,-0.026894,-0.045205,-1.341077
4.243637,0.008202,-2.034982,-1.526855,0.148584,-0.026894,-0.045205,-1.341077
4.253721,0.008202,-2.039559,-1.526855,0.148584,-0.026894,-0.045205,-1.341077
4.263788,0.008202,-2.042230,-1.526855,0.148584,-0.026894,-0.045205,-1.341077
4.273857,0.008202,-2.046807,-1.526855,0.148584,-0.026894,-0.045205,-1.341077
4.283968,0.008202,-2.049478,-1.526855,0.148584,-0.026894,-0.045205,-1.341077
4.294062,0.008202,-2.053674,-1.526855,0.148584,-0.026894,-0.045205,-1.341077
4.304133,0.008202,-2.055963,-1.526855,0.148584,-0.026894,-0.045587,-1.341077
4.314242,0.008202,-2.060540,-1.526855,0.148584,-0.026894,-0.045587,-1.341077
4.324356,0.008202,-2.062448,-1.526855,0.148584,-0.026894,-0.045587,-1.341077
4.334699,0.008202,-2.066644,-1.526855,0.148584,-0.026894,-0.045587,-1.341077
4.344813,0.008202,-2.068933,-1.526855,0.148584,-0.026894,-0.045587,-1.341077
4.354882,0.008202,-2.072747,-1.526855,0.148584,-0.026894,-0.045587,-1.341077
4.364990,0.008202,-2.074655,-1.526855,0.148584,-0.026894,-0.045587,-1.341077
4.375107,0.008202,-2.078469,-1.526855,0.148584,-0.026894,-0.045587,-1.341077
4.385223,0.008202,-2.080377,-1.526855,0.148584,-0.026894,-0.045587,-1.341077
4.395337,0.008202,-2.084191,-1.526855,0.148584,-0.026894,-0.045587,-1.341077
4.405425,0.008202,-2.086480,-1.526855,0.148584,-0.026894,-0.045587,-1.341077
4.415520,0.008202,-2.090295,-1.526855,0.148584,-0.026894,-0.045587,-1.341077
4.425588,0.008202,-2.092584,-1.526855,0.148584,-0.026894,-0.045587,-1.341077
4.435678,0.008202,-2.096781,-1.526855,0.148584,-0.026512,-0.045587,-1.341077
4.445791,0.008202,-2.098688,-1.526855,0.148584,-0.026512,-0.045587,-1.341077
4.455858,0.008202,-2.103266,-1.526855,0.148584,-0.026512,-0.045587,-1.341077
4.465969,0.008202,-2.105173,-1.526855,0.148584,-0.026512,-0.045587,-1.341077
4.476082,0.008202,-2.109369,-1.526855,0.148584,-0.026894,-0.045587,-1.341077
4.486171,0.008202,-2.111658,-1.526855,0.148584,-0.026894,-0.045968,-1.341077
4.496258,0.008202,-2.116236,-1.526855,0.148584,-0.026894,-0.045968,-1.341077
4.506345,0.008202,-2.118525,-1.526855,0.148584,-0.026894,-0.045968,-1.341077
4.516456,0.008202,-2.123102,-1.526855,0.148584,-0.026894,-0.045968,-1.341077
4.526571,0.008202,-2.125391,-1.526855,0.148584,-0.026894,-0.045968,-1.341077
4.536681,0.008202,-2.129969,-1.526855,0.148584,-0.026894,-0.045968,-1.341077
4.546792,0.008202,-2.132257,-1.526855,0.148584,-0.026894,-0.045968,-1.341077
4.556857,0.008202,-2.136835,-1.526855,0.148584,-0.026894,-0.045968,-1.341077
4.566924,0.008202,-2.139505,-1.526855,0.148584,-0.026894,-0.045968,-1.341077
4.576991,0.008202,-2.143702,-1.526855,0.148584,-0.026894,-0.045968,-1.341077
4.587056,0.008202,-2.145990,-1.526855,0.148584,-0.026894,-0.045968,-1.341077
4.597137,0.008202,-2.150568,-1.526855,0.148584,-0.026894,-0.045968,-1.341077
4.607207,0.008202,-2.153238,-1.526855,0.148584,-0.026894,-0.045968,-1.341077
4.617319,0.008202,-2.157435,-1.526855,0.148584,-0.026894,-0.045968,-1.341077
4.627432,0.008202,-2.159724,-1.526855,0.148584,-0.026894,-0.045968,-1.341077
4.637521,0.008202,-2.163920,-1.526855,0.148203,-0.026894,-0.045968,-1.341077
4.647631,0.008202,-2.166209,-1.526855,0.148203,-0.026894,-0.045587,-1.341077
4.657699,0.008202,-2.170024,-1.526855,0.148203,-0.026894,-0.045205,-1.341077
4.667764,0.008202,-2.171931,-1.526855,0.148203,-0.026894,-0.045205,-1.341077
4.677877,0.008202,-2.175364,-1.526855,0.148203,-0.026894,-0.045205,-1.341077
4.687963,0.008202,-2.177272,-1.526855,0.148203,-0.026894,-0.045205,-1.341077
4.698079,0.008202,-2.180324,-1.526855,0.148203,-0.026894,-0.045205,-1.341077
4.708148,0.008202,-2.182231,-1.526855,0.148203,-0.026894,-0.045205,-1.341077
4.718254,0.008202,-2.185283,-1.526855,0.148203,-0.026894,-0.045205,-1.341077
4.728319,0.008202,-2.186809,-1.526855,0.148203,-0.026894,-0.045205,-1.341077
4.738380,0.008202,-2.189479,-1.526855,0.148203,-0.026894,-0.045205,-1.341077
4.748442,0.008202,-2.191005,-1.526855,0.148203,-0.026512,-0.045205,-1.341077
4.758502,0.008202,-2.193675,-1.526855,0.148203,-0.026512,-0.045205,-1.341077
4.768517,0.008202,-2.194819,-1.526855,0.147821,-0.026512,-0.045205,-1.341077
4.778585,0.008202,-2.197108,-1.526855,0.147440,-0.026512,-0.045205,-1.341077
4.788653,0.008202,-2.198634,-1.526855,0.146296,-0.026512,-0.045205,-1.341077
4.798713,0.008202,-2.200923,-1.526855,0.145533,-0.026512,-0.045205,-1.341077
4.808775,0.008202,-2.202067,-1.526855,0.143625,-0.026131,-0.045205,-1.341077
4.818834,0.008202,-2.204738,-1.526855,0.143244,-0.025749,-0.045205,-1.341077
4.828911,0.008202,-2.206264,-1.526855,0.141718,-0.024986,-0.045205,-1.341077
4.838973,0.008202,-2.208552,-1.526855,0.141336,-0.024223,-0.045205,-1.341077
4.849036,0.008202,-2.209697,-1.527237,0.139429,-0.023460,-0.044824,-1.341077
4.859105,0.008202,-2.211986,-1.527237,0.138285,-0.023460,-0.044824,-1.341077
4.869171,0.008202,-2.213130,-1.527618,0.135996,-0.023460,-0.044824,-1.341077
4.879254,0.008202,-2.214274,-1.527618,0.134851,-0.023460,-0.045205,-1.341077
4.889319,0.008202,-2.216945,-1.527618,0.132563,-0.023460,-0.045205,-1.341077
4.899432,0.008202,-2.218089,-1.527618,0.131418,-0.023460,-0.045205,-1.341077
4.909554,0.008202,-2.219997,-1.528000,0.128748,-0.023460,-0.045205,-1.341077
4.919634,0.008202,-2.220760,-1.527618,0.127985,-0.023460,-0.045205,-1.341077
4.929752,0.008202,-2.223049,-1.527618,0.125315,-0.023460,-0.045205,-1.341077
4.939839,0.008202,-2.224194,-1.527618,0.123789,-0.023460,-0.045205,-1.341077
4.949951,0.008202,-2.226482,-1.527618,0.122263,-0.023460,-0.045587,-1.341077
4.960063,0.008202,-2.227245,-1.527618,0.121881,-0.023460,-0.045587,-1.341077
4.970134,0.008202,-2.229153,-1.528381,0.121881,-0.023460,-0.045587,-1.341077
4.980204,0.008202,-2.229916,-1.529144,0.121881,-0.023460,-0.045587,-1.341077
4.990314,0.008202,-2.231441,-1.531052,0.122263,-0.023460,-0.045587,-1.341077
5.000378,0.008202,-2.232586,-1.532578,0.123026,-0.023460,-0.045587,-1.341077
5.010441,0.008202,-2.234112,-1.534486,0.124552,-0.023460,-0.045587,-1.341077
5.020502,0.008202,-2.235256,-1.535249,0.125315,-0.023460,-0.045587,-1.341077
5.030534,0.008202,-2.237926,-1.537156,0.126078,-0.023460,-0.045587,-1.341077
5.040601,0.008202,-2.238689,-1.537919,0.127222,-0.023079,-0.045968,-1.341077
5.050661,0.008202,-2.239834,-1.539445,0.129129,-0.023079,-0.045968,-1.341077
5.060725,0.008202,-2.240215,-1.540208,0.129892,-0.022697,-0.045968,-1.341077
5.070799,0.008202,-2.241360,-1.542497,0.131800,-0.022697,-0.045968,-1.341077
5.080910,0.008202,-2.242123,-1.543260,0.132944,-0.022697,-0.045205,-1.341077
5.091023,0.008202,-2.244030,-1.544785,0.135233,-0.022697,-0.045205,-1.341077
5.101133,0.008202,-2.244793,-1.545548,0.136377,-0.022697,-0.045205,-1.341077
5.111242,0.008202,-2.245937,-1.547074,0.138666,-0.022697,-0.045205,-1.341077
5.121318,0.008202,-2.246319,-1.547837,0.139811,-0.022697,-0.045205,-1.341077
5.131429,0.008202,-2.247463,-1.548600,0.142862,-0.022316,-0.045587,-1.341077
5.141552,0.008202,-2.247845,-1.549363,0.144388,-0.021172,-0.045587,-1.341077
5.151665,0.008202,-2.248989,-1.549745,0.147058,-0.020409,-0.045205,-1.341077
5.161733,0.008202,-2.249371,-1.550126,0.148584,-0.017738,-0.045205,-1.341077
5.171807,0.008202,-2.249371,-1.550126,0.150873,-0.016594,-0.045205,-1.341077
5.181915,0.008202,-2.249371,-1.550126,0.151636,-0.014687,-0.045205,-1.341077
5.192028,0.008202,-2.249371,-1.550126,0.153162,-0.013924,-0.045205,-1.341077
5.202140,0.008202,-2.249371,-1.550126,0.153925,-0.011253,-0.045205,-1.341077
5.212268,0.008202,-2.249371,-1.550126,0.155451,-0.010109,-0.045205,-1.341077
5.222356,0.008202,-2.249371,-1.550126,0.155832,-0.008202,-0.045205,-1.341077
5.232466,0.008202,-2.249371,-1.550126,0.156596,-0.007439,-0.045205,-1.341077
5.242580,0.008202,-2.249371,-1.550126,0.156978,-0.005150,-0.044824,-1.341077
5.252699,0.008202,-2.249371,-1.549745,0.156978,-0.003242,-0.044824,-1.341077
5.262811,0.008202,-2.249371,-1.549745,0.156978,-0.002480,-0.044824,-1.341077
5.272898,0.008202,-2.249371,-1.549363,0.156978,-0.001335,-0.044824,-1.341077
5.283006,0.008202,-2.249371,-1.548982,0.156978,-0.000572,-0.044824,-1.341077
5.293120,0.008202,-2.249371,-1.548219,0.156596,0.000954,-0.044824,-1.341077
5.303231,0.008202,-2.249371,-1.547837,0.156214,0.001717,-0.044824,-1.341077
5.313299,0.008202,-2.249371,-1.547837,0.155069,0.002480,-0.044442,-1.341077
5.323365,0.008202,-2.249752,-1.547837,0.155069,0.002480,-0.043298,-1.341077
5.333480,0.008202,-2.250515,-1.547837,0.154688,0.002480,-0.042535,-1.341077
5.343593,0.008202,-2.251278,-1.548219,0.154306,0.002098,-0.041009,-1.341077
5.353688,0.008202,-2.251659,-1.548219,0.153162,0.001335,-0.039483,-1.341077
5.363802,0.008202,-2.252041,-1.548219,0.152781,0.001335,-0.036050,-1.341077
5.373888,0.009346,-2.252422,-1.547837,0.150873,0.001335,-0.034142,-1.341077
5.384002,0.010109,-2.252804,-1.547837,0.150110,0.001335,-0.029945,-1.341077
5.394114,0.012398,-2.253948,-1.547837,0.148966,0.001335,-0.025749,-1.341077
5.404217,0.013924,-2.254711,-1.547837,0.148584,0.001335,-0.023460,-1.341077
5.414329,0.016594,-2.255856,-1.548219,0.148203,0.001335,-0.019264,-1.341077
5.424446,0.017738,-2.256237,-1.548219,0.148584,0.001335,-0.017357,-1.341077
5.434560,0.018883,-2.257381,-1.548219,0.148584,0.001335,-0.013542,-1.341077
5.444676,0.019646,-2.257763,-1.548219,0.148584,0.001335,-0.011635,-1.341077
5.454750,0.020027,-2.257763,-1.548219,0.148584,0.000572,-0.008965,-1.341077
5.464814,0.020409,-2.257763,-1.548219,0.148584,0.000572,-0.007439,-1.341077
5.474881,0.020409,-2.257763,-1.548219,0.148584,-0.000572,-0.005150,-1.341077
5.484996,0.020409,-2.258144,-1.548219,0.148584,-0.001335,-0.004005,-1.341077
5.495109,0.020409,-2.258526,-1.548219,0.148584,-0.003242,-0.002861,-1.341077
5.505184,0.020409,-2.258526,-1.548219,0.148966,-0.004387,-0.002480,-1.341077
5.515293,0.020409,-2.258526,-1.547837,0.149347,-0.006294,-0.002480,-1.341077
5.525405,0.020409,-2.258526,-1.547837,0.149347,-0.006294,-0.002861,-1.341077
5.535525,0.020409,-2.258526,-1.547837,0.149347,-0.006294,-0.003624,-1.341077
5.545597,0.020409,-2.258907,-1.547456,0.149347,-0.005913,-0.004768,-1.341077
5.555661,0.020409,-2.259670,-1.547456,0.149347,-0.005913,-0.005150,-1.341077
5.565724,0.020409,-2.260052,-1.547074,0.149347,-0.005913,-0.007057,-1.341077
5.575790,0.020409,-2.260815,-1.547074,0.149347,-0.005913,-0.007820,-1.341458
5.585871,0.020409,-2.260815,-1.547074,0.149347,-0.005913,-0.010109,-1.341458
5.595982,0.020409,-2.261578,-1.547074,0.149347,-0.006294,-0.011635,-1.341458
5.606052,0.020409,-2.261578,-1.547074,0.149347,-0.007057,-0.014305,-1.341458
5.616120,0.020409,-2.261578,-1.547074,0.149347,-0.007439,-0.015450,-1.341458
5.626210,0.020409,-2.261578,-1.547074,0.149347,-0.008965,-0.018501,-1.341458
5.636324,0.020409,-2.261578,-1.547074,0.149347,-0.011635,-0.019646,-1.341458
5.646438,0.020409,-2.261578,-1.547074,0.149347,-0.012779,-0.021935,-1.341458
5.656521,0.020409,-2.261578,-1.547074,0.148966,-0.014687,-0.023079,-1.341458
5.666589,0.020409,-2.261578,-1.547074,0.148966,-0.015831,-0.026131,-1.341458
5.676653,0.020409,-2.261578,-1.547074,0.148966,-0.016975,-0.027657,-1.341458
5.686732,0.020409,-2.261578,-1.547074,0.148966,-0.018501,-0.031090,-1.341458
5.696815,0.020409,-2.261578,-1.547074,0.148966,-0.020027,-0.032998,-1.341458
5.706968,0.020409,-2.261959,-1.547074,0.148966,-0.020790,-0.036050,-1.341458
5.717076,0.020409,-2.262722,-1.547074,0.148966,-0.021935,-0.037957,-1.341458
5.727191,0.020409,-2.263485,-1.547074,0.148966,-0.022697,-0.041772,-1.341458
5.737304,0.020409,-2.264248,-1.547074,0.148966,-0.023842,-0.044824,-1.341458
5.747418,0.020409,-2.264629,-1.547074,0.148966,-0.024605,-0.046350,-1.341458
5.757487,0.020409,-2.264629,-1.547074,0.148966,-0.025368,-0.048257,-1.341458
5.767551,0.020409,-2.264629,-1.547074,0.148966,-0.025749,-0.048257,-1.341458
5.777622,0.020409,-2.264629,-1.547074,0.148966,-0.026131,-0.048257,-1.341458
5.787722,0.020409,-2.265011,-1.547074,0.148966,-0.026131,-0.048257,-1.341458
5.797835,0.020409,-2.266155,-1.547456,0.148966,-0.025749,-0.047875,-1.341458
5.807945,0.020409,-2.266537,-1.547456,0.148966,-0.025749,-0.047875,-1.341458
5.818057,0.020409,-2.267300,-1.547456,0.148584,-0.025749,-0.047875,-1.341458
5.828166,0.020409,-2.267681,-1.547456,0.148584,-0.025749,-0.047494,-1.341458
5.838247,0.020409,-2.268063,-1.547456,0.148203,-0.025749,-0.046731,-1.341458
5.848358,0.020409,-2.268063,-1.547837,0.148203,-0.025368,-0.044824,-1.341077
5.858427,0.020409,-2.268063,-1.548219,0.148584,-0.024605,-0.044061,-1.341077
5.868546,0.020409,-2.268063,-1.548219,0.148584,-0.024605,-0.042535,-1.341077
5.878631,0.020409,-2.268063,-1.548219,0.148966,-0.024223,-0.041772,-1.341077
5.888737,0.020409,-2.268444,-1.548219,0.148966,-0.024223,-0.040246,-1.341077
5.898847,0.020409,-2.269207,-1.548219,0.148966,-0.023460,-0.039102,-1.341077
5.908960,0.020409,-2.269588,-1.548219,0.149347,-0.023079,-0.037194,-1.341077
5.919071,0.020409,-2.269970,-1.548219,0.149347,-0.021935,-0.036050,-1.341077
5.929150,0.020409,-2.269970,-1.548219,0.149347,-0.021553,-0.035287,-1.341077
5.939241,0.020409,-2.269970,-1.548219,0.149347,-0.021553,-0.034524,-1.341077
5.949351,0.020409,-2.269970,-1.548219,0.149347,-0.020409,-0.034524,-1.341077
5.959413,0.020409,-2.270351,-1.548219,0.149347,-0.018883,-0.034524,-1.341077
5.969483,0.020409,-2.270733,-1.548219,0.149347,-0.018120,-0.034905,-1.341077
5.979595,0.020409,-2.270733,-1.548219,0.149347,-0.016975,-0.034905,-1.341077
5.989689,0.020409,-2.270733,-1.548219,0.149729,-0.016975,-0.034905,-1.341077
5.999772,0.020409,-2.270733,-1.548219,0.150492,-0.017357,-0.034905,-1.341077
6.009840,0.020409,-2.270733,-1.548219,0.150873,-0.017357,-0.034905,-1.341077
6.019948,0.020409,-2.270733,-1.548219,0.150873,-0.017357,-0.034905,-1.341077
6.030062,0.020409,-2.270733,-1.548219,0.151255,-0.017357,-0.034905,-1.341077
6.040145,0.020409,-2.270733,-1.548219,0.151255,-0.017357,-0.034905,-1.341077
6.050262,0.020409,-2.270733,-1.548219,0.151255,-0.017357,-0.034905,-1.341077
6.060333,0.020409,-2.270733,-1.548219,0.151255,-0.017357,-0.034905,-1.341077
6.070396,0.020409,-2.270733,-1.548219,0.150873,-0.017357,-0.034905,-1.341077
6.080458,0.020409,-2.270733,-1.548219,0.150873,-0.017357,-0.035287,-1.341077
6.090530,0.020409,-2.270733,-1.548219,0.151255,-0.017357,-0.036431,-1.341077
6.100592,0.020409,-2.270733,-1.548219,0.151255,-0.017357,-0.037194,-1.341077
6.110655,0.020409,-2.270733,-1.548219,0.151255,-0.017357,-0.039102,-1.341077
6.120740,0.020409,-2.270733,-1.548219,0.151255,-0.017357,-0.039865,-1.341077
6.130826,0.020409,-2.270733,-1.548219,0.150873,-0.017357,-0.041009,-1.341077
6.140935,0.020409,-2.270733,-1.548219,0.150873,-0.017357,-0.042153,-1.341077
6.151046,0.020409,-2.270733,-1.548219,0.150492,-0.017357,-0.044442,-1.341077
6.161154,0.020409,-2.270733,-1.548219,0.150492,-0.017357,-0.045968,-1.341077
6.171316,0.020409,-2.270733,-1.548219,0.149729,-0.017357,-0.047875,-1.341077
6.181394,0.020409,-2.271114,-1.548219,0.149729,-0.017357,-0.049020,-1.341077
6.191463,0.020409,-2.271496,-1.548219,0.149347,-0.017357,-0.051690,-1.341077
6.201522,0.020409,-2.271877,-1.548219,0.149347,-0.017357,-0.052453,-1.341077
6.211590,0.020409,-2.272640,-1.548219,0.149347,-0.017357,-0.054360,-1.341077
6.221654,0.020409,-2.273403,-1.548219,0.149347,-0.017738,-0.055123,-1.341077
6.231728,0.020409,-2.274166,-1.548219,0.149347,-0.017738,-0.057412,-1.341077
6.241804,0.020409,-2.274929,-1.548219,0.149347,-0.018120,-0.058175,-1.341077
6.251918,0.020409,-2.276073,-1.548219,0.149347,-0.018501,-0.059319,-1.341077
6.262026,0.020409,-2.276455,-1.548219,0.149347,-0.018501,-0.059319,-1.341077
6.272093,0.020409,-2.277218,-1.548219,0.149347,-0.018501,-0.059319,-1.341077
6.282177,0.020409,-2.277218,-1.548219,0.149347,-0.018501,-0.059319,-1.341077
6.292286,0.020409,-2.277218,-1.548219,0.149347,-0.018501,-0.059319,-1.341077
6.302369,0.020409,-2.277218,-1.548219,0.149347,-0.018501,-0.059319,-1.341077
6.312481,0.020409,-2.277218,-1.548219,0.149347,-0.018501,-0.059319,-1.341077
6.322533,0.020409,-2.277218,-1.548219,0.149347,-0.018501,-0.058938,-1.341077
6.332628,0.020409,-2.277599,-1.547837,0.149347,-0.018501,-0.058938,-1.341077
6.342697,0.020409,-2.277599,-1.547837,0.149347,-0.018501,-0.058938,-1.341077
6.352784,0.020409,-2.278744,-1.547456,0.149347,-0.018501,-0.058175,-1.341077
6.362857,0.020409,-2.279125,-1.547074,0.149347,-0.018501,-0.057794,-1.341077
6.372930,0.020409,-2.280651,-1.547074,0.149347,-0.018501,-0.057412,-1.341077
6.382999,0.020409,-2.281796,-1.547074,0.149347,-0.018501,-0.057412,-1.341077
6.393061,0.020409,-2.283322,-1.547074,0.149347,-0.018501,-0.057412,-1.341077
6.403133,0.020409,-2.284085,-1.547074,0.149347,-0.018501,-0.057412,-1.341077
6.413207,0.020409,-2.284848,-1.547074,0.149347,-0.018501,-0.057412,-1.341077
6.423273,0.020409,-2.285230,-1.547074,0.149347,-0.018501,-0.057412,-1.341077
6.433335,0.020409,-2.287137,-1.547074,0.149347,-0.018501,-0.057412,-1.341077
6.443405,0.020409,-2.288663,-1.547074,0.149347,-0.018501,-0.057412,-1.341077
6.453485,0.020409,-2.291333,-1.547456,0.149347,-0.018501,-0.057412,-1.341077
6.463608,0.020409,-2.292859,-1.547456,0.149347,-0.018501,-0.057412,-1.341077
6.473757,0.020409,-2.295529,-1.547837,0.148966,-0.018501,-0.057412,-1.341077
6.483852,0.020409,-2.296674,-1.548219,0.148966,-0.018120,-0.057412,-1.341077
6.493962,0.020409,-2.298963,-1.548219,0.148966,-0.018120,-0.057412,-1.341077
6.504076,0.020409,-2.300488,-1.548219,0.148584,-0.018120,-0.057412,-1.341077
6.514187,0.020409,-2.303540,-1.548219,0.148203,-0.018120,-0.057412,-1.341077
6.524263,0.020409,-2.305066,-1.548219,0.147821,-0.018120,-0.057412,-1.341077
6.534333,0.020409,-2.308118,-1.548600,0.146677,-0.018120,-0.057412,-1.341077
6.544416,0.020409,-2.309644,-1.548600,0.146296,-0.018120,-0.057412,-1.341077
6.554530,0.020409,-2.312696,-1.548600,0.145533,-0.018120,-0.057412,-1.341077
6.564603,0.020409,-2.314221,-1.548600,0.145151,-0.017738,-0.057412,-1.341077
6.574670,0.020409,-2.317655,-1.548600,0.144007,-0.017738,-0.057412,-1.341077
6.584781,0.020409,-2.318799,-1.548600,0.143625,-0.017738,-0.057412,-1.341077
6.594894,0.020409,-2.321088,-1.548600,0.143625,-0.017357,-0.057412,-1.341077
6.604980,0.020409,-2.322232,-1.548600,0.143625,-0.017357,-0.057412,-1.341077
6.615045,0.020409,-2.324140,-1.548982,0.143244,-0.017357,-0.057412,-1.341077
6.625113,0.020409,-2.324903,-1.549363,0.143244,-0.017357,-0.057412,-1.341077
6.635185,0.020409,-2.326810,-1.550126,0.142862,-0.017357,-0.057412,-1.341077
6.645302,0.020409,-2.327954,-1.550126,0.142481,-0.017357,-0.057412,-1.341077
6.655430,0.020409,-2.329862,-1.550889,0.142481,-0.017357,-0.057412,-1.341077
6.665548,0.020409,-2.330243,-1.551270,0.142099,-0.017357,-0.057412,-1.341077
6.675668,0.020409,-2.331769,-1.552415,0.141718,-0.017357,-0.057412,-1.341077
6.685786,0.020409,-2.332532,-1.552796,0.141718,-0.017357,-0.057412,-1.341077
6.695851,0.020409,-2.334821,-1.554704,0.141718,-0.017357,-0.057412,-1.341077
6.705913,0.020409,-2.335965,-1.555467,0.141718,-0.017357,-0.057412,-1.341077
6.715972,0.020409,-2.338635,-1.557755,0.141718,-0.017357,-0.057412,-1.341077
6.726032,0.020409,-2.339780,-1.558900,0.141718,-0.017357,-0.057412,-1.341077
6.736093,0.020409,-2.342450,-1.561570,0.141336,-0.017357,-0.057412,-1.341077
6.746173,0.020409,-2.343595,-1.562715,0.141336,-0.017357,-0.057412,-1.341077
6.756288,0.020409,-2.346266,-1.566148,0.141336,-0.017357,-0.057412,-1.341077
6.766400,0.020409,-2.347792,-1.567674,0.141336,-0.017357,-0.057412,-1.341077
6.776611,0.020409,-2.351225,-1.571107,0.141718,-0.017357,-0.057412,-1.341077
6.786685,0.020409,-2.352751,-1.573014,0.141718,-0.017357,-0.057794,-1.341077
6.796752,0.020409,-2.356565,-1.576829,0.141718,-0.017357,-0.057794,-1.341077
6.806814,0.020409,-2.357710,-1.578736,0.141718,-0.017357,-0.057794,-1.341077
6.816876,0.020409,-2.361143,-1.582170,0.142099,-0.017357,-0.057794,-1.341077
6.826945,0.020409,-2.363050,-1.583695,0.142099,-0.017357,-0.058557,-1.341077
6.837063,0.020409,-2.366102,-1.587129,0.142099,-0.017357,-0.058557,-1.341077
6.847149,0.020409,-2.367628,-1.588655,0.142099,-0.017357,-0.058557,-1.341077
6.857213,0.020409,-2.371061,-1.590180,0.141718,-0.017357,-0.058557,-1.341077
6.867325,0.020409,-2.372969,-1.593614,0.141718,-0.017357,-0.058557,-1.341077
6.877438,0.020409,-2.376402,-1.595140,0.141718,-0.017357,-0.058557,-1.341077
6.887551,0.020409,-2.377928,-1.598955,0.141718,-0.017357,-0.058557,-1.341077
6.897637,0.020409,-2.381742,-1.600863,0.141718,-0.017357,-0.058557,-1.341077
6.907755,0.020409,-2.384031,-1.604677,0.141718,-0.017357,-0.058557,-1.341077
6.917867,0.020409,-2.387846,-1.606966,0.141718,-0.017357,-0.058557,-1.341077
6.927979,0.020409,-2.389753,-1.611544,0.141718,-0.017357,-0.058557,-1.341077
6.938091,0.020409,-2.393950,-1.613832,0.141718,-0.017357,-0.058557,-1.341077
6.948211,0.020409,-2.396238,-1.618029,0.141718,-0.017357,-0.058557,-1.341077
6.958324,0.020409,-2.400053,-1.622988,0.141718,-0.017357,-0.058557,-1.341077
6.968436,0.020409,-2.402342,-1.625277,0.141718,-0.017357,-0.058557,-1.341077
6.978548,0.020409,-2.406539,-1.629473,0.141718,-0.017357,-0.058557,-1.341077
6.988661,0.020409,-2.408446,-1.631762,0.141718,-0.017357,-0.058557,-1.341077
6.998774,0.020409,-2.412261,-1.635576,0.141718,-0.017357,-0.058557,-1.341077
7.008889,0.020409,-2.414550,-1.637865,0.141718,-0.017357,-0.058557,-1.341077
7.019000,0.020409,-2.418365,-1.641680,0.141718,-0.017357,-0.058557,-1.341077
7.029110,0.020409,-2.420653,-1.643969,0.141718,-0.017357,-0.058557,-1.341077
7.039222,0.020409,-2.424468,-1.647783,0.141718,-0.017357,-0.058557,-1.341077
7.049337,0.020409,-2.426375,-1.649691,0.141718,-0.017357,-0.058557,-1.341077
7.059449,0.020409,-2.430572,-1.653505,0.141718,-0.017357,-0.058557,-1.341077
7.069542,0.020409,-2.432479,-1.655413,0.141718,-0.017357,-0.058557,-1.341077
7.079659,0.020409,-2.436294,-1.659228,0.141718,-0.017357,-0.058557,-1.341077
7.089772,0.020409,-2.437819,-1.661136,0.141718,-0.017357,-0.058557,-1.341077
7.099858,0.020409,-2.442016,-1.664569,0.141718,-0.017357,-0.058557,-1.341077
7.109970,0.020409,-2.443542,-1.666476,0.141718,-0.017357,-0.058557,-1.341077
7.120082,0.020409,-2.447356,-1.669528,0.141718,-0.017357,-0.058557,-1.341077
7.130209,0.020409,-2.449264,-1.671054,0.141718,-0.017357,-0.058557,-1.341077
7.140317,0.020409,-2.453078,-1.673724,0.141718,-0.017357,-0.058557,-1.341077
7.150432,0.020409,-2.454986,-1.675250,0.141718,-0.017357,-0.058557,-1.341077
7.160548,0.020409,-2.458037,-1.677920,0.141718,-0.017357,-0.058557,-1.341077
7.170883,0.020409,-2.459945,-1.679065,0.141718,-0.017357,-0.058557,-1.341077
7.180961,0.020409,-2.462996,-1.680591,0.141718,-0.017357,-0.058557,-1.341077
7.191072,0.020409,-2.464522,-1.681735,0.141718,-0.017357,-0.058557,-1.341077
7.201157,0.020409,-2.467574,-1.683642,0.141718,-0.017357,-0.058557,-1.341077
7.211661,0.020409,-2.469101,-1.684405,0.141718,-0.017357,-0.058557,-1.341077
7.222070,0.020409,-2.472153,-1.685931,0.141718,-0.017357,-0.058557,-1.341077
7.232185,0.020409,-2.473679,-1.686694,0.141718,-0.017357,-0.058557,-1.341077
7.242272,0.020409,-2.476349,-1.688601,0.141718,-0.017357,-0.058557,-1.341077
7.252385,0.020409,-2.477875,-1.689746,0.141718,-0.017357,-0.058557,-1.341077
7.262484,0.020409,-2.481308,-1.691653,0.141718,-0.017357,-0.058557,-1.341077
7.272544,0.020409,-2.482452,-1.692416,0.141718,-0.017357,-0.058557,-1.341077
7.282617,0.020409,-2.485886,-1.694324,0.141718,-0.017357,-0.058557,-1.341077
7.292743,0.020409,-2.487030,-1.695468,0.141718,-0.017357,-0.058557,-1.341077
7.302853,0.020409,-2.489319,-1.696994,0.141718,-0.017357,-0.058557,-1.341077
7.312925,0.020409,-2.490845,-1.698138,0.141718,-0.017357,-0.058557,-1.341077
7.323035,0.020409,-2.493134,-1.700046,0.141718,-0.017357,-0.058557,-1.341077
7.333147,0.020409,-2.495804,-1.701190,0.141718,-0.017357,-0.058557,-1.341077
7.343238,0.020409,-2.496948,-1.703479,0.141718,-0.017357,-0.058557,-1.341077
7.353304,0.020409,-2.498474,-1.705005,0.141718,-0.017357,-0.058557,-1.341077
7.363375,0.020409,-2.500763,-1.707294,0.141718,-0.017357,-0.058557,-1.341077
7.373437,0.020409,-2.501907,-1.708819,0.141718,-0.017357,-0.058557,-1.341077
7.383506,0.020409,-2.503815,-1.711490,0.141718,-0.017357,-0.058557,-1.341077
7.393626,0.020409,-2.505341,-1.713016,0.141718,-0.017357,-0.058557,-1.341077
7.403746,0.020409,-2.507629,-1.716067,0.141718,-0.017357,-0.058175,-1.341077
7.413857,0.020409,-2.508774,-1.717593,0.141718,-0.017357,-0.058175,-1.341077
7.423938,0.020409,-2.510681,-1.720264,0.141718,-0.017357,-0.058175,-1.341077
7.434009,0.020409,-2.511826,-1.722172,0.141718,-0.017357,-0.058175,-1.341077
7.444122,0.020409,-2.514496,-1.725224,0.141718,-0.017357,-0.058175,-1.341077
7.454233,0.020409,-2.515640,-1.726749,0.141718,-0.017357,-0.058175,-1.341077
7.464305,0.020409,-2.518311,-1.729801,0.141718,-0.017357,-0.058175,-1.341077
7.474371,0.020409,-2.519836,-1.731327,0.141718,-0.017357,-0.058175,-1.341077
7.484435,0.020409,-2.521744,-1.735142,0.141336,-0.017357,-0.058175,-1.341077
7.494544,0.020409,-2.522507,-1.736668,0.141336,-0.017357,-0.058175,-1.341077
7.504653,0.020409,-2.525177,-1.739719,0.141718,-0.017357,-0.058175,-1.341077
7.514729,0.020409,-2.526321,-1.741245,0.141718,-0.016975,-0.058175,-1.341077
7.524823,0.020409,-2.528610,-1.743916,0.141718,-0.016975,-0.058175,-1.341077
7.534892,0.020409,-2.529755,-1.745441,0.141718,-0.016975,-0.058175,-1.341077
7.544954,0.020409,-2.531663,-1.747730,0.141718,-0.016975,-0.058175,-1.341077
7.555028,0.020790,-2.532426,-1.748875,0.141718,-0.016975,-0.058175,-1.341077
7.565092,0.021553,-2.533570,-1.750401,0.141718,-0.016975,-0.058175,-1.341077
7.575160,0.021935,-2.533952,-1.751163,0.141718,-0.016975,-0.058175,-1.341077
7.585223,0.022316,-2.535096,-1.751163,0.141718,-0.016975,-0.058175,-1.341077
7.595284,0.022316,-2.535478,-1.751163,0.141718,-0.016975,-0.058175,-1.341077
7.605346,0.022316,-2.536622,-1.751163,0.141336,-0.016975,-0.058175,-1.341077
7.615407,0.022697,-2.536622,-1.751163,0.141336,-0.016975,-0.058175,-1.341077
7.625469,0.023842,-2.537385,-1.751163,0.140574,-0.016975,-0.057412,-1.341077
7.635520,0.024223,-2.537385,-1.751163,0.140192,-0.016975,-0.057031,-1.341077
7.645579,0.024986,-2.537385,-1.751163,0.139811,-0.016975,-0.056268,-1.341077
7.655643,0.025368,-2.537385,-1.751163,0.139811,-0.016975,-0.056268,-1.341077
7.665710,0.026512,-2.537385,-1.751163,0.139429,-0.016975,-0.056268,-1.341077
7.675820,0.027275,-2.537385,-1.751163,0.139429,-0.016975,-0.056268,-1.341077
7.685891,0.028038,-2.538148,-1.751163,0.139429,-0.016594,-0.056268,-1.341077
7.695973,0.028419,-2.538529,-1.751163,0.139429,-0.016594,-0.056268,-1.341077
7.706041,0.028801,-2.539674,-1.751163,0.139429,-0.016212,-0.056268,-1.341077
7.716111,0.028801,-2.539674,-1.751163,0.139429,-0.015831,-0.056268,-1.341077
7.726175,0.028801,-2.540055,-1.751163,0.139429,-0.015068,-0.056268,-1.341077
7.736252,0.028801,-2.540055,-1.751163,0.139429,-0.015068,-0.056268,-1.341077
7.746361,0.028801,-2.540055,-1.751163,0.139429,-0.014305,-0.056268,-1.341077
7.756473,0.028801,-2.540437,-1.751163,0.139429,-0.013924,-0.056268,-1.341077
7.766576,0.028801,-2.540437,-1.751163,0.139429,-0.012398,-0.056268,-1.341077
7.776686,0.028801,-2.540818,-1.751163,0.139429,-0.012016,-0.056268,-1.341077
7.786795,0.028801,-2.541581,-1.751163,0.139429,-0.011253,-0.056268,-1.341077
7.796888,0.028801,-2.541963,-1.751163,0.139429,-0.011253,-0.056268,-1.341077
7.807001,0.028801,-2.542344,-1.751163,0.139429,-0.011253,-0.056649,-1.341077
7.817068,0.028801,-2.542726,-1.751163,0.139429,-0.011253,-0.056649,-1.341077
7.827221,0.028801,-2.543107,-1.751163,0.139048,-0.011253,-0.056649,-1.341077
7.837333,0.028801,-2.543489,-1.751163,0.138666,-0.011253,-0.056649,-1.341077
7.847473,0.028801,-2.544251,-1.750782,0.137903,-0.011253,-0.056649,-1.341077
7.857588,0.028801,-2.544633,-1.750782,0.137903,-0.011253,-0.056649,-1.341077
7.867701,0.028801,-2.545014,-1.750401,0.137903,-0.011253,-0.056649,-1.341077
7.877774,0.028801,-2.545396,-1.750019,0.137903,-0.011253,-0.056649,-1.341077
7.887839,0.028801,-2.545777,-1.750019,0.137903,-0.011253,-0.056268,-1.340695
7.897916,0.028801,-2.545777,-1.750019,0.137903,-0.011253,-0.056268,-1.339932
7.907998,0.028801,-2.545777,-1.750019,0.137903,-0.011253,-0.056268,-1.338407
7.918111,0.028801,-2.545777,-1.750019,0.137903,-0.011253,-0.056268,-1.337262
7.928223,0.028801,-2.545777,-1.750019,0.137903,-0.011253,-0.056649,-1.333829
7.938345,0.028801,-2.545777,-1.750019,0.137903,-0.011253,-0.056649,-1.331540
7.948537,0.028801,-2.545777,-1.750019,0.137903,-0.011253,-0.056649,-1.325818
7.958669,0.028801,-2.545777,-1.750019,0.137903,-0.011253,-0.056649,-1.322766
7.968778,0.028801,-2.545777,-1.750019,0.137903,-0.011253,-0.057412,-1.314755
7.978889,0.028801,-2.545777,-1.750019,0.137903,-0.011253,-0.057794,-1.310178
7.988959,0.028801,-2.545777,-1.750019,0.137903,-0.011253,-0.058175,-1.298734
7.999025,0.028801,-2.545777,-1.750019,0.137903,-0.011253,-0.058175,-1.291867
8.009095,0.028801,-2.545777,-1.750019,0.137903,-0.010872,-0.057794,-1.276226
8.019165,0.028801,-2.545777,-1.750019,0.137903,-0.010872,-0.057794,-1.267452
8.029227,0.028801,-2.545396,-1.750019,0.137903,-0.010490,-0.057031,-1.247234
8.039293,0.028801,-2.545396,-1.750019,0.137903,-0.010490,-0.057031,-1.236172
8.049357,0.028801,-2.545396,-1.750019,0.137903,-0.010490,-0.056268,-1.210994
8.059449,0.028801,-2.545396,-1.750019,0.137903,-0.010490,-0.056268,-1.197261
8.069536,0.028801,-2.545396,-1.750019,0.137903,-0.010490,-0.056268,-1.167125
8.079605,0.028801,-2.545396,-1.750019,0.137903,-0.010109,-0.056268,-1.150721
8.089666,0.028801,-2.545396,-1.750019,0.137903,-0.010109,-0.056268,-1.116007
8.099743,0.028801,-2.545396,-1.750019,0.137903,-0.009727,-0.056268,-1.097315
8.109810,0.028801,-2.545396,-1.750019,0.137903,-0.009346,-0.055886,-1.056878
8.119874,0.028801,-2.545396,-1.750019,0.137903,-0.009346,-0.055505,-1.035516
8.129937,0.028801,-2.545396,-1.750019,0.137903,-0.008965,-0.054360,-0.991264
8.140008,0.028801,-2.545396,-1.750019,0.137903,-0.008583,-0.053216,-0.967231
8.150077,0.028801,-2.545396,-1.750019,0.137903,-0.007439,-0.050546,-0.917640
8.160164,0.028801,-2.545777,-1.750019,0.137903,-0.006294,-0.049020,-0.891699
8.170241,0.028801,-2.545777,-1.750019,0.138285,-0.004387,-0.046731,-0.837148
8.180310,0.028801,-2.545777,-1.749638,0.138285,-0.003624,-0.045205,-0.809300
8.190417,0.028801,-2.546540,-1.748112,0.138666,-0.002480,-0.042916,-0.752079
8.200533,0.028801,-2.546922,-1.747349,0.138666,-0.002098,-0.041772,-0.722324
8.210619,0.028801,-2.547685,-1.745823,0.139048,-0.001717,-0.040246,-0.660907
8.220730,0.028801,-2.548448,-1.745060,0.139048,-0.001717,-0.039483,-0.630007
8.230841,0.028801,-2.549211,-1.743534,0.139048,-0.001717,-0.037957,-0.567826
8.240953,0.028801,-2.549592,-1.743153,0.139048,-0.001717,-0.037576,-0.536164
8.251030,0.028801,-2.550736,-1.741627,0.139048,-0.001335,-0.037194,-0.473602
8.261116,0.028801,-2.551118,-1.741245,0.139048,-0.000572,-0.037194,-0.442321
8.271227,0.028801,-2.551499,-1.740482,0.139048,0.000954,-0.036431,-0.382048
8.281312,0.028801,-2.551499,-1.739719,0.139048,0.001717,-0.036050,-0.351149
8.291493,0.028801,-2.551881,-1.738575,0.139048,0.002861,-0.035668,-0.290875
8.301525,0.028801,-2.551881,-1.737812,0.139048,0.003242,-0.035287,-0.261501
8.311594,0.029182,-2.552262,-1.736668,0.139048,0.003242,-0.035287,-0.202754
8.321663,0.029945,-2.552262,-1.735905,0.138666,0.003242,-0.035287,-0.174525
8.331728,0.031090,-2.552262,-1.734760,0.138285,0.003242,-0.035287,-0.119593
8.341793,0.031854,-2.552262,-1.733997,0.137903,0.003242,-0.035287,-0.092507
8.351864,0.032998,-2.552262,-1.733234,0.137903,0.003624,-0.035668,-0.041772
8.361978,0.033761,-2.552262,-1.733234,0.137903,0.003624,-0.035668,-0.020027
8.372054,0.034905,-2.552262,-1.733234,0.137903,0.004005,-0.035668,0.014687
8.382131,0.035287,-2.552262,-1.733234,0.137903,0.004005,-0.035668,0.025368
8.392218,0.035668,-2.552262,-1.733234,0.137903,0.004768,-0.035668,0.027275
8.402286,0.035668,-2.552262,-1.733234,0.137903,0.004768,-0.035668,0.022697
8.412414,0.035668,-2.552262,-1.733234,0.137903,0.005531,-0.036050,0.016975
8.422763,0.035668,-2.552262,-1.733234,0.137522,0.005913,-0.036431,0.002861
8.432838,0.035668,-2.552262,-1.733234,0.137140,0.005913,-0.036813,-0.012016
8.442960,0.035668,-2.552262,-1.733234,0.137140,0.006294,-0.036813,-0.019264
8.453040,0.035668,-2.552262,-1.733234,0.136759,0.006676,-0.036813,-0.032235
8.463120,0.036431,-2.552262,-1.733234,0.136759,0.006676,-0.036813,-0.037576
8.473236,0.037194,-2.552262,-1.733234,0.136759,0.007057,-0.036813,-0.045587
8.483352,0.037576,-2.552262,-1.733234,0.136759,0.007057,-0.036813,-0.048257
8.493415,0.037194,-2.552262,-1.733234,0.136377,0.007439,-0.036813,-0.051309
8.503478,0.037194,-2.552262,-1.733234,0.135996,0.007439,-0.036813,-0.050927
8.513516,0.037194,-2.552262,-1.733234,0.135614,0.007439,-0.036813,-0.050546
8.523585,0.037194,-2.552262,-1.733234,0.135614,0.007439,-0.036813,-0.049401
8.533648,0.037194,-2.552262,-1.733234,0.135233,0.007439,-0.036813,-0.048638
8.543714,0.037194,-2.552644,-1.733234,0.135233,0.007439,-0.036813,-0.047494
8.553826,0.037194,-2.553025,-1.733234,0.135233,0.007439,-0.036813,-0.046731
8.563935,0.037194,-2.553407,-1.733234,0.135233,0.007439,-0.036431,-0.044824
8.573997,0.037194,-2.554170,-1.733234,0.135233,0.007439,-0.036431,-0.043298
8.584064,0.037194,-2.554551,-1.733234,0.135233,0.007439,-0.036431,-0.042535
8.594131,0.037194,-2.555314,-1.733234,0.135233,0.007439,-0.036431,-0.041009
8.604199,0.037194,-2.555696,-1.733234,0.135233,0.007439,-0.036431,-0.040246
8.614312,0.037194,-2.556458,-1.733234,0.135233,0.007439,-0.036431,-0.038339
8.624425,0.037194,-2.557221,-1.733234,0.135233,0.007439,-0.036431,-0.037957
8.634492,0.037194,-2.557984,-1.733234,0.135233,0.007439,-0.036431,-0.037576
8.644543,0.037194,-2.557984,-1.733234,0.135233,0.007439,-0.036431,-0.037576
8.654655,0.037194,-2.558366,-1.733234,0.135233,0.007439,-0.036431,-0.037576
8.664725,0.037194,-2.558747,-1.733234,0.135233,0.007439,-0.036431,-0.037576
8.674822,0.037194,-2.558747,-1.733234,0.134851,0.007439,-0.036431,-0.037576
8.684932,0.037194,-2.559129,-1.733234,0.134851,0.007439,-0.036431,-0.037576
8.695078,0.037194,-2.559129,-1.733234,0.134851,0.007439,-0.036431,-0.037576
8.705192,0.037194,-2.559892,-1.733234,0.134851,0.007439,-0.036431,-0.037576
8.715262,0.037194,-2.560655,-1.733234,0.134851,0.007439,-0.036431,-0.037576
8.725375,0.037194,-2.561418,-1.733234,0.134851,0.007439,-0.036431,-0.037576
8.735448,0.037194,-2.561799,-1.733234,0.134470,0.007439,-0.036431,-0.037576
8.745561,0.037194,-2.562562,-1.733234,0.134470,0.007439,-0.036431,-0.037576
8.755678,0.037194,-2.562943,-1.733234,0.134089,0.007439,-0.036431,-0.037576
8.765794,0.037194,-2.562943,-1.733234,0.134089,0.007439,-0.036431,-0.037576
8.775905,0.037194,-2.563325,-1.733234,0.133707,0.007439,-0.036431,-0.037576
8.786019,0.037194,-2.563325,-1.733234,0.132944,0.007439,-0.036431,-0.037576
8.796105,0.037194,-2.563325,-1.733234,0.132944,0.007439,-0.036431,-0.037576
8.806214,0.037194,-2.563325,-1.733234,0.132944,0.007439,-0.036431,-0.037576
8.816278,0.037194,-2.563325,-1.733234,0.132944,0.007439,-0.036431,-0.037576
8.826385,0.037194,-2.563325,-1.733234,0.132944,0.007439,-0.036431,-0.037576
8.836530,0.037194,-2.563325,-1.733234,0.132944,0.007439,-0.036431,-0.037576
8.846609,0.037194,-2.563325,-1.733234,0.132944,0.007439,-0.036431,-0.037576
8.856699,0.037194,-2.563325,-1.733234,0.132944,0.007439,-0.036431,-0.037576
8.866785,0.037194,-2.563325,-1.733234,0.132944,0.007439,-0.036431,-0.037576
8.876896,0.037194,-2.563325,-1.733234,0.132944,0.007439,-0.036431,-0.037576
8.886987,0.037194,-2.563325,-1.733234,0.132944,0.007439,-0.036431,-0.037576
8.897117,0.037194,-2.563325,-1.733234,0.132944,0.007439,-0.036431,-0.037576
8.907412,0.037194,-2.563325,-1.733234,0.132944,0.007439,-0.036431,-0.037576
8.917499,0.037194,-2.563325,-1.733234,0.132944,0.007439,-0.036431,-0.037576
8.927591,0.037194,-2.563325,-1.733234,0.132944,0.007439,-0.036431,-0.037576
8.937659,0.037194,-2.562943,-1.733234,0.132944,0.007439,-0.036431,-0.037576
8.947743,0.037194,-2.562943,-1.733234,0.133326,0.007439,-0.036431,-0.037576
8.958086,0.037194,-2.562943,-1.733234,0.133326,0.007439,-0.036431,-0.037576
8.968198,0.037194,-2.562943,-1.733234,0.133326,0.007439,-0.036431,-0.037576
8.978311,0.037194,-2.562943,-1.733234,0.133326,0.007439,-0.036431,-0.037576
8.988430,0.037194,-2.562943,-1.733234,0.133326,0.007439,-0.036431,-0.037576
8.998525,0.037194,-2.562943,-1.733234,0.133326,0.007439,-0.036431,-0.037576
9.008617,0.037194,-2.562943,-1.733234,0.133326,0.007439,-0.036431,-0.037576
9.018729,0.037194,-2.562943,-1.733234,0.133326,0.007439,-0.036431,-0.037576
9.028815,0.037194,-2.562943,-1.733234,0.133326,0.007439,-0.036431,-0.037576
9.038895,0.037194,-2.562943,-1.733234,0.133326,0.007439,-0.036431,-0.037576
9.048976,0.037194,-2.562562,-1.733234,0.133326,0.007439,-0.036431,-0.037576
9.059042,0.037194,-2.562181,-1.733234,0.133326,0.007439,-0.036431,-0.037576
9.069114,0.037576,-2.562181,-1.733234,0.133326,0.007439,-0.036431,-0.037576
9.079188,0.037576,-2.562181,-1.733234,0.133326,0.007439,-0.036431,-0.037576
9.089256,0.037576,-2.562181,-1.733234,0.133326,0.007439,-0.036431,-0.037576
9.099325,0.037576,-2.562181,-1.733234,0.133326,0.007439,-0.036431,-0.037576
9.109435,0.037576,-2.562181,-1.733616,0.133326,0.007439,-0.036431,-0.037576
9.119502,0.037576,-2.561799,-1.733997,0.133326,0.007439,-0.036431,-0.037576
9.129580,0.037576,-2.561036,-1.734379,0.133326,0.007439,-0.036431,-0.037576
9.139690,0.037576,-2.561036,-1.734379,0.133326,0.007439,-0.036431,-0.037576
9.149756,0.037576,-2.560273,-1.734379,0.133326,0.007439,-0.036431,-0.037576
9.159926,0.037576,-2.559510,-1.734379,0.133326,0.007439,-0.036431,-0.037576
9.169997,0.037576,-2.558747,-1.733997,0.133326,0.007439,-0.036431,-0.037576
9.180113,0.037576,-2.557984,-1.733997,0.133326,0.007439,-0.036431,-0.037576
9.190224,0.037576,-2.557603,-1.733997,0.133326,0.007439,-0.036431,-0.037576
9.200313,0.037576,-2.557603,-1.733997,0.133326,0.007439,-0.036431,-0.037576
9.210428,0.037576,-2.557603,-1.733997,0.133326,0.007439,-0.036431,-0.037576
9.220543,0.037576,-2.557603,-1.733997,0.133326,0.007439,-0.036431,-0.037576
9.230628,0.037576,-2.557221,-1.733997,0.133326,0.007439,-0.036431,-0.037576
9.240750,0.037576,-2.556840,-1.733997,0.133326,0.007439,-0.036431,-0.037576
9.250818,0.037576,-2.556077,-1.733997,0.133326,0.007439,-0.036431,-0.037576
9.260881,0.037576,-2.555696,-1.733997,0.133326,0.007439,-0.036431,-0.037576
9.270947,0.037576,-2.555696,-1.733997,0.133326,0.007439,-0.036431,-0.037576
9.281042,0.037576,-2.555696,-1.733997,0.133326,0.007439,-0.036431,-0.037576
9.291109,0.037576,-2.555314,-1.733997,0.133326,0.007439,-0.036431,-0.037576
9.301176,0.037576,-2.554933,-1.733997,0.133326,0.007439,-0.036431,-0.037576
9.311241,0.037576,-2.553407,-1.734379,0.133326,0.007439,-0.036431,-0.037576
9.321320,0.037576,-2.552262,-1.734379,0.133326,0.007439,-0.036431,-0.037576
9.331407,0.037576,-2.550736,-1.733997,0.133326,0.007439,-0.036431,-0.037576
9.341541,0.037576,-2.549973,-1.733997,0.133707,0.007439,-0.036431,-0.037576
9.351608,0.037576,-2.548829,-1.733997,0.134470,0.007439,-0.036813,-0.037576
9.361695,0.037576,-2.547685,-1.734379,0.135233,0.007439,-0.036813,-0.037576
9.371761,0.037576,-2.545014,-1.734379,0.135996,0.007439,-0.036813,-0.037576
9.381831,0.037576,-2.543489,-1.734379,0.135996,0.007439,-0.036813,-0.037576
9.391907,0.037576,-2.540437,-1.733997,0.135996,0.007439,-0.036813,-0.037576
9.401975,0.037576,-2.538529,-1.733997,0.135996,0.007439,-0.036813,-0.037576
9.412055,0.037576,-2.535478,-1.733997,0.135996,0.007439,-0.036813,-0.037576
9.422137,0.037576,-2.534333,-1.733997,0.135996,0.007439,-0.036813,-0.037576
9.432204,0.037576,-2.530899,-1.733997,0.135996,0.007439,-0.036813,-0.037576
9.442313,0.037576,-2.529373,-1.733997,0.136377,0.007439,-0.036813,-0.037576
9.452382,0.037576,-2.526703,-1.733997,0.136377,0.007439,-0.036813,-0.037576
9.462451,0.037576,-2.525558,-1.733997,0.136377,0.007439,-0.036813,-0.037576
9.472524,0.037576,-2.523270,-1.733997,0.136377,0.007439,-0.036813,-0.037576
9.482675,0.037576,-2.522125,-1.733997,0.136377,0.007439,-0.036813,-0.037576
9.492755,0.037576,-2.519836,-1.733997,0.135996,0.007439,-0.036813,-0.037576
9.502825,0.037576,-2.518692,-1.733997,0.135996,0.007439,-0.036813,-0.037576
9.512939,0.037576,-2.516022,-1.733997,0.135996,0.007439,-0.036813,-0.037576
9.523052,0.037576,-2.515259,-1.733997,0.135996,0.007439,-0.036813,-0.037576
9.533163,0.037576,-2.512970,-1.733997,0.135614,0.007439,-0.036813,-0.037576
9.543274,0.037576,-2.511444,-1.733997,0.135614,0.007439,-0.036813,-0.037576
9.553383,0.037576,-2.509537,-1.733997,0.135614,0.007439,-0.036813,-0.037576
9.563469,0.037576,-2.508392,-1.733997,0.135614,0.007439,-0.036813,-0.037576
9.573585,0.037576,-2.505341,-1.733997,0.135614,0.007439,-0.036813,-0.037576
9.583696,0.037576,-2.503815,-1.733997,0.135614,0.007439,-0.036813,-0.037576
9.593777,0.037576,-2.501144,-1.733997,0.135614,0.007439,-0.036813,-0.037576
9.604280,0.037576,-2.499237,-1.733997,0.135614,0.007439,-0.036813,-0.037576
9.614358,0.037576,-2.495422,-1.733997,0.135614,0.007439,-0.036813,-0.037576
9.624433,0.037576,-2.493515,-1.733997,0.135996,0.007439,-0.036813,-0.037576
9.634498,0.037576,-2.490082,-1.733997,0.136377,0.007439,-0.036813,-0.037576
9.644534,0.037576,-2.488556,-1.733997,0.136377,0.007439,-0.036813,-0.037576
9.654599,0.037576,-2.484741,-1.733616,0.136759,0.007439,-0.036813,-0.037957
9.664670,0.037576,-2.483215,-1.733616,0.137522,0.007439,-0.036813,-0.037957
9.674743,0.037576,-2.479782,-1.733616,0.137903,0.007439,-0.036813,-0.037957
9.684830,0.037576,-2.478256,-1.733616,0.137903,0.007439,-0.036813,-0.037957
9.694916,0.037576,-2.475204,-1.733616,0.137903,0.007439,-0.036813,-0.037957
9.705027,0.037576,-2.473679,-1.733234,0.137903,0.007439,-0.036813,-0.037957
9.715144,0.037576,-2.470245,-1.732853,0.137903,0.007439,-0.036813,-0.037957
9.725255,0.037576,-2.468719,-1.732853,0.137903,0.007439,-0.036813,-0.037957
9.735373,0.037576,-2.465667,-1.732853,0.137903,0.007439,-0.036813,-0.037957
9.745484,0.037576,-2.464522,-1.732853,0.137903,0.007439,-0.036813,-0.038339
9.755574,0.037576,-2.461471,-1.732853,0.137903,0.007439,-0.036813,-0.038720
9.765692,0.037576,-2.459945,-1.732853,0.137903,0.007439,-0.036813,-0.038720
9.775807,0.037576,-2.456893,-1.732853,0.137903,0.007439,-0.036431,-0.038720
9.785920,0.037576,-2.455367,-1.732853,0.137903,0.007439,-0.036431,-0.038720
9.796037,0.037576,-2.452315,-1.732853,0.137903,0.007439,-0.036431,-0.038720
9.806153,0.037576,-2.450408,-1.732853,0.137903,0.007439,-0.036431,-0.038720
9.816272,0.037576,-2.447738,-1.732853,0.137903,0.007439,-0.036431,-0.038720
9.826389,0.037576,-2.445830,-1.732853,0.137903,0.007439,-0.036431,-0.038720
9.836504,0.037576,-2.443160,-1.732853,0.137903,0.007439,-0.036431,-0.038720
9.846586,0.037576,-2.441634,-1.732853,0.137903,0.007439,-0.036431,-0.038720
9.856706,0.037576,-2.438201,-1.732853,0.137903,0.007439,-0.036431,-0.038720
9.866819,0.037576,-2.437057,-1.732853,0.137903,0.007439,-0.036431,-0.038720
9.876933,0.037576,-2.434005,-1.732853,0.137903,0.007439,-0.036431,-0.038720
9.887048,0.037576,-2.432479,-1.732853,0.137903,0.007439,-0.036431,-0.038720
9.897160,0.037576,-2.430190,-1.732853,0.137903,0.007057,-0.036431,-0.038720
9.907271,0.037576,-2.429046,-1.732853,0.137903,0.007057,-0.036431,-0.038720
9.917383,0.039102,-2.425994,-1.732853,0.137903,0.007057,-0.036431,-0.038720
9.927495,0.039483,-2.424850,-1.732853,0.137903,0.007057,-0.036431,-0.038720
9.937525,0.040627,-2.422561,-1.733234,0.137903,0.007439,-0.036431,-0.038720
9.947592,0.041390,-2.421035,-1.733234,0.137903,0.007439,-0.036431,-0.038720
9.957662,0.042153,-2.417983,-1.733234,0.137903,0.007439,-0.036431,-0.038720
9.967746,0.042153,-2.416839,-1.733234,0.137903,0.007439,-0.036431,-0.038720
9.977816,0.042153,-2.413787,-1.733234,0.137903,0.007439,-0.036431,-0.038720
9.987914,0.042153,-2.412261,-1.733234,0.137522,0.007439,-0.036431,-0.038720
9.997982,0.042153,-2.409972,-1.733234,0.136759,0.007439,-0.036431,-0.038720
10.008065,0.042153,-2.408446,-1.733234,0.136377,0.007439,-0.036431,-0.038720
10.018137,0.042535,-2.405394,-1.733234,0.135614,0.007057,-0.036431,-0.038720
10.028209,0.043298,-2.404249,-1.733234,0.135614,0.007057,-0.036431,-0.038720
10.038279,0.044061,-2.401197,-1.733234,0.135233,0.007057,-0.036431,-0.038720
10.048374,0.044442,-2.399672,-1.733234,0.135233,0.007057,-0.036431,-0.038720
10.058448,0.045205,-2.397383,-1.733234,0.135233,0.007057,-0.036431,-0.038720
10.068523,0.045587,-2.395475,-1.733234,0.135233,0.007057,-0.036431,-0.038339
10.078584,0.046350,-2.392424,-1.733234,0.135233,0.007057,-0.036431,-0.038339
10.088647,0.046731,-2.390898,-1.733234,0.135233,0.007057,-0.036431,-0.038339
10.098709,0.047875,-2.388227,-1.733234,0.135233,0.007439,-0.036431,-0.038339
10.108782,0.048257,-2.386702,-1.733234,0.135233,0.007439,-0.036431,-0.037576
10.118849,0.048638,-2.384413,-1.733234,0.135233,0.007439,-0.036431,-0.037194
10.128920,0.048638,-2.382887,-1.733234,0.135233,0.007439,-0.036431,-0.036050
10.138988,0.048638,-2.380598,-1.733234,0.135233,0.007439,-0.036431,-0.035668
10.149059,0.048638,-2.379454,-1.733234,0.135233,0.007439,-0.036431,-0.034142
10.159126,0.048638,-2.377165,-1.733234,0.135233,0.007439,-0.036431,-0.032617
10.169200,0.048638,-2.376020,-1.733234,0.135233,0.007439,-0.036431,-0.030327
10.179263,0.048638,-2.373350,-1.733234,0.135233,0.007439,-0.036431,-0.029182
10.189327,0.048638,-2.371824,-1.733234,0.135233,0.007439,-0.036431,-0.026131
10.199392,0.048638,-2.369154,-1.733234,0.135233,0.007439,-0.036431,-0.024605
10.209455,0.048638,-2.368010,-1.733234,0.135233,0.007439,-0.036431,-0.021172
10.219521,0.048638,-2.365339,-1.733234,0.135233,0.007439,-0.036431,-0.019264
10.229589,0.048638,-2.364195,-1.733234,0.135233,0.007439,-0.036431,-0.015831
10.239655,0.048638,-2.360762,-1.733234,0.135233,0.007439,-0.036431,-0.013924
10.249727,0.048638,-2.359236,-1.733234,0.135233,0.007439,-0.036431,-0.009727
10.259793,0.048638,-2.356565,-1.733234,0.135233,0.007439,-0.036431,-0.007820
10.269860,0.048638,-2.354658,-1.733234,0.135233,0.007439,-0.036431,-0.003624
10.279929,0.048638,-2.351988,-1.733234,0.135233,0.007439,-0.036431,-0.001717
10.289997,0.048638,-2.350080,-1.733234,0.135233,0.007439,-0.036431,0.001717
10.300062,0.048638,-2.347029,-1.733234,0.135233,0.007439,-0.036431,0.002480
10.310132,0.048638,-2.345503,-1.733234,0.135233,0.007439,-0.036431,0.002480
10.320214,0.048638,-2.342069,-1.733234,0.135233,0.007439,-0.036431,0.002480
10.330314,0.048638,-2.340543,-1.733234,0.135233,0.007439,-0.036431,0.002480
10.340426,0.048638,-2.337110,-1.733234,0.135233,0.007439,-0.036431,0.002480
10.350541,0.048638,-2.335584,-1.733234,0.134851,0.007439,-0.036431,0.002480
10.360652,0.048638,-2.332532,-1.733234,0.134851,0.007439,-0.036431,0.002480
10.370763,0.048638,-2.331006,-1.733234,0.134851,0.007439,-0.036431,0.002480
10.380876,0.048638,-2.327573,-1.733234,0.134851,0.007439,-0.036431,0.002480
10.390985,0.048638,-2.325665,-1.733234,0.134851,0.007439,-0.036431,0.002480
10.401055,0.048638,-2.322232,-1.733234,0.134851,0.007439,-0.036431,0.002480
10.411163,0.049020,-2.320325,-1.733234,0.134851,0.007439,-0.036431,0.002480
10.421277,0.049783,-2.316892,-1.733234,0.134851,0.007439,-0.036431,0.002480
10.431391,0.050164,-2.314984,-1.733234,0.134851,0.007439,-0.036431,0.002480
10.441501,0.050546,-2.311551,-1.733234,0.134851,0.007439,-0.036431,0.002480
10.451613,0.050546,-2.309644,-1.733234,0.134851,0.007439,-0.036431,0.002480
10.461726,0.050546,-2.305829,-1.733234,0.134851,0.007439,-0.036431,0.002480
10.471838,0.050546,-2.303922,-1.733234,0.134851,0.007057,-0.036431,0.002480
10.481952,0.050546,-2.299726,-1.733234,0.135233,0.007057,-0.036431,0.002480
10.492062,0.050546,-2.297818,-1.733234,0.135233,0.007057,-0.036431,0.002480
10.502174,0.050546,-2.293622,-1.733234,0.135233,0.007057,-0.036431,0.002480
10.512285,0.050546,-2.291333,-1.733234,0.135233,0.007057,-0.036431,0.002480
10.522395,0.050546,-2.286756,-1.733234,0.135233,0.007057,-0.036431,0.002480
10.532535,0.050546,-2.284467,-1.733234,0.135233,0.007057,-0.036431,0.002480
10.542646,0.050546,-2.279507,-1.733234,0.135233,0.007057,-0.036431,0.002480
10.552760,0.050546,-2.276836,-1.733234,0.135233,0.007057,-0.036431,0.002480
10.562846,0.050546,-2.271496,-1.733234,0.135233,0.007057,-0.036431,0.002480
10.572958,0.050546,-2.268826,-1.733234,0.135233,0.007057,-0.036431,0.002480
10.583033,0.050546,-2.263485,-1.733234,0.135233,0.007057,-0.036431,0.002480
10.593141,0.050546,-2.260433,-1.733234,0.135233,0.007057,-0.036431,0.002480
10.603209,0.050546,-2.257763,-1.733234,0.135233,0.007057,-0.036431,0.002480
10.613317,0.050546,-2.252041,-1.733234,0.135233,0.007057,-0.036431,0.002480
10.623429,0.050546,-2.248989,-1.733234,0.135233,0.007057,-0.036431,0.002480
10.633551,0.050927,-2.242886,-1.733234,0.135233,0.007057,-0.036431,0.002480
10.643640,0.051309,-2.239834,-1.733234,0.135233,0.007057,-0.036431,0.002480
10.653715,0.052072,-2.233730,-1.733234,0.135233,0.007439,-0.036431,0.002480
10.663803,0.052453,-2.230679,-1.733234,0.135233,0.007439,-0.036431,0.002480
10.673874,0.053216,-2.223812,-1.733234,0.135233,0.007439,-0.036431,0.002480
10.683943,0.053597,-2.220760,-1.733234,0.135233,0.007439,-0.036431,0.002480
10.694010,0.054360,-2.213893,-1.733234,0.135233,0.007439,-0.036431,0.002480
10.704089,0.054360,-2.210460,-1.733234,0.135233,0.007439,-0.036431,0.002480
10.714157,0.054360,-2.203212,-1.733234,0.135233,0.007439,-0.036431,0.002480
10.724240,0.054360,-2.199779,-1.733234,0.135233,0.007439,-0.036431,0.002480
10.734309,0.054360,-2.192531,-1.733234,0.135233,0.007439,-0.036431,0.002480
10.744391,0.054360,-2.188334,-1.733234,0.135233,0.007439,-0.036431,0.002480
10.754461,0.054360,-2.180705,-1.733234,0.135233,0.007439,-0.036431,0.002480
10.764548,0.054360,-2.176890,-1.732853,0.135233,0.007439,-0.036431,0.002480
10.774621,0.054360,-2.168880,-1.732853,0.135233,0.007439,-0.036431,0.002480
10.784687,0.054360,-2.165065,-1.732853,0.135233,0.007439,-0.036431,0.002480
10.794758,0.054360,-2.157054,-1.732853,0.135233,0.007057,-0.036431,0.002480
10.804867,0.054360,-2.152857,-1.732853,0.135233,0.007057,-0.036431,0.002480
10.814940,0.054360,-2.144846,-1.732853,0.135233,0.007057,-0.036431,0.002480
10.825020,0.054360,-2.141031,-1.732853,0.135233,0.007057,-0.036431,0.002480
10.835083,0.054360,-2.132639,-1.732853,0.135233,0.007057,-0.036431,0.002480
10.845160,0.054360,-2.128824,-1.732853,0.135233,0.007057,-0.036431,0.002480
10.855233,0.054360,-2.120432,-1.732853,0.135233,0.007057,-0.036431,0.002480
10.865347,0.054360,-2.116236,-1.732853,0.135233,0.007057,-0.036431,0.002480
10.875459,0.054360,-2.107843,-1.732471,0.135233,0.007057,-0.036431,0.002480
10.885571,0.054360,-2.103647,-1.731709,0.135233,0.007057,-0.036431,0.002480
10.895722,0.054360,-2.094492,-1.730564,0.135233,0.007057,-0.036431,0.002480
10.905835,0.054360,-2.089913,-1.729420,0.134851,0.007057,-0.036431,0.002480
10.915948,0.054360,-2.080377,-1.727131,0.134470,0.007057,-0.036431,0.002480
10.926060,0.054360,-2.075418,-1.726368,0.134089,0.007057,-0.036431,0.002480
10.936171,0.054360,-2.065881,-1.722935,0.132944,0.007057,-0.036431,0.002480
10.946290,0.054360,-2.060922,-1.720646,0.132181,0.007057,-0.036431,0.002480
10.956403,0.054360,-2.050241,-1.716067,0.130655,0.007057,-0.036431,0.002480
10.966533,0.054360,-2.044518,-1.713397,0.129892,0.007057,-0.036431,0.002480
10.976643,0.054360,-2.033074,-1.707294,0.128366,0.007057,-0.036431,0.002480
10.986757,0.054360,-2.027351,-1.703860,0.127604,0.007057,-0.036431,0.002480
10.996876,0.054360,-2.015526,-1.697375,0.125315,0.007057,-0.036431,0.002480
11.006988,0.054360,-2.009422,-1.693561,0.124170,0.007057,-0.036431,0.002480
11.017078,0.054360,-1.997215,-1.685168,0.121881,0.007057,-0.036813,0.002480
11.027188,0.054360,-1.990730,-1.680972,0.121119,0.007057,-0.036813,0.002480
11.037314,0.054360,-1.977760,-1.671817,0.118448,0.007057,-0.036813,0.002480
11.047431,0.054360,-1.971275,-1.666858,0.116922,0.007057,-0.036813,0.002480
11.057545,0.054360,-1.957541,-1.656558,0.114634,0.007057,-0.036813,0.002480
11.067614,0.054360,-1.950294,-1.650835,0.113489,0.007057,-0.036813,0.002480
11.077725,0.054360,-1.936561,-1.639772,0.110056,0.007057,-0.036813,0.002480
11.087802,0.054360,-1.929313,-1.633669,0.108530,0.007057,-0.036813,0.002480
11.097919,0.054360,-1.914435,-1.620699,0.106241,0.007057,-0.036813,0.002480
11.107985,0.054360,-1.907187,-1.613832,0.104334,0.007057,-0.036813,0.002480
11.118054,0.054360,-1.892309,-1.600100,0.101664,0.007057,-0.036813,0.002480
11.128124,0.054360,-1.884298,-1.592851,0.100138,0.007057,-0.036813,0.002480
11.138194,0.054360,-1.868658,-1.578355,0.096704,0.007057,-0.036813,0.002480
11.148263,0.054360,-1.861029,-1.570725,0.095179,0.007057,-0.036813,0.002480
11.158334,0.054360,-1.845007,-1.555085,0.092126,0.007057,-0.036813,0.002480
11.168403,0.054360,-1.836995,-1.547456,0.090219,0.007057,-0.036813,0.002480
11.178473,0.054360,-1.820592,-1.531052,0.087548,0.007057,-0.036813,0.002480
11.188551,0.054360,-1.812200,-1.523041,0.086022,0.007057,-0.036813,0.002480
11.198620,0.054360,-1.795033,-1.506638,0.082589,0.007057,-0.036813,0.002480
11.208693,0.054360,-1.786641,-1.498627,0.081445,0.007057,-0.036813,0.002480
11.218759,0.054360,-1.769093,-1.481842,0.078393,0.007057,-0.036813,0.002480
11.228828,0.054360,-1.760319,-1.473450,0.076867,0.007057,-0.036813,0.002480
11.238893,0.054360,-1.742771,-1.457046,0.074960,0.006676,-0.036813,0.002480
11.248967,0.054360,-1.733616,-1.448653,0.073815,0.006676,-0.036813,0.002480
11.259034,0.054360,-1.715304,-1.432631,0.071145,0.006676,-0.036431,0.002480
11.269104,0.054360,-1.706149,-1.424621,0.070001,0.006676,-0.036431,0.002480
11.279188,0.054360,-1.688220,-1.408599,0.068093,0.006676,-0.036431,0.002480
11.289261,0.053979,-1.679065,-1.400969,0.066949,0.006676,-0.036431,0.002480
11.299331,0.053979,-1.661136,-1.385328,0.064660,0.006676,-0.036431,0.002480
11.309407,0.053979,-1.651979,-1.377699,0.063516,0.006676,-0.036431,0.002480
11.319477,0.053979,-1.634050,-1.363203,0.062753,0.006676,-0.036431,0.002480
11.329549,0.053979,-1.624132,-1.355192,0.061990,0.006676,-0.036431,0.002480
11.339616,0.053979,-1.606585,-1.341840,0.060464,0.006676,-0.036431,0.002480
11.349695,0.053979,-1.598192,-1.335355,0.060082,0.006676,-0.036431,0.002480
11.359764,0.053979,-1.580644,-1.322766,0.058557,0.006676,-0.036431,0.002480
11.369837,0.053979,-1.571870,-1.316281,0.058175,0.006676,-0.036431,0.002480
11.379915,0.053979,-1.555085,-1.304837,0.058175,0.007057,-0.036431,0.002480
11.389991,0.053979,-1.546693,-1.299115,0.058175,0.007057,-0.036431,0.002480
11.400054,0.053979,-1.530670,-1.288434,0.058175,0.007439,-0.036431,0.002480
11.410127,0.053979,-1.523041,-1.283856,0.058175,0.007439,-0.036431,0.002480
11.420194,0.053979,-1.508163,-1.274700,0.058175,0.007439,-0.036431,0.002480
11.430267,0.053979,-1.500916,-1.270504,0.058557,0.007439,-0.036431,0.002480
11.440335,0.053979,-1.486420,-1.262493,0.058557,0.007439,-0.036431,0.002480
11.450410,0.053979,-1.479553,-1.258678,0.058938,0.007439,-0.036431,0.002480
11.460477,0.053979,-1.466201,-1.251812,0.059319,0.007439,-0.036431,0.002480
11.470525,0.053979,-1.459716,-1.248379,0.059319,0.007439,-0.036431,0.002480
11.480638,0.053979,-1.447127,-1.241894,0.059701,0.007439,-0.036431,0.002480
11.490756,0.053979,-1.440642,-1.238461,0.060082,0.007057,-0.036431,0.002480
11.500870,0.053979,-1.428435,-1.232357,0.060845,0.007057,-0.036431,0.002480
11.510981,0.053979,-1.422332,-1.229305,0.061227,0.007439,-0.036431,0.002480
11.521056,0.053979,-1.410125,-1.223965,0.061227,0.007439,-0.036431,0.002480
11.531120,0.053979,-1.404783,-1.221676,0.061608,0.007439,-0.036431,0.002480
11.541182,0.053979,-1.393721,-1.216716,0.061990,0.007439,-0.036431,0.002480
11.551232,0.053597,-1.388380,-1.214808,0.063516,0.007439,-0.036431,0.002480
11.561291,0.052835,-1.377699,-1.210612,0.064279,0.007439,-0.036431,0.002480
11.571353,0.051690,-1.372358,-1.208705,0.064660,0.007820,-0.036431,0.002480
11.581420,0.049401,-1.361677,-1.204890,0.065042,0.007820,-0.036431,0.002480
11.591531,0.048257,-1.356337,-1.203364,0.066186,0.007820,-0.036431,0.002480
11.601620,0.045968,-1.345655,-1.201457,0.066567,0.007439,-0.036431,0.002480
11.611731,0.044824,-1.340314,-1.197261,0.068093,0.007439,-0.036431,0.002480
11.621845,0.042916,-1.329251,-1.195354,0.068856,0.007439,-0.036813,0.002480
11.631955,0.042153,-1.323911,-1.191539,0.070764,0.007439,-0.036813,0.002480
11.642067,0.041009,-1.313230,-1.187724,0.071527,0.007439,-0.036813,0.002480
11.652180,0.040627,-1.307889,-1.185435,0.072671,0.007439,-0.036813,0.002480
11.662272,0.040627,-1.296445,-1.182765,0.073434,0.007439,-0.036813,0.002480
11.672339,0.040627,-1.290723,-1.177806,0.075341,0.007439,-0.036813,0.002480
11.682410,0.040627,-1.279278,-1.175136,0.076486,0.007439,-0.036813,0.002480
11.692481,0.040627,-1.273556,-1.169414,0.078012,0.007439,-0.036813,0.002480
11.702524,0.040627,-1.261730,-1.166743,0.078393,0.007439,-0.036813,0.002480
11.712583,0.040627,-1.255627,-1.160258,0.079537,0.007439,-0.036813,0.002480
11.722695,0.040627,-1.243420,-1.156444,0.080300,0.007439,-0.036813,0.002480
11.732768,0.040627,-1.237316,-1.148432,0.081826,0.007439,-0.036813,0.002480
11.742832,0.040627,-1.223965,-1.144236,0.082589,0.007439,-0.036431,0.002480
11.752903,0.040627,-1.217097,-1.135462,0.083734,0.007439,-0.036431,0.002480
11.763021,0.040627,-1.202983,-1.130884,0.083734,0.007439,-0.036431,0.002480
11.773135,0.040627,-1.195735,-1.120966,0.083734,0.007439,-0.036431,0.002480
11.783200,0.040627,-1.180858,-1.115625,0.083734,0.007439,-0.036431,0.002480
11.793308,0.040627,-1.173610,-1.103800,0.083734,0.007439,-0.036431,0.002480
11.803421,0.040627,-1.157969,-1.097696,0.083734,0.007439,-0.036431,0.002480
11.813556,0.040627,-1.149958,-1.085488,0.083352,0.007439,-0.036431,0.002480
11.823667,0.040627,-1.141947,-1.079003,0.082971,0.007439,-0.036431,0.002480
11.833746,0.040627,-1.125925,-1.065652,0.082589,0.007439,-0.036431,0.002480
11.843812,0.040627,-1.117533,-1.059167,0.082589,0.007439,-0.036431,0.002480
11.853875,0.040627,-1.100748,-1.045815,0.082208,0.007439,-0.036431,0.002480
11.863986,0.040627,-1.083581,-1.039330,0.081826,0.007439,-0.036431,0.002480
11.874055,0.040627,-1.075570,-1.025215,0.081445,0.007439,-0.036431,0.002480
11.884120,0.040627,-1.058022,-1.017967,0.081063,0.007057,-0.036431,0.002480
11.894230,0.041009,-1.049630,-1.003471,0.080682,0.007057,-0.036431,0.002480
11.904342,0.041009,-1.032083,-0.988594,0.079537,0.007057,-0.036431,0.002480
11.914434,0.041009,-1.022926,-0.980965,0.078774,0.007057,-0.036431,0.002480
11.924495,0.041009,-1.004997,-0.964942,0.077630,0.007057,-0.036431,0.002480
11.934564,0.041009,-0.995842,-0.956931,0.077249,0.007057,-0.036431,0.002480
11.944627,0.041009,-0.977531,-0.940909,0.076104,0.007057,-0.036431,0.002480
11.954696,0.041009,-0.968758,-0.933280,0.075723,0.007057,-0.036431,0.002480
11.964768,0.041009,-0.950065,-0.917640,0.074197,0.007057,-0.036431,0.002480
11.974834,0.041009,-0.940909,-0.910010,0.073815,0.007057,-0.036431,0.002480
11.984900,0.041009,-0.922599,-0.894751,0.071908,0.007057,-0.036050,0.002480
11.994965,0.041009,-0.913444,-0.886740,0.071145,0.007057,-0.036050,0.002480
12.005030,0.041009,-0.895132,-0.870718,0.070001,0.007057,-0.035668,0.002480
12.015134,0.041009,-0.885977,-0.862707,0.069619,0.007057,-0.034524,0.002480
12.025197,0.041009,-0.867666,-0.847830,0.068475,0.007057,-0.034142,0.002480
12.035267,0.041009,-0.858892,-0.840581,0.067712,0.007057,-0.032617,0.002480
12.045344,0.041009,-0.841725,-0.826848,0.066567,0.007057,-0.031090,0.002480
12.055429,0.041009,-0.832952,-0.819982,0.065423,0.007057,-0.030327,0.002480
12.065497,0.041009,-0.816548,-0.806249,0.064660,0.007057,-0.029564,0.002480
12.075523,0.041009,-0.808156,-0.799764,0.064660,0.007057,-0.029182,0.002480
12.085694,0.041009,-0.792134,-0.786412,0.063897,0.007057,-0.029182,0.002480
12.095805,0.041009,-0.784505,-0.780308,0.063516,0.007057,-0.029182,0.002480
12.105915,0.041009,-0.769627,-0.768864,0.063134,0.007057,-0.029182,0.002480
12.116023,0.041009,-0.762379,-0.763142,0.063134,0.007057,-0.029182,0.002480
12.126459,0.041009,-0.748646,-0.752842,0.063134,0.007439,-0.029182,0.002480
12.136570,0.041009,-0.742542,-0.748264,0.063134,0.007439,-0.029182,0.002480
12.146681,0.041009,-0.730335,-0.739491,0.063134,0.007439,-0.029182,0.002480
12.156792,0.040627,-0.724613,-0.735294,0.063516,0.007439,-0.029182,0.002480
12.166878,0.040627,-0.713931,-0.728046,0.063516,0.007439,-0.029182,0.002480
12.176988,0.040627,-0.708972,-0.724613,0.063516,0.007439,-0.029182,0.002480
12.187100,0.040627,-0.699817,-0.718509,0.063897,0.007439,-0.029182,0.002480
12.197182,0.040627,-0.695621,-0.715457,0.063897,0.007439,-0.029182,0.002480
12.207253,0.040627,-0.687610,-0.710116,0.064279,0.007439,-0.029182,0.002480
12.217321,0.040627,-0.684176,-0.707828,0.064279,0.007439,-0.029182,0.002480
12.227400,0.040627,-0.677310,-0.703250,0.064660,0.007439,-0.029945,0.002480
12.237474,0.040627,-0.674258,-0.700961,0.065042,0.007439,-0.029945,0.002480
12.247553,0.040627,-0.668536,-0.697146,0.065042,0.007439,-0.029945,0.002480
12.257906,0.040627,-0.665866,-0.695239,0.065042,0.007439,-0.029945,0.002480
12.268081,0.040627,-0.661288,-0.691806,0.065042,0.007439,-0.029945,0.002480
12.278194,0.040627,-0.658999,-0.690280,0.065042,0.007439,-0.029945,0.002480
12.288307,0.040627,-0.655184,-0.686847,0.065042,0.007439,-0.029945,0.002480
12.298379,0.040627,-0.653276,-0.685702,0.065042,0.007439,-0.029945,0.002480
12.308453,0.040627,-0.649843,-0.682651,0.065042,0.007439,-0.029945,0.002480
12.318525,0.040627,-0.648317,-0.681506,0.065042,0.007439,-0.029945,0.002480
12.328596,0.040627,-0.645266,-0.678836,0.065042,0.007439,-0.029945,0.002480
12.338664,0.040627,-0.643740,-0.677691,0.065042,0.007820,-0.029945,0.002480
12.348762,0.040627,-0.641069,-0.675403,0.065042,0.008202,-0.029945,0.002480
12.358876,0.040627,-0.639544,-0.674258,0.065423,0.008583,-0.029945,0.002480
12.368985,0.040627,-0.637255,-0.671969,0.065423,0.009346,-0.029945,0.002480
12.379096,0.040627,-0.636492,-0.671206,0.065804,0.009727,-0.029945,0.002480
12.389217,0.040627,-0.634203,-0.668918,0.065804,0.010490,-0.029945,0.002480
12.399327,0.040627,-0.633059,-0.667773,0.065804,0.010872,-0.029945,0.002480
12.409666,0.040627,-0.631533,-0.666629,0.065804,0.011253,-0.029945,0.002480
12.419775,0.040627,-0.630388,-0.665866,0.066186,0.011253,-0.029945,0.002480
12.429884,0.040627,-0.629625,-0.664721,0.066186,0.011635,-0.029945,0.002480
12.439991,0.040627,-0.627718,-0.664340,0.066567,0.011635,-0.029945,0.002480
12.450085,0.040627,-0.626955,-0.662814,0.067330,0.012016,-0.029945,0.002480
12.460192,0.040627,-0.626192,-0.662433,0.067712,0.012398,-0.029945,0.002480
12.470263,0.040627,-0.625811,-0.662051,0.068093,0.013924,-0.029945,0.002480
12.480341,0.040627,-0.625429,-0.662051,0.068856,0.014687,-0.029945,0.002480
12.490456,0.040627,-0.625429,-0.662433,0.070001,0.015831,-0.029945,0.002480
12.500542,0.040627,-0.625429,-0.662433,0.070382,0.016594,-0.029945,0.002480
12.510659,0.040627,-0.625429,-0.662433,0.070764,0.016975,-0.029945,0.002480
12.520741,0.040627,-0.625429,-0.662433,0.070764,0.017357,-0.029945,0.002480
12.530806,0.040627,-0.625429,-0.662433,0.070764,0.017357,-0.029945,0.002480
12.540876,0.040627,-0.625429,-0.662433,0.070764,0.017357,-0.029945,0.002480
12.550967,0.040627,-0.625429,-0.662433,0.070764,0.017357,-0.029945,0.002480
12.561049,0.039865,-0.625429,-0.662433,0.070764,0.017357,-0.029945,0.002480
12.571134,0.039483,-0.625429,-0.662433,0.070764,0.017738,-0.029945,0.002480
12.581207,0.037957,-0.625811,-0.662433,0.070764,0.017357,-0.029945,0.002480
12.591292,0.037576,-0.625811,-0.662433,0.070764,0.017357,-0.029945,0.002480
12.601369,0.036050,-0.625811,-0.662433,0.070764,0.017357,-0.029945,0.002480
12.611452,0.035668,-0.625811,-0.662433,0.070382,0.017357,-0.029945,0.002480
12.621524,0.034524,-0.625811,-0.662433,0.070382,0.017357,-0.029945,0.002480
12.631599,0.033761,-0.625811,-0.662814,0.070382,0.017357,-0.029945,0.002480
12.641664,0.031472,-0.625811,-0.662814,0.070382,0.017738,-0.029945,0.002480
12.651741,0.029945,-0.625811,-0.663196,0.070382,0.017738,-0.029945,0.002480
12.661810,0.026131,-0.625811,-0.663577,0.070382,0.017738,-0.029945,0.002480
12.671877,0.024223,-0.625811,-0.664721,0.070382,0.017738,-0.029945,0.002480
12.681944,0.018883,-0.625811,-0.664721,0.070382,0.017738,-0.029945,0.002480
12.692017,0.016212,-0.625811,-0.666629,0.070382,0.017738,-0.029945,0.002480
12.702103,0.010490,-0.625811,-0.667392,0.070764,0.017738,-0.029945,0.002480
12.712192,0.007439,-0.625811,-0.668918,0.070764,0.017738,-0.029945,0.002480
12.722260,0.004387,-0.625811,-0.669299,0.070764,0.017738,-0.029945,0.002480
12.732325,-0.002098,-0.625811,-0.669299,0.070764,0.017738,-0.029945,0.002480
12.742387,-0.005531,-0.625811,-0.670062,0.070764,0.018120,-0.029945,0.002480
12.752457,-0.012398,-0.625811,-0.670062,0.070764,0.018501,-0.029945,0.002480
12.762532,-0.016212,-0.625811,-0.670062,0.070764,0.018883,-0.029945,0.002480
12.772645,-0.024223,-0.625811,-0.670062,0.070764,0.020790,-0.029945,0.002480
12.782752,-0.028038,-0.625811,-0.670062,0.070764,0.021935,-0.029945,0.002480
12.792864,-0.035668,-0.625811,-0.670062,0.070764,0.023842,-0.029945,0.002480
12.802933,-0.039483,-0.625811,-0.670062,0.070764,0.024605,-0.029945,0.002480
12.813045,-0.047112,-0.625811,-0.670062,0.070764,0.026894,-0.029945,0.002480
12.823110,-0.055123,-0.625811,-0.670062,0.070764,0.028038,-0.029945,0.002480
12.833222,-0.058938,-0.625811,-0.670062,0.070764,0.030327,-0.029564,0.002480
12.843285,-0.067330,-0.625811,-0.670062,0.070764,0.031090,-0.029564,0.002480
12.853350,-0.071145,-0.625811,-0.670444,0.070764,0.032235,-0.029182,0.002480
12.863425,-0.079537,-0.625811,-0.671206,0.070382,0.032998,-0.028801,0.002480
12.873543,-0.083352,-0.625811,-0.672351,0.070382,0.034142,-0.027657,0.002480
12.883662,-0.091363,-0.625811,-0.673495,0.070382,0.034524,-0.026512,0.002480
12.893776,-0.095179,-0.625811,-0.675784,0.070382,0.035668,-0.023079,0.002098
12.903888,-0.102808,-0.626192,-0.677310,0.070382,0.035668,-0.021553,0.002098
12.913998,-0.106623,-0.626192,-0.680362,0.070764,0.036431,-0.018120,0.001717
12.924112,-0.115015,-0.626955,-0.681506,0.070764,0.036813,-0.016212,0.001717
12.934225,-0.119211,-0.627337,-0.684558,0.070764,0.037576,-0.013924,0.001717
12.944337,-0.127985,-0.627718,-0.687610,0.070764,0.037957,-0.012398,0.001717
12.954451,-0.132563,-0.627718,-0.689517,0.070764,0.039102,-0.010109,0.001717
12.964519,-0.140955,-0.627718,-0.692950,0.070764,0.039483,-0.009727,0.001717
