meetsitaram/go2-rebot/recordings/test_20260423_095702.csv
t,joint1,joint2,joint3,joint4,joint5,joint6,gripper
0.006360,0.003624,0.012016,0.021172,-0.001335,-0.026512,-0.200847,-0.005913
0.016415,0.003624,0.012016,0.021172,-0.001335,-0.026512,-0.203135,-0.005913
0.026499,0.003624,0.012016,0.021172,-0.001335,-0.026512,-0.211909,-0.005913
0.036565,0.003624,0.012016,0.021172,-0.001335,-0.026512,-0.217631,-0.005913
0.046628,0.003624,0.012016,0.021172,-0.001335,-0.026512,-0.230602,-0.005913
0.056719,0.003624,0.012016,0.021172,-0.001335,-0.026512,-0.237469,-0.005913
0.066808,0.003624,0.012016,0.021172,-0.001335,-0.026512,-0.251965,-0.005913
0.076917,0.003624,0.012016,0.021172,-0.001335,-0.026512,-0.259594,-0.005913
0.087029,0.003624,0.012016,0.021172,-0.001335,-0.026512,-0.274090,-0.005913
0.097139,0.003624,0.012016,0.021172,-0.001335,-0.026512,-0.280956,-0.005913
0.107253,0.003624,0.012016,0.021172,-0.001335,-0.026512,-0.293927,-0.005913
0.117339,0.003624,0.012016,0.021172,-0.001335,-0.026512,-0.300031,-0.005913
0.127536,0.003624,0.012016,0.021172,-0.001335,-0.026512,-0.310330,-0.005913
0.137647,0.003624,0.012016,0.021172,-0.001335,-0.026512,-0.314908,-0.005913
0.147737,0.003624,0.012016,0.021172,-0.001335,-0.026512,-0.322919,-0.005913
0.157824,0.003624,0.012016,0.021172,-0.001335,-0.026512,-0.325971,-0.005913
0.167933,0.003624,0.012016,0.021172,-0.001335,-0.026512,-0.330930,-0.005913
0.178023,0.003624,0.012016,0.021172,-0.001335,-0.026512,-0.332837,-0.005913
0.188089,0.003624,0.012016,0.021172,-0.001335,-0.026512,-0.334363,-0.005913
0.198160,0.003624,0.012016,0.021172,-0.001335,-0.026512,-0.333982,-0.005913
0.208268,0.003624,0.012016,0.021172,-0.001335,-0.026512,-0.332456,-0.005913
0.218402,0.003624,0.012016,0.021172,-0.001335,-0.026131,-0.331693,-0.005913
0.228781,0.003624,0.012016,0.021172,-0.001335,-0.026131,-0.329785,-0.005913
0.238894,0.003624,0.012016,0.021172,-0.001335,-0.026131,-0.328641,-0.005913
0.248978,0.003624,0.012016,0.021172,-0.001335,-0.026131,-0.325208,-0.005913
0.259087,0.003624,0.012016,0.021172,-0.001335,-0.026131,-0.323300,-0.005913
0.269196,0.003624,0.012016,0.021172,-0.001335,-0.026131,-0.318723,-0.005913
0.279310,0.003624,0.012016,0.021172,-0.001335,-0.026131,-0.316434,-0.005913
0.289427,0.003624,0.012016,0.021172,-0.001335,-0.026131,-0.310330,-0.005913
0.299540,0.003624,0.012016,0.021172,-0.001335,-0.025749,-0.307279,-0.005913
0.309649,0.003624,0.012016,0.021172,-0.001335,-0.025368,-0.300794,-0.005913
0.319756,0.003624,0.012016,0.021172,-0.001335,-0.025368,-0.297360,-0.005913
0.329870,0.003624,0.012016,0.021172,-0.001335,-0.025368,-0.290494,-0.005913
0.339983,0.003624,0.012016,0.021172,-0.001335,-0.025368,-0.287061,-0.005913
0.350096,0.003624,0.012016,0.021172,-0.001335,-0.025368,-0.279812,-0.005913
0.360211,0.003624,0.012016,0.021172,-0.001335,-0.025368,-0.276379,-0.005913
0.370323,0.003624,0.012016,0.021172,-0.001335,-0.025368,-0.267986,-0.005913
0.380407,0.003624,0.012016,0.021172,-0.001335,-0.025368,-0.263790,-0.005913
0.390494,0.003624,0.012016,0.021172,-0.001335,-0.025368,-0.255016,-0.005913
0.400559,0.003624,0.012016,0.021172,-0.001335,-0.025368,-0.250057,-0.005913
0.410667,0.003624,0.012016,0.021172,-0.001335,-0.025368,-0.239376,-0.005913
0.420786,0.003624,0.012016,0.021172,-0.001335,-0.025368,-0.234035,-0.005913
0.430896,0.003624,0.012016,0.021172,-0.001335,-0.025368,-0.222591,-0.005913
0.440983,0.003624,0.012016,0.021172,-0.001335,-0.025368,-0.216487,-0.005913
0.451106,0.003624,0.012016,0.021172,-0.001335,-0.025368,-0.204661,-0.005913
0.461231,0.003624,0.012016,0.021172,-0.001335,-0.025368,-0.198558,-0.005913
0.471343,0.003624,0.012016,0.021172,-0.001335,-0.025368,-0.185969,-0.005913
0.481429,0.003624,0.012016,0.021172,-0.001335,-0.025749,-0.179866,-0.005913
0.491502,0.003624,0.012016,0.021172,-0.001335,-0.025749,-0.167277,-0.005913
0.501577,0.003624,0.012016,0.021172,-0.001335,-0.025749,-0.160792,-0.005913
0.511644,0.003624,0.012016,0.021172,-0.001335,-0.025749,-0.148203,-0.005913
0.521714,0.003624,0.012016,0.021172,-0.001335,-0.025749,-0.142481,-0.005913
0.531782,0.003624,0.012016,0.021172,-0.001335,-0.025749,-0.131037,-0.005913
0.541850,0.003624,0.012016,0.021172,-0.001335,-0.025749,-0.126078,-0.005913
0.551915,0.003624,0.012016,0.021172,-0.001335,-0.025749,-0.116159,-0.005913
0.561992,0.003624,0.012016,0.021172,-0.001335,-0.025749,-0.111963,-0.005913
0.572063,0.003624,0.012016,0.021172,-0.001335,-0.025749,-0.104334,-0.005913
0.582188,0.003624,0.012016,0.021172,-0.001335,-0.025749,-0.101282,-0.005913
0.592299,0.003624,0.012016,0.021172,-0.001335,-0.025749,-0.096323,-0.005913
0.602401,0.003624,0.012016,0.021172,-0.001335,-0.025749,-0.094797,-0.005913
0.612469,0.003624,0.012016,0.021172,-0.001335,-0.025749,-0.092507,-0.005913
0.622600,0.003624,0.012016,0.021172,-0.001335,-0.025749,-0.091363,-0.005913
0.632713,0.003624,0.012016,0.021172,-0.001335,-0.025749,-0.090219,-0.005913
0.642821,0.003624,0.012016,0.021172,-0.001335,-0.025749,-0.090219,-0.005913
0.652932,0.003624,0.012016,0.021172,-0.001335,-0.025749,-0.089837,-0.005913
0.663047,0.003624,0.012016,0.021172,-0.001335,-0.025368,-0.090219,-0.005913
0.673158,0.003624,0.012016,0.021172,-0.001335,-0.025368,-0.090600,-0.005913
0.683244,0.003624,0.012016,0.021172,-0.001335,-0.025368,-0.090981,-0.005913
0.693338,0.003624,0.012016,0.021172,-0.001335,-0.025368,-0.090981,-0.005913
0.703400,0.003624,0.012016,0.021172,-0.001335,-0.025368,-0.090981,-0.005913
0.713510,0.003624,0.012016,0.021172,-0.001335,-0.025749,-0.090600,-0.005913
0.723622,0.003624,0.012016,0.021172,-0.001335,-0.025749,-0.090600,-0.005913
0.733773,0.003624,0.012016,0.021172,-0.001335,-0.025749,-0.090600,-0.005913
0.744252,0.003624,0.012016,0.021172,-0.001335,-0.025749,-0.090600,-0.005913
0.754362,0.003624,0.012016,0.021172,-0.001335,-0.026131,-0.090600,-0.005913
0.764416,0.003624,0.012016,0.021172,-0.001335,-0.026131,-0.090600,-0.005913
0.774481,0.003624,0.012016,0.021172,-0.001335,-0.026131,-0.090600,-0.005913
0.784542,0.003624,0.012016,0.021172,-0.001335,-0.026131,-0.090600,-0.005913
0.794607,0.003624,0.012016,0.021172,-0.001335,-0.026131,-0.090600,-0.005913
0.804676,0.003624,0.012016,0.021172,-0.001335,-0.026131,-0.090600,-0.005913
0.814740,0.003624,0.012016,0.021172,-0.001335,-0.026131,-0.090600,-0.005913
0.824800,0.003624,0.012016,0.021172,-0.001335,-0.026131,-0.090600,-0.005913
0.834863,0.003624,0.012016,0.021172,-0.001335,-0.026131,-0.090600,-0.005913
0.844924,0.003624,0.012016,0.021172,-0.001335,-0.026131,-0.090600,-0.005913
0.854986,0.003624,0.012016,0.021172,-0.001335,-0.025749,-0.090600,-0.005913
0.865047,0.003624,0.012016,0.021172,-0.001335,-0.025749,-0.090600,-0.005913
0.875112,0.003624,0.012016,0.021172,-0.001335,-0.025368,-0.090600,-0.005913
0.885173,0.003624,0.012016,0.021172,-0.001335,-0.025368,-0.090600,-0.005913
0.895248,0.003624,0.012016,0.021172,-0.001335,-0.025368,-0.090600,-0.005913
0.905317,0.003624,0.012016,0.021172,-0.001335,-0.025368,-0.090219,-0.005913
0.915409,0.003624,0.012016,0.021172,-0.001335,-0.025368,-0.089074,-0.005913
0.925522,0.003624,0.012016,0.021172,-0.001335,-0.025368,-0.088311,-0.005913
0.935635,0.003624,0.012016,0.021172,-0.001335,-0.024986,-0.086404,-0.005913
0.945747,0.003624,0.012016,0.021172,-0.001335,-0.024605,-0.084878,-0.005913
0.955863,0.003624,0.012016,0.021172,-0.001335,-0.024605,-0.081826,-0.005913
0.965980,0.003624,0.012016,0.021172,-0.001335,-0.024605,-0.080300,-0.005913
0.976092,0.003624,0.012016,0.021172,-0.001335,-0.024605,-0.076867,-0.005913
0.986208,0.003624,0.012016,0.021172,-0.001335,-0.024605,-0.074960,-0.005913
0.996319,0.003624,0.012016,0.021172,-0.001335,-0.024605,-0.071145,-0.005913
1.006414,0.003624,0.012016,0.021172,-0.001335,-0.024605,-0.068856,-0.005913
1.016483,0.003624,0.012016,0.021172,-0.001335,-0.024605,-0.065042,-0.005913
1.026559,0.003624,0.012016,0.021172,-0.001335,-0.024605,-0.063134,-0.005913
1.036673,0.003624,0.012016,0.021172,-0.001335,-0.024605,-0.060464,-0.005913
1.046782,0.003624,0.012016,0.021172,-0.000954,-0.024605,-0.059701,-0.005913
1.056895,0.003624,0.012016,0.021172,-0.000954,-0.024223,-0.058175,-0.005913
1.067005,0.003624,0.012016,0.021172,-0.000954,-0.024223,-0.057794,-0.005913
1.077117,0.003624,0.012016,0.021172,-0.000954,-0.023842,-0.057794,-0.005913
1.087186,0.003624,0.012016,0.021172,-0.000954,-0.023842,-0.057794,-0.005913
1.097254,0.003624,0.012016,0.021172,-0.000954,-0.023460,-0.058175,-0.005913
1.107343,0.003624,0.012016,0.021172,-0.000954,-0.023460,-0.058175,-0.005913
1.117454,0.003624,0.012016,0.021172,-0.000954,-0.023460,-0.058175,-0.005913
1.127567,0.003624,0.012016,0.021172,-0.000954,-0.023460,-0.058175,-0.005913
1.137678,0.003624,0.012016,0.021172,-0.000954,-0.023460,-0.058175,-0.005913
1.148017,0.003624,0.012016,0.021172,-0.000954,-0.023460,-0.058175,-0.005913
1.158104,0.003624,0.012016,0.021172,-0.000954,-0.023842,-0.058175,-0.005913
1.168188,0.003624,0.012016,0.021172,-0.000954,-0.023842,-0.058175,-0.005913
1.178272,0.003624,0.012016,0.021172,-0.000954,-0.023842,-0.058175,-0.005913
1.188344,0.003624,0.012016,0.021172,-0.000954,-0.023842,-0.058175,-0.005913
1.198449,0.003624,0.012016,0.021172,-0.000954,-0.023842,-0.058175,-0.005913
1.208558,0.003624,0.012016,0.021172,-0.000954,-0.023842,-0.058175,-0.005913
1.218730,0.003624,0.012016,0.021172,-0.000954,-0.023842,-0.058175,-0.005913
1.228841,0.003624,0.012016,0.021172,-0.000954,-0.023842,-0.058175,-0.005913
1.238953,0.003624,0.012016,0.021172,-0.000954,-0.023842,-0.058175,-0.005913
1.249117,0.003624,0.012016,0.021172,-0.000954,-0.023842,-0.058175,-0.005913
1.259229,0.003624,0.012016,0.021172,-0.000954,-0.023842,-0.058175,-0.005913
1.269344,0.003624,0.012016,0.021172,-0.000954,-0.023842,-0.058175,-0.005913
1.279456,0.003624,0.012016,0.021172,-0.000954,-0.023842,-0.058175,-0.005913
1.289569,0.003624,0.012016,0.021172,-0.000954,-0.023842,-0.058175,-0.005913
1.299650,0.003624,0.012016,0.021172,-0.000954,-0.023842,-0.058175,-0.005913
1.309763,0.003624,0.012016,0.021172,-0.000954,-0.023842,-0.058175,-0.005913
1.319873,0.003624,0.012016,0.021172,-0.000954,-0.023842,-0.058175,-0.005913
1.329996,0.003624,0.012016,0.021172,-0.000954,-0.023842,-0.058175,-0.005913
1.340085,0.003624,0.012016,0.021172,-0.000954,-0.023842,-0.058175,-0.005913
1.350202,0.003624,0.012016,0.021172,-0.000954,-0.023842,-0.058175,-0.005913
1.360312,0.003624,0.012016,0.021172,-0.000954,-0.023842,-0.058175,-0.005913
1.370425,0.003624,0.012016,0.021172,-0.000954,-0.023842,-0.058175,-0.005913
1.380545,0.003624,0.012016,0.021172,-0.000954,-0.023842,-0.058175,-0.005913
1.390623,0.003624,0.012016,0.021172,-0.000954,-0.023842,-0.058175,-0.005913
1.400707,0.003624,0.012016,0.021172,-0.000954,-0.023842,-0.058175,-0.005913
1.410771,0.003624,0.012016,0.021172,-0.000954,-0.023842,-0.058175,-0.005913
1.420884,0.003624,0.012016,0.021172,-0.000954,-0.023842,-0.058175,-0.005913
1.430997,0.003624,0.012016,0.021172,-0.000954,-0.023842,-0.058175,-0.005913
1.441088,0.003624,0.012016,0.021172,-0.000954,-0.023842,-0.058175,-0.005913
1.451198,0.003624,0.012016,0.021172,-0.000954,-0.023842,-0.058175,-0.005913
1.461312,0.003624,0.012016,0.021172,-0.000954,-0.023842,-0.058175,-0.005913
1.471429,0.003624,0.012016,0.021172,-0.000954,-0.023842,-0.058175,-0.005913
1.481545,0.003624,0.012016,0.021172,-0.000954,-0.023842,-0.058175,-0.005913
1.491674,0.003624,0.012016,0.021172,-0.000954,-0.023842,-0.058175,-0.005913
1.501829,0.003624,0.012016,0.021172,-0.000954,-0.023842,-0.058175,-0.005913
1.511896,0.003624,0.012016,0.021172,-0.000954,-0.023842,-0.057794,-0.005913
1.522007,0.003624,0.012016,0.021172,-0.000954,-0.023842,-0.057794,-0.005913
1.532123,0.003624,0.012016,0.021172,-0.000954,-0.023842,-0.057794,-0.005913
1.542241,0.003624,0.012016,0.021172,-0.000954,-0.023842,-0.057794,-0.005913
1.552329,0.003624,0.012016,0.021172,-0.000954,-0.023842,-0.057794,-0.005913
1.562396,0.003624,0.012016,0.021172,-0.000954,-0.023842,-0.057794,-0.005913
1.572501,0.003624,0.012016,0.021172,-0.000954,-0.023842,-0.057794,-0.005913
1.582611,0.003624,0.012016,0.021172,-0.000954,-0.023842,-0.057794,-0.005913
1.592725,0.003624,0.012016,0.021172,-0.000954,-0.023842,-0.057794,-0.005913
1.602813,0.003624,0.012016,0.021172,-0.000954,-0.023842,-0.057794,-0.005913
1.612924,0.003624,0.012016,0.021172,-0.000954,-0.023842,-0.057794,-0.005913
1.623040,0.003624,0.012016,0.021172,-0.000954,-0.023842,-0.057794,-0.005913
1.633149,0.003624,0.012016,0.021172,-0.000954,-0.023842,-0.057794,-0.005913
1.643262,0.003624,0.012016,0.021172,-0.000954,-0.023842,-0.057794,-0.005913
1.653372,0.003624,0.012016,0.021172,-0.000954,-0.023842,-0.057794,-0.005913
1.663442,0.003624,0.012016,0.021172,-0.000954,-0.023842,-0.057794,-0.005913
1.673531,0.003624,0.012016,0.021172,-0.000954,-0.023842,-0.057794,-0.005913
1.683614,0.003624,0.012016,0.021172,-0.000954,-0.023842,-0.057794,-0.005913
1.693683,0.003624,0.012016,0.021172,-0.000954,-0.023842,-0.057794,-0.005913
1.703758,0.003624,0.012016,0.021172,-0.000954,-0.023842,-0.057794,-0.005913
1.713836,0.003624,0.012016,0.021172,-0.000954,-0.023842,-0.057794,-0.005913
1.723906,0.003624,0.012016,0.021172,-0.000954,-0.023842,-0.057794,-0.005913
1.734014,0.003624,0.012016,0.021172,-0.000954,-0.023842,-0.057794,-0.005913
1.744126,0.003624,0.012016,0.021172,-0.000954,-0.024223,-0.057794,-0.005913
1.754213,0.003624,0.012016,0.021172,-0.000954,-0.024223,-0.057794,-0.005913
1.764554,0.003624,0.012016,0.021172,-0.000954,-0.024223,-0.057794,-0.005913
1.774670,0.003624,0.012016,0.021172,-0.000954,-0.024223,-0.057794,-0.005913
1.784757,0.003624,0.012016,0.021172,-0.000954,-0.024223,-0.057794,-0.005913
1.794866,0.003624,0.012016,0.021172,-0.000954,-0.024223,-0.057794,-0.005913
1.804967,0.003624,0.012016,0.021172,-0.000954,-0.024223,-0.057794,-0.005913
1.815080,0.003624,0.012016,0.021172,-0.000954,-0.024223,-0.057794,-0.005913
1.825197,0.003624,0.012016,0.021172,-0.000954,-0.024223,-0.057794,-0.005913
1.835268,0.003624,0.012016,0.021172,-0.000954,-0.024605,-0.057794,-0.005913
1.845333,0.003624,0.012016,0.021172,-0.000954,-0.024605,-0.057794,-0.005913
1.855395,0.003624,0.012016,0.021172,-0.000954,-0.024605,-0.057794,-0.005913
1.865507,0.003624,0.012016,0.021172,-0.000954,-0.024605,-0.057794,-0.005913
1.875623,0.003624,0.012016,0.021172,-0.000954,-0.024605,-0.057794,-0.005913
1.885737,0.003624,0.012016,0.021172,-0.000954,-0.024605,-0.057794,-0.005913
1.895853,0.003624,0.012016,0.021172,-0.000954,-0.024605,-0.057794,-0.005913
1.905942,0.003624,0.012016,0.021172,-0.000954,-0.024605,-0.057794,-0.005913
1.916051,0.003624,0.012016,0.021172,-0.000954,-0.024605,-0.057794,-0.005913
1.926162,0.003624,0.012016,0.021172,-0.000954,-0.024605,-0.057794,-0.005913
1.936247,0.003624,0.012016,0.021172,-0.000954,-0.024605,-0.057794,-0.005913
1.946357,0.003624,0.012016,0.021172,-0.000954,-0.024605,-0.057794,-0.005913
1.956408,0.003624,0.012016,0.021172,-0.000954,-0.024605,-0.057412,-0.005913
1.966520,0.003624,0.012016,0.021172,-0.000954,-0.024605,-0.057031,-0.005913
1.976633,0.003624,0.012016,0.021172,-0.000954,-0.024605,-0.057031,-0.005913
1.986808,0.003624,0.012016,0.021172,-0.000954,-0.024605,-0.057031,-0.005913
1.996876,0.003624,0.012016,0.021172,-0.000954,-0.024605,-0.057031,-0.005913
2.006946,0.003624,0.012016,0.021172,-0.000954,-0.024605,-0.057031,-0.005913
2.017041,0.003624,0.012016,0.021172,-0.000954,-0.024605,-0.057031,-0.005913
2.027109,0.003624,0.012016,0.021172,-0.000954,-0.024605,-0.057031,-0.005913
2.037180,0.003624,0.012016,0.021172,-0.000954,-0.024605,-0.057031,-0.005913
2.047249,0.003624,0.012016,0.021172,-0.000954,-0.024605,-0.057031,-0.005913
2.057315,0.003624,0.012016,0.021172,-0.000954,-0.024605,-0.057031,-0.005913
2.067380,0.003624,0.012016,0.021172,-0.000954,-0.024605,-0.057031,-0.005913
2.077448,0.003624,0.012016,0.021172,-0.000954,-0.024605,-0.057031,-0.005913
2.087526,0.003624,0.012016,0.021172,-0.000954,-0.024605,-0.057031,-0.005913
2.097597,0.003624,0.012016,0.021172,-0.000954,-0.024605,-0.057031,-0.005913
2.107661,0.003624,0.012016,0.021172,-0.000954,-0.024605,-0.057031,-0.005913
2.117799,0.003624,0.012016,0.021172,-0.000954,-0.024605,-0.057031,-0.005913
2.127866,0.003624,0.012016,0.021172,-0.000954,-0.024605,-0.057031,-0.005913
2.137932,0.003624,0.012016,0.021172,-0.000954,-0.024605,-0.057031,-0.005913
2.148045,0.003624,0.012016,0.021172,-0.000954,-0.024605,-0.057031,-0.005913
2.158114,0.003624,0.012016,0.021172,-0.000954,-0.024605,-0.057031,-0.005913
2.168223,0.003624,0.012016,0.021172,-0.000954,-0.024605,-0.057031,-0.005913
2.178337,0.003624,0.012016,0.021172,-0.000954,-0.024605,-0.057031,-0.005913
2.188449,0.003624,0.011635,0.021172,-0.000954,-0.024605,-0.057031,-0.005913
2.198560,0.003624,0.011635,0.021172,-0.000954,-0.024605,-0.057031,-0.005913
2.208672,0.003624,0.011635,0.021172,-0.000954,-0.024605,-0.057031,-0.005913
2.218783,0.003624,0.011253,0.021172,-0.000954,-0.024605,-0.057031,-0.005913
2.228895,0.003624,0.009727,0.021172,-0.000954,-0.024605,-0.057031,-0.005913
2.238981,0.003624,0.008965,0.021172,-0.000954,-0.024605,-0.057031,-0.005913
2.249090,0.003624,0.007057,0.021172,-0.000954,-0.024605,-0.057031,-0.005913
2.259203,0.003624,0.005913,0.021172,-0.000954,-0.024605,-0.057031,-0.005913
2.269291,0.003624,0.003242,0.021172,-0.000572,-0.024605,-0.057031,-0.005913
2.279407,0.003624,0.001717,0.021172,-0.000191,-0.024605,-0.057031,-0.005913
2.289475,0.003624,-0.001335,0.021172,0.000191,-0.024605,-0.057031,-0.005913
2.299587,0.003624,-0.003242,0.020790,0.000572,-0.024605,-0.057031,-0.005913
2.309678,0.003624,-0.007439,0.020790,0.000572,-0.024605,-0.057031,-0.005913
2.319748,0.003624,-0.009727,0.020790,0.000572,-0.024605,-0.057031,-0.005913
2.329812,0.003624,-0.014687,0.020409,0.000572,-0.024605,-0.057031,-0.005913
2.339875,0.003624,-0.017357,0.020027,0.000572,-0.024605,-0.057031,-0.005913
2.349937,0.003624,-0.022697,0.018501,0.000572,-0.024605,-0.057031,-0.005913
2.360001,0.003624,-0.025749,0.017738,0.000954,-0.024605,-0.057031,-0.005913
2.370105,0.003624,-0.031090,0.016212,0.000954,-0.024605,-0.057031,-0.005913
2.380171,0.003624,-0.034142,0.015831,0.001335,-0.024605,-0.057031,-0.005913
2.390236,0.003624,-0.039483,0.014305,0.001717,-0.024605,-0.057031,-0.005913
2.400303,0.003624,-0.042153,0.012779,0.002098,-0.024605,-0.057031,-0.005913
2.410368,0.003624,-0.047112,0.009727,0.002480,-0.024605,-0.057031,-0.005913
2.420395,0.003624,-0.049783,0.008202,0.002861,-0.024605,-0.057031,-0.005913
2.430463,0.003624,-0.054360,0.004005,0.003242,-0.024605,-0.057031,-0.005913
2.440534,0.003624,-0.057031,0.001335,0.004387,-0.024605,-0.057031,-0.005913
2.450642,0.003624,-0.061608,-0.004005,0.005150,-0.024605,-0.057031,-0.005913
2.460733,0.003624,-0.063897,-0.007439,0.005913,-0.024605,-0.057031,-0.005913
2.470800,0.003624,-0.068856,-0.013542,0.006676,-0.024605,-0.057031,-0.005913
2.480908,0.003624,-0.071145,-0.016975,0.007820,-0.024605,-0.057031,-0.005913
2.491021,0.003624,-0.076104,-0.024223,0.008583,-0.024605,-0.057031,-0.005913
2.501090,0.003624,-0.078774,-0.028038,0.010109,-0.024605,-0.057031,-0.005913
2.511156,0.003624,-0.083352,-0.036050,0.011253,-0.024605,-0.057031,-0.005913
2.521225,0.003624,-0.086022,-0.040627,0.012398,-0.024605,-0.057031,-0.005913
2.531290,0.003624,-0.090600,-0.049401,0.013161,-0.024605,-0.057031,-0.005913
2.541353,0.003624,-0.092889,-0.053979,0.014687,-0.024605,-0.057031,-0.005913
2.551394,0.003624,-0.097849,-0.058557,0.015450,-0.024605,-0.057031,-0.005913
2.561458,0.003624,-0.100138,-0.067712,0.017357,-0.024605,-0.057031,-0.005913
2.571546,0.003624,-0.105097,-0.072289,0.018501,-0.024605,-0.057031,-0.005913
2.581661,0.003624,-0.107386,-0.082589,0.020027,-0.024223,-0.057031,-0.005913
2.591774,0.003624,-0.113108,-0.087548,0.020790,-0.024223,-0.057031,-0.005913
2.601946,0.003624,-0.116541,-0.097467,0.021935,-0.024605,-0.057031,-0.005913
2.612060,0.003624,-0.123026,-0.102427,0.023079,-0.024605,-0.057031,-0.005913
2.622175,0.003624,-0.126459,-0.112726,0.024986,-0.024605,-0.057031,-0.005913
2.632288,0.003624,-0.133707,-0.118067,0.025749,-0.024605,-0.057031,-0.005913
2.642410,0.003624,-0.137522,-0.128748,0.026512,-0.024605,-0.057031,-0.005913
2.652521,0.003624,-0.145533,-0.134089,0.026894,-0.024605,-0.057031,-0.005913
2.662635,0.003624,-0.150110,-0.144388,0.027657,-0.024605,-0.057031,-0.005913
2.672747,0.003624,-0.159266,-0.154688,0.028038,-0.024605,-0.057031,-0.005913
2.682859,0.003624,-0.164226,-0.159648,0.029182,-0.024605,-0.057031,-0.005913
2.692973,0.003624,-0.174144,-0.170329,0.029182,-0.024605,-0.057031,-0.005913
2.703059,0.003624,-0.179103,-0.175670,0.029564,-0.024605,-0.057031,-0.005913
2.713170,0.003624,-0.189403,-0.185969,0.029945,-0.024605,-0.057031,-0.005913
2.723282,0.003624,-0.194362,-0.190928,0.030708,-0.024605,-0.057031,-0.005913
2.733410,0.003624,-0.204661,-0.196269,0.031090,-0.024223,-0.057031,-0.005913
2.743495,0.003624,-0.210002,-0.206950,0.031472,-0.024223,-0.057031,-0.005913
2.753608,0.003624,-0.220684,-0.212291,0.031472,-0.024223,-0.057031,-0.005913
2.763722,0.003624,-0.226406,-0.222591,0.031472,-0.024223,-0.057031,-0.005913
2.773792,0.003624,-0.237469,-0.227551,0.031854,-0.024223,-0.057031,-0.005913
2.783857,0.003624,-0.242809,-0.237469,0.031854,-0.024223,-0.057031,-0.005913
2.793919,0.003624,-0.248150,-0.242046,0.031854,-0.024223,-0.057031,-0.005913
2.804031,0.003624,-0.258831,-0.251583,0.031472,-0.024223,-0.057031,-0.005913
2.814150,0.003624,-0.269512,-0.256161,0.031472,-0.024223,-0.057031,-0.005913
2.824261,0.003624,-0.274471,-0.264935,0.031472,-0.024223,-0.057031,-0.005913
2.834330,0.003624,-0.284390,-0.269512,0.031472,-0.024223,-0.057031,-0.005913
2.844398,0.003624,-0.289350,-0.278286,0.031472,-0.024223,-0.057031,-0.005913
2.854460,0.003624,-0.294309,-0.282483,0.031472,-0.024223,-0.057031,-0.005913
2.864569,0.003624,-0.303845,-0.290875,0.031472,-0.024223,-0.057031,-0.005913
2.874682,0.003624,-0.308423,-0.294690,0.031472,-0.024223,-0.057031,-0.005913
2.884798,0.003624,-0.317197,-0.302701,0.031472,-0.024223,-0.057031,-0.005913
2.894873,0.003624,-0.321774,-0.306516,0.031472,-0.024223,-0.057031,-0.005913
2.904947,0.003624,-0.329785,-0.313764,0.031472,-0.024223,-0.057031,-0.005913
2.915010,0.003624,-0.333600,-0.317578,0.031472,-0.024223,-0.057031,-0.005913
2.925077,0.003624,-0.341229,-0.324445,0.031472,-0.024223,-0.057031,-0.005913
2.935191,0.003624,-0.345045,-0.327878,0.031472,-0.024223,-0.057031,-0.005913
2.945299,0.003624,-0.351912,-0.334744,0.031472,-0.024223,-0.057031,-0.005913
2.955399,0.003624,-0.355726,-0.338178,0.031472,-0.024223,-0.057031,-0.005913
2.965463,0.003624,-0.363737,-0.341229,0.031472,-0.024223,-0.057031,-0.005913
2.975525,0.003624,-0.366789,-0.348478,0.031472,-0.024223,-0.057031,-0.005913
2.985589,0.003624,-0.373274,-0.351530,0.031472,-0.024223,-0.057031,-0.005913
2.995651,0.003624,-0.375944,-0.357634,0.031472,-0.024223,-0.057031,-0.005913
3.005715,0.003624,-0.382048,-0.360685,0.031472,-0.024223,-0.057031,-0.005913
3.015779,0.003624,-0.384718,-0.366789,0.031472,-0.024223,-0.057031,-0.005913
3.025842,0.003624,-0.389677,-0.369459,0.031472,-0.024223,-0.057031,-0.005913
3.035905,0.003624,-0.391966,-0.374418,0.031472,-0.024223,-0.057031,-0.005913
3.046019,0.003624,-0.395781,-0.377089,0.031472,-0.024223,-0.057031,-0.005913
3.056105,0.003624,-0.397688,-0.381285,0.031472,-0.024223,-0.057031,-0.005913
3.066172,0.003624,-0.400740,-0.383192,0.031472,-0.024223,-0.057031,-0.005913
3.076286,0.003624,-0.401884,-0.386244,0.031472,-0.023842,-0.057031,-0.005913
3.086407,0.003624,-0.403410,-0.387770,0.031472,-0.023842,-0.057031,-0.005913
3.096476,0.003624,-0.405699,-0.390059,0.031472,-0.023460,-0.057031,-0.005913
3.106543,0.003624,-0.406080,-0.390440,0.031472,-0.023460,-0.057031,-0.005913
3.116610,0.003624,-0.406844,-0.391203,0.031472,-0.023460,-0.057031,-0.005913
3.126691,0.003624,-0.407226,-0.391584,0.031472,-0.023460,-0.057031,-0.005913
3.136805,0.003624,-0.407226,-0.391584,0.031472,-0.023460,-0.057031,-0.005913
3.146917,0.003624,-0.407226,-0.391584,0.031472,-0.023460,-0.057031,-0.005913
3.157004,0.003624,-0.407226,-0.391584,0.031472,-0.023460,-0.057031,-0.005913
3.167089,0.003624,-0.407226,-0.391584,0.031472,-0.023460,-0.057031,-0.005913
3.177158,0.003624,-0.407226,-0.390821,0.031472,-0.023460,-0.057031,-0.005913
3.187257,0.003624,-0.407226,-0.390059,0.031472,-0.023842,-0.057031,-0.005913
3.197371,0.003624,-0.406080,-0.387007,0.031472,-0.023842,-0.057031,-0.005913
3.207445,0.003624,-0.405317,-0.385862,0.031472,-0.023842,-0.057031,-0.005913
3.217556,0.003624,-0.402647,-0.382811,0.031472,-0.023842,-0.057031,-0.005913
3.227666,0.003624,-0.401121,-0.380903,0.031472,-0.023842,-0.057031,-0.005913
3.237776,0.003624,-0.397306,-0.376707,0.031472,-0.023842,-0.057031,-0.005913
3.247885,0.003624,-0.395399,-0.374037,0.031472,-0.023842,-0.057031,-0.005913
3.257995,0.003624,-0.391203,-0.368696,0.031472,-0.023842,-0.057031,-0.005913
3.268117,0.003624,-0.388914,-0.366026,0.031472,-0.023842,-0.057031,-0.005913
3.278234,0.003624,-0.383955,-0.359922,0.031472,-0.023842,-0.057031,-0.005913
3.288359,0.003624,-0.381285,-0.356871,0.031472,-0.023842,-0.057031,-0.005913
3.298444,0.003624,-0.375563,-0.350386,0.031472,-0.023842,-0.057031,-0.005913
3.308578,0.003624,-0.372511,-0.346571,0.031472,-0.023842,-0.057031,-0.005913
3.318659,0.003624,-0.366026,-0.339322,0.031472,-0.023842,-0.057031,-0.005913
3.328754,0.003624,-0.362211,-0.335126,0.031472,-0.023842,-0.057031,-0.005913
3.338834,0.003624,-0.354963,-0.326734,0.031472,-0.023842,-0.057031,-0.005913
3.348944,0.003624,-0.351149,-0.322537,0.031090,-0.023842,-0.057031,-0.005913
3.359060,0.003624,-0.342374,-0.313001,0.031090,-0.023842,-0.057031,-0.005913
3.369146,0.003624,-0.338178,-0.308423,0.031090,-0.023842,-0.057031,-0.005913
3.379257,0.003624,-0.328641,-0.298886,0.030708,-0.023842,-0.057031,-0.005913
3.389339,0.003624,-0.324063,-0.293927,0.030708,-0.023842,-0.057031,-0.005913
3.399457,0.003624,-0.313764,-0.284009,0.030708,-0.023842,-0.057031,-0.005913
3.409539,0.003624,-0.308423,-0.279049,0.030327,-0.023842,-0.057031,-0.005913
3.419660,0.003624,-0.297742,-0.269131,0.030327,-0.023842,-0.057031,-0.005913
3.429773,0.003624,-0.292401,-0.264172,0.030327,-0.023842,-0.057031,-0.005913
3.439862,0.003624,-0.281339,-0.254253,0.030327,-0.023842,-0.057031,-0.005913
3.449972,0.003624,-0.275997,-0.249294,0.030327,-0.023842,-0.057031,-0.005913
3.460084,0.003624,-0.264935,-0.239376,0.030327,-0.023842,-0.057031,-0.005913
3.470165,0.003624,-0.259212,-0.234417,0.029945,-0.023842,-0.057031,-0.005913
3.480281,0.003624,-0.248150,-0.224117,0.029182,-0.023842,-0.057031,-0.005913
3.490355,0.003624,-0.242428,-0.219158,0.028801,-0.023842,-0.057031,-0.005913
3.500406,0.003624,-0.231365,-0.208858,0.028038,-0.023842,-0.057031,-0.005913
3.510492,0.003624,-0.226025,-0.203898,0.027275,-0.023842,-0.057031,-0.005913
3.520577,0.003624,-0.215343,-0.193217,0.025749,-0.023842,-0.057031,-0.005913
3.530686,0.003624,-0.210002,-0.187877,0.025368,-0.023842,-0.057031,-0.005913
3.540772,0.003624,-0.199702,-0.177196,0.023842,-0.023842,-0.057031,-0.005913
3.550881,0.003624,-0.194743,-0.172236,0.023460,-0.023842,-0.057031,-0.005913
3.560998,0.003624,-0.184062,-0.161555,0.021553,-0.023842,-0.057031,-0.005913
3.571074,0.003624,-0.178721,-0.156596,0.020409,-0.023842,-0.057031,-0.005913
3.581417,0.003624,-0.168422,-0.146296,0.018501,-0.023842,-0.057031,-0.005913
3.591494,0.003624,-0.163463,-0.141336,0.017738,-0.023842,-0.057031,-0.005913
3.601942,0.003624,-0.153543,-0.131037,0.016975,-0.023842,-0.057031,-0.005913
3.612028,0.003624,-0.148584,-0.126459,0.016594,-0.023842,-0.057031,-0.005913
3.622123,0.003624,-0.138666,-0.117304,0.015068,-0.023842,-0.057031,-0.005913
3.632246,0.003624,-0.129892,-0.113108,0.014305,-0.023842,-0.057031,-0.005913
3.642360,0.003624,-0.125696,-0.104715,0.013161,-0.023842,-0.057031,-0.005913
3.652472,0.003242,-0.117304,-0.100519,0.012779,-0.023842,-0.057031,-0.005913
3.662563,0.003242,-0.113489,-0.092889,0.012779,-0.023842,-0.057031,-0.005913
3.672631,0.003242,-0.105860,-0.089074,0.012779,-0.023842,-0.057031,-0.005913
3.683074,0.003242,-0.102045,-0.082208,0.012398,-0.023842,-0.057031,-0.005913
3.693177,0.003242,-0.094797,-0.076104,0.012398,-0.023842,-0.057031,-0.005913
3.703288,0.003242,-0.091363,-0.073052,0.012398,-0.023842,-0.057031,-0.005913
3.713404,0.003242,-0.084496,-0.068093,0.012398,-0.023842,-0.057031,-0.005913
3.723493,0.003242,-0.081445,-0.065423,0.012398,-0.023842,-0.057031,-0.005913
3.733603,0.003242,-0.074960,-0.060845,0.012398,-0.023842,-0.057031,-0.005913
3.743716,0.003242,-0.071908,-0.058938,0.012779,-0.023842,-0.057031,-0.005913
3.753826,0.003242,-0.065804,-0.054742,0.012779,-0.023842,-0.057031,-0.005913
3.763912,0.003242,-0.062753,-0.052453,0.012779,-0.024223,-0.057031,-0.005913
3.773985,0.003242,-0.057031,-0.048638,0.012779,-0.024223,-0.057031,-0.005913
3.784097,0.003242,-0.054742,-0.046731,0.012779,-0.024605,-0.057031,-0.005913
3.794211,0.003242,-0.049401,-0.042916,0.012779,-0.024605,-0.057031,-0.005913
3.804297,0.003242,-0.047112,-0.041009,0.012779,-0.024605,-0.057031,-0.005913
3.814412,0.003242,-0.042535,-0.037576,0.012779,-0.024605,-0.057031,-0.005913
3.824501,0.003242,-0.040246,-0.036050,0.012779,-0.024605,-0.057031,-0.005913
3.834611,0.003242,-0.035668,-0.032235,0.012779,-0.024605,-0.057031,-0.005913
3.844726,0.003242,-0.033380,-0.030708,0.012779,-0.024605,-0.057031,-0.005913
3.854798,0.003242,-0.028801,-0.027275,0.012779,-0.024605,-0.057031,-0.005913
3.864861,0.003242,-0.026131,-0.025749,0.012779,-0.024605,-0.057031,-0.005913
3.874925,0.003242,-0.021553,-0.022316,0.012779,-0.024605,-0.057031,-0.005913
3.884987,0.003242,-0.019264,-0.020409,0.012779,-0.024605,-0.057031,-0.005913
3.895098,0.003242,-0.013924,-0.016212,0.012779,-0.024605,-0.057031,-0.005913
3.905166,0.003242,-0.011253,-0.014305,0.012779,-0.024605,-0.057031,-0.005913
3.915232,0.003242,-0.005913,-0.012398,0.012779,-0.024605,-0.057031,-0.005913
3.925305,0.003242,-0.002861,-0.008202,0.012779,-0.024605,-0.057031,-0.005913
3.935425,0.003242,0.002861,-0.005531,0.012779,-0.024605,-0.057031,-0.005913
3.945493,0.003242,0.006294,-0.000954,0.012779,-0.024605,-0.057031,-0.005913
3.955562,0.003242,0.009346,0.001717,0.012779,-0.024605,-0.057031,-0.005913
3.965630,0.003242,0.013542,0.005531,0.012398,-0.024605,-0.057031,-0.005913
3.975702,0.003242,0.013542,0.006294,0.012016,-0.024605,-0.057031,-0.005913
3.985772,0.003624,0.012779,0.005913,0.010872,-0.024605,-0.057031,-0.005913
3.995840,0.003624,0.012779,0.005913,0.010872,-0.024223,-0.057031,-0.005913
4.005910,0.003624,0.012779,0.005913,0.010490,-0.024223,-0.057031,-0.005913
4.015973,0.003624,0.012779,0.005913,0.010490,-0.023842,-0.057031,-0.005913
4.026039,0.003624,0.012779,0.005913,0.010490,-0.023460,-0.057031,-0.005913
4.036102,0.003624,0.012779,0.005913,0.010490,-0.023460,-0.057031,-0.005913
4.046218,0.003624,0.012779,0.005913,0.010490,-0.023460,-0.057031,-0.005913
4.056331,0.003624,0.012779,0.005913,0.010490,-0.023460,-0.057031,-0.005913
4.066447,0.003624,0.012779,0.005913,0.010490,-0.023460,-0.057031,-0.005913
4.076527,0.003624,0.012779,0.005913,0.010490,-0.023460,-0.057031,-0.005913
4.086641,0.003624,0.012779,0.005913,0.010490,-0.023460,-0.057031,-0.005913
4.096724,0.003624,0.012779,0.005913,0.010490,-0.023460,-0.057031,-0.005913
4.106793,0.003624,0.012779,0.005913,0.010490,-0.023460,-0.057031,-0.005913
4.116903,0.003624,0.012779,0.005913,0.010490,-0.023460,-0.057031,-0.005913
4.127017,0.003624,0.012779,0.005913,0.010490,-0.023460,-0.057031,-0.005913
4.137138,0.003624,0.012779,0.005913,0.010490,-0.023460,-0.057031,-0.005913
4.147256,0.003624,0.012779,0.005913,0.010490,-0.023460,-0.057031,-0.005913
4.157371,0.003624,0.012779,0.005913,0.010490,-0.023460,-0.057031,-0.005913
4.167802,0.003624,0.012779,0.005913,0.010490,-0.023460,-0.057031,-0.005913
4.177916,0.003624,0.012779,0.005913,0.010490,-0.023460,-0.057031,-0.005913
4.188026,0.003624,0.012779,0.005913,0.010490,-0.023842,-0.057031,-0.005913
4.198144,0.003624,0.012779,0.005913,0.010490,-0.023842,-0.057031,-0.005913
4.208261,0.003624,0.012779,0.005913,0.010490,-0.023842,-0.057031,-0.005913
4.218370,0.003624,0.012779,0.005913,0.010490,-0.023842,-0.057031,-0.005913
4.228396,0.003624,0.012779,0.005913,0.010490,-0.023842,-0.057031,-0.005913
4.238462,0.003624,0.012779,0.005913,0.010490,-0.023460,-0.057031,-0.005913
4.248527,0.003624,0.012779,0.005913,0.010490,-0.023460,-0.057031,-0.005913
4.258594,0.003624,0.012779,0.005913,0.010490,-0.023460,-0.057031,-0.005913
4.268658,0.003624,0.012779,0.005913,0.010490,-0.023460,-0.057031,-0.005913
4.278727,0.003624,0.012779,0.005913,0.010490,-0.023460,-0.057031,-0.005913
4.288792,0.003624,0.012779,0.005913,0.010872,-0.023460,-0.057031,-0.005913
4.298904,0.003624,0.012779,0.005913,0.010872,-0.023460,-0.057031,-0.005913
4.308973,0.003624,0.012779,0.005913,0.010872,-0.023460,-0.057031,-0.005913
4.319079,0.003624,0.012779,0.005913,0.010872,-0.023460,-0.057031,-0.005913
4.329191,0.003624,0.012779,0.005913,0.010872,-0.023460,-0.057031,-0.005913
4.339276,0.003624,0.012779,0.005913,0.010872,-0.023460,-0.057031,-0.005913
4.349406,0.003624,0.012779,0.005913,0.010872,-0.023460,-0.057031,-0.005913
4.359519,0.003624,0.012779,0.005913,0.010872,-0.023460,-0.057031,-0.005913
4.369628,0.003624,0.012779,0.005913,0.010872,-0.023460,-0.057031,-0.005913
4.379746,0.003624,0.012779,0.005913,0.010872,-0.023460,-0.057031,-0.005913
4.389856,0.003624,0.012779,0.005913,0.010872,-0.023460,-0.057031,-0.005913
4.399922,0.003624,0.012779,0.005913,0.010872,-0.023460,-0.057031,-0.005913
4.409988,0.003624,0.012779,0.005913,0.010872,-0.023460,-0.057031,-0.005913
4.420096,0.003624,0.012779,0.005913,0.010872,-0.023460,-0.057031,-0.005913
4.430210,0.003624,0.012779,0.005913,0.010872,-0.023460,-0.057031,-0.005913
4.440322,0.003624,0.012779,0.005913,0.010872,-0.023460,-0.057031,-0.005913
4.450446,0.003624,0.012779,0.005913,0.010872,-0.023460,-0.057031,-0.005913
4.460558,0.003624,0.012779,0.005913,0.010872,-0.023460,-0.057031,-0.005913
4.470675,0.003624,0.012779,0.005913,0.010872,-0.023460,-0.057031,-0.005913
4.480790,0.003624,0.012779,0.005913,0.010872,-0.023460,-0.057031,-0.005913
4.490860,0.003624,0.012779,0.005913,0.010872,-0.023460,-0.057031,-0.005913
4.500931,0.003624,0.012779,0.005913,0.010872,-0.023460,-0.057031,-0.005913
4.510999,0.003624,0.012779,0.005913,0.010872,-0.023460,-0.057031,-0.005913
4.521086,0.003624,0.012779,0.005913,0.010872,-0.023460,-0.057031,-0.005913
4.531202,0.003624,0.012779,0.005913,0.010872,-0.023460,-0.057031,-0.005913
4.541273,0.003624,0.012779,0.005913,0.010872,-0.023460,-0.057031,-0.005913
4.551345,0.003624,0.012779,0.005913,0.010872,-0.023460,-0.057031,-0.005913
4.561457,0.003624,0.012779,0.005913,0.010872,-0.023460,-0.057031,-0.005913
4.571580,0.003624,0.012779,0.005913,0.010872,-0.023460,-0.057031,-0.005913
4.581689,0.003624,0.012779,0.005913,0.010872,-0.023460,-0.057031,-0.005913
4.591801,0.003624,0.012779,0.005913,0.010872,-0.023460,-0.057031,-0.005913
4.601912,0.003624,0.012779,0.005913,0.010872,-0.023079,-0.057031,-0.005913
4.612024,0.003624,0.012779,0.005913,0.010872,-0.023079,-0.057031,-0.005913
4.622138,0.003624,0.012779,0.005913,0.010872,-0.022697,-0.057031,-0.005913
4.632261,0.003624,0.012779,0.005913,0.010872,-0.022316,-0.057031,-0.005913
4.642372,0.003624,0.012779,0.005913,0.010872,-0.021935,-0.057031,-0.005913
4.652486,0.003624,0.012779,0.005913,0.010872,-0.021935,-0.057031,-0.005913
4.662601,0.003624,0.012779,0.005913,0.010872,-0.021553,-0.057031,-0.005913
4.672669,0.003624,0.012779,0.005913,0.010872,-0.021553,-0.057031,-0.005913
4.682784,0.003624,0.012779,0.005913,0.010872,-0.021553,-0.057031,-0.005913
4.692889,0.003624,0.012779,0.005913,0.010872,-0.021553,-0.057031,-0.005913
4.702969,0.003624,0.012779,0.005913,0.010872,-0.021553,-0.057031,-0.005913
4.713039,0.003624,0.012779,0.005913,0.010872,-0.021553,-0.057031,-0.005913
4.723109,0.003624,0.012779,0.005913,0.010872,-0.021553,-0.057031,-0.005913
4.733217,0.003624,0.012779,0.005913,0.010872,-0.021553,-0.057031,-0.005913
4.743326,0.003624,0.012779,0.005913,0.010872,-0.021553,-0.057031,-0.005913
4.753436,0.003624,0.012779,0.005913,0.010872,-0.021553,-0.057031,-0.005913
4.763548,0.003624,0.012779,0.005913,0.010872,-0.021553,-0.057031,-0.005913
4.773634,0.003624,0.012779,0.005913,0.010872,-0.021553,-0.057031,-0.005913
4.783742,0.003624,0.012779,0.005913,0.010872,-0.021553,-0.057031,-0.005913
4.793852,0.003624,0.012779,0.005913,0.010872,-0.021553,-0.057031,-0.005913
4.803965,0.003624,0.012779,0.005913,0.010872,-0.021553,-0.057031,-0.005913
4.814078,0.003624,0.012779,0.005913,0.010872,-0.021553,-0.057031,-0.005913
4.824199,0.003624,0.012779,0.005913,0.010872,-0.021553,-0.057031,-0.005913
4.834309,0.003624,0.012779,0.005913,0.010872,-0.021553,-0.057031,-0.005913
4.844424,0.003624,0.012779,0.005913,0.010872,-0.021553,-0.057031,-0.005913
4.854583,0.003624,0.012779,0.005913,0.010872,-0.021935,-0.057031,-0.005913
4.864699,0.003624,0.012779,0.005913,0.010872,-0.021935,-0.057031,-0.005913
4.874813,0.003624,0.012779,0.005913,0.010872,-0.021935,-0.057031,-0.005913
4.884927,0.003624,0.012779,0.005913,0.010872,-0.021935,-0.057031,-0.005913
4.895041,0.003624,0.012779,0.005913,0.010872,-0.021935,-0.057031,-0.005913
4.905140,0.003624,0.012779,0.005913,0.010872,-0.021935,-0.057031,-0.005913
4.915252,0.003624,0.012779,0.005913,0.010872,-0.021935,-0.057031,-0.005913
4.925366,0.003624,0.012779,0.005913,0.010872,-0.021935,-0.057031,-0.005913
4.935477,0.003624,0.012779,0.005913,0.010872,-0.021935,-0.057031,-0.005913
4.945592,0.003624,0.012779,0.005913,0.010872,-0.021935,-0.057031,-0.005913
4.955680,0.003624,0.012779,0.005913,0.010872,-0.021935,-0.057031,-0.005913
4.965789,0.003624,0.012779,0.005913,0.010872,-0.021935,-0.057031,-0.005913
4.975884,0.003624,0.012779,0.005913,0.010872,-0.021935,-0.057031,-0.005913
4.985948,0.003624,0.012779,0.005913,0.010872,-0.021935,-0.057031,-0.005913
4.996036,0.003624,0.012779,0.005913,0.010872,-0.021935,-0.057031,-0.005913
5.006103,0.003624,0.012779,0.005913,0.010872,-0.021935,-0.057031,-0.005913
5.016172,0.003624,0.012779,0.005913,0.010872,-0.021935,-0.057031,-0.005913
5.026247,0.003624,0.012779,0.005913,0.010872,-0.021935,-0.057031,-0.005913
5.036358,0.003624,0.012779,0.005913,0.010872,-0.021935,-0.057031,-0.005913
5.046408,0.003624,0.012779,0.005913,0.010872,-0.021935,-0.057031,-0.005913
5.056474,0.003624,0.012779,0.005913,0.010872,-0.021935,-0.057031,-0.005913
5.066543,0.003624,0.012779,0.005913,0.010872,-0.021935,-0.057031,-0.005913
5.076610,0.003624,0.012779,0.005913,0.010872,-0.021935,-0.057031,-0.005913
5.086678,0.003624,0.012779,0.005913,0.010872,-0.021935,-0.057031,-0.005913
5.096770,0.003624,0.012779,0.005913,0.010872,-0.021935,-0.057031,-0.005913
5.106850,0.003624,0.012779,0.005913,0.010872,-0.021935,-0.057031,-0.005913
5.116917,0.003624,0.012779,0.005913,0.010872,-0.021935,-0.057031,-0.005913
5.127031,0.003624,0.012779,0.005913,0.010872,-0.021935,-0.057031,-0.005913
5.137150,0.003624,0.012779,0.005913,0.010872,-0.021935,-0.057031,-0.005913
5.147237,0.003624,0.012779,0.005913,0.010872,-0.021935,-0.057031,-0.005913
5.157345,0.003624,0.012779,0.005913,0.010872,-0.021935,-0.057031,-0.005913
5.167457,0.003624,0.012779,0.005913,0.010872,-0.021935,-0.057031,-0.005913
5.177569,0.003624,0.012779,0.005913,0.010872,-0.021935,-0.057031,-0.005913
5.187824,0.003624,0.012779,0.005913,0.010872,-0.021935,-0.057031,-0.005913
5.197937,0.003624,0.012779,0.005913,0.010872,-0.021935,-0.057031,-0.005913
5.208087,0.003624,0.012779,0.005913,0.010872,-0.021935,-0.057031,-0.005913
5.218195,0.003624,0.012779,0.005913,0.010872,-0.021935,-0.057031,-0.005913
5.228307,0.003624,0.012779,0.005913,0.010872,-0.021935,-0.057031,-0.005913
5.238418,0.003624,0.012779,0.005913,0.010872,-0.021935,-0.057031,-0.005913
5.248528,0.003624,0.012779,0.005913,0.010872,-0.021935,-0.057031,-0.005913
5.258701,0.003624,0.012779,0.005913,0.010872,-0.021935,-0.057031,-0.005913
5.268792,0.003624,0.012779,0.005913,0.010872,-0.021935,-0.057031,-0.005913
5.278903,0.003624,0.012779,0.005913,0.010872,-0.021935,-0.057031,-0.005913
5.288968,0.003624,0.012779,0.005913,0.010872,-0.021935,-0.057031,-0.005913
5.299033,0.003624,0.012779,0.005913,0.010872,-0.021935,-0.057031,-0.005913
5.309093,0.003624,0.012779,0.005913,0.010872,-0.021935,-0.057031,-0.005913
5.319163,0.003624,0.012779,0.005913,0.010872,-0.021935,-0.057031,-0.005913
5.329225,0.003624,0.012779,0.005913,0.010872,-0.021935,-0.057031,-0.005913
5.339336,0.003624,0.012779,0.005913,0.010872,-0.021935,-0.057031,-0.005913
5.349393,0.003624,0.012779,0.005913,0.010872,-0.021935,-0.057031,-0.005913
5.359465,0.003624,0.012779,0.005913,0.010872,-0.021935,-0.057031,-0.005913
5.369525,0.003624,0.012779,0.005913,0.010872,-0.021935,-0.057031,-0.005913
5.379595,0.003624,0.012779,0.005913,0.010872,-0.021935,-0.057031,-0.005913
5.389671,0.003624,0.012779,0.005913,0.010872,-0.021935,-0.057031,-0.005913
5.399781,0.003624,0.012779,0.005913,0.010872,-0.021935,-0.057031,-0.005913
5.409893,0.003624,0.012779,0.005913,0.010872,-0.021935,-0.057031,-0.005913
5.420003,0.003624,0.012779,0.005913,0.010872,-0.021935,-0.057031,-0.005913
5.430115,0.003624,0.012779,0.005913,0.010872,-0.021935,-0.057031,-0.005913
5.440225,0.003624,0.012779,0.005913,0.010872,-0.021935,-0.057031,-0.005913
5.450338,0.003624,0.012779,0.005913,0.010872,-0.021935,-0.057031,-0.005913
5.460449,0.003624,0.012779,0.005913,0.010872,-0.021935,-0.057031,-0.005913
5.470560,0.003624,0.012779,0.005913,0.010872,-0.021935,-0.057031,-0.005913
5.480673,0.003624,0.012779,0.005913,0.010872,-0.021935,-0.057031,-0.005913
5.490739,0.003624,0.012779,0.005913,0.010872,-0.021935,-0.057031,-0.005913
5.500803,0.003624,0.012779,0.005913,0.010872,-0.021935,-0.057031,-0.005913
5.510867,0.003624,0.012779,0.005913,0.010872,-0.021935,-0.057031,-0.005913
5.520988,0.003624,0.012779,0.005913,0.010872,-0.021935,-0.057031,-0.005913
5.531098,0.003624,0.012779,0.005913,0.010872,-0.021935,-0.057031,-0.005913
5.541209,0.003624,0.012779,0.005913,0.010872,-0.021935,-0.057031,-0.005913
5.551320,0.003624,0.012779,0.005913,0.010872,-0.021935,-0.057031,-0.005913
5.561440,0.003624,0.012779,0.005913,0.010872,-0.021935,-0.057031,-0.005913
5.571599,0.003624,0.012779,0.005913,0.010872,-0.021935,-0.057031,-0.005913
5.581672,0.003624,0.012779,0.005913,0.010872,-0.021935,-0.057031,-0.005913
5.591743,0.003624,0.012779,0.005913,0.010872,-0.021935,-0.057031,-0.005913
5.601857,0.003624,0.012779,0.005913,0.010872,-0.021935,-0.057031,-0.005913
5.611973,0.003624,0.012779,0.005913,0.010872,-0.021935,-0.057031,-0.005913
5.622145,0.003624,0.012779,0.005913,0.010872,-0.021935,-0.057031,-0.005913
5.632266,0.003624,0.012779,0.005913,0.010872,-0.021935,-0.057031,-0.005913
5.642333,0.003624,0.012779,0.005913,0.010872,-0.021935,-0.057031,-0.005913
5.652391,0.003624,0.012779,0.005913,0.010872,-0.021935,-0.057031,-0.005913
5.662502,0.003624,0.012779,0.005913,0.010872,-0.021935,-0.057031,-0.005913
5.672568,0.003624,0.012779,0.005913,0.010872,-0.021935,-0.057031,-0.005913
5.682679,0.003624,0.012779,0.005913,0.010872,-0.021935,-0.057031,-0.005913
5.692884,0.003624,0.012779,0.005913,0.010872,-0.021935,-0.057031,-0.005913
5.702951,0.003624,0.012779,0.005913,0.010872,-0.021935,-0.057031,-0.005913
5.713073,0.003624,0.012779,0.005913,0.010872,-0.021935,-0.057031,-0.005913
5.723186,0.003624,0.012779,0.005913,0.010872,-0.021935,-0.057031,-0.005913
5.733298,0.003624,0.012779,0.005913,0.010872,-0.021935,-0.057031,-0.005913
5.743418,0.003624,0.012779,0.005913,0.010872,-0.021935,-0.057031,-0.005913
5.753898,0.003624,0.012779,0.005913,0.010872,-0.021935,-0.057031,-0.005913
5.764011,0.003624,0.012779,0.005913,0.010872,-0.021935,-0.057031,-0.005913
5.774189,0.003624,0.012779,0.005913,0.010872,-0.021935,-0.057031,-0.005913
5.784303,0.003624,0.012779,0.005913,0.010872,-0.021935,-0.057031,-0.005913
5.794414,0.003624,0.012779,0.005913,0.010872,-0.021935,-0.057031,-0.005913
5.804524,0.003624,0.012779,0.005913,0.010872,-0.021935,-0.057031,-0.005913
5.814610,0.003624,0.012779,0.005913,0.010872,-0.021935,-0.057031,-0.005913
5.824719,0.003624,0.012779,0.005913,0.010872,-0.021935,-0.057031,-0.005913
5.834831,0.003624,0.012779,0.005913,0.010872,-0.021935,-0.057031,-0.005913
5.844947,0.003624,0.012779,0.005913,0.010872,-0.021935,-0.057031,-0.005913
5.855059,0.003624,0.012779,0.005913,0.010872,-0.021935,-0.057031,-0.005913
5.865146,0.003624,0.012779,0.005913,0.010872,-0.021935,-0.057031,-0.005913
5.875233,0.003624,0.012779,0.005913,0.010872,-0.021935,-0.057031,-0.005913
5.885345,0.003624,0.012779,0.005913,0.010872,-0.021935,-0.057031,-0.005913
5.895421,0.003624,0.012779,0.005913,0.010872,-0.021935,-0.057031,-0.005913
5.905508,0.003624,0.012779,0.005913,0.010872,-0.021935,-0.057031,-0.005913
5.915579,0.003624,0.012779,0.005913,0.010872,-0.021935,-0.057031,-0.005913
5.925646,0.003624,0.012779,0.005913,0.010872,-0.021935,-0.057031,-0.005913
5.935759,0.003624,0.012779,0.005913,0.010872,-0.021935,-0.057031,-0.005913
5.945870,0.003624,0.012779,0.005913,0.010872,-0.021935,-0.057031,-0.005913
5.955986,0.003624,0.012779,0.005913,0.010872,-0.021935,-0.057031,-0.005913
5.966322,0.003624,0.012779,0.005913,0.010872,-0.021935,-0.057031,-0.005913
5.976413,0.003624,0.012779,0.005913,0.010872,-0.021935,-0.057031,-0.005913
5.986632,0.003624,0.012779,0.005913,0.010872,-0.021935,-0.057031,-0.005913
5.996743,0.003624,0.012779,0.005913,0.010872,-0.021935,-0.057031,-0.005913
6.006824,0.003624,0.012779,0.005913,0.010872,-0.021935,-0.057031,-0.005913
6.016890,0.003624,0.012779,0.005913,0.010872,-0.021935,-0.057031,-0.005913
6.027605,0.003624,0.012779,0.005913,0.010872,-0.021935,-0.057031,-0.005913
6.037715,0.003624,0.012779,0.005913,0.010872,-0.021935,-0.057031,-0.005913
6.047794,0.003624,0.012779,0.005913,0.010872,-0.021935,-0.057031,-0.005913
6.057863,0.003624,0.012779,0.005913,0.010872,-0.021935,-0.057031,-0.005913
6.067955,0.003624,0.012779,0.005913,0.010872,-0.021935,-0.057031,-0.005913
6.078024,0.003624,0.012779,0.005913,0.010872,-0.021935,-0.057031,-0.005913
6.088135,0.003624,0.012779,0.005913,0.010872,-0.021935,-0.057031,-0.005913
6.098243,0.003624,0.012779,0.005913,0.010872,-0.021935,-0.057031,-0.005913
6.108457,0.003624,0.012779,0.005913,0.010872,-0.021935,-0.057031,-0.005913
6.118570,0.003624,0.012779,0.005913,0.010872,-0.021935,-0.057031,-0.005913
6.128697,0.003624,0.012779,0.005913,0.010872,-0.021935,-0.057031,-0.005913
6.138778,0.003624,0.012779,0.005913,0.010872,-0.021935,-0.057031,-0.005913
6.148844,0.003624,0.012779,0.005913,0.010872,-0.021935,-0.057031,-0.005913
6.158914,0.003624,0.012779,0.005913,0.010872,-0.021935,-0.057031,-0.005913
6.169023,0.003624,0.012779,0.005913,0.010872,-0.021935,-0.057031,-0.005913
6.179118,0.003624,0.012779,0.005913,0.010872,-0.021935,-0.057031,-0.005913
6.189241,0.003624,0.012779,0.005913,0.010872,-0.021935,-0.057031,-0.005913
6.199353,0.003624,0.012779,0.005913,0.010872,-0.021935,-0.057031,-0.005913
6.209476,0.003624,0.012779,0.005913,0.010872,-0.021935,-0.057031,-0.005913
6.219548,0.003624,0.012779,0.005913,0.010872,-0.021935,-0.057031,-0.005913
6.229672,0.003624,0.012779,0.005913,0.010872,-0.021935,-0.057031,-0.005913
6.239863,0.003624,0.012779,0.005913,0.010872,-0.021935,-0.057031,-0.005913
6.249974,0.003624,0.012779,0.005913,0.010872,-0.021935,-0.057031,-0.005913
6.260086,0.003624,0.012779,0.005913,0.010872,-0.021935,-0.057031,-0.005913
6.270173,0.003624,0.012779,0.005913,0.010872,-0.021935,-0.057031,-0.005913
6.280246,0.003624,0.012779,0.005913,0.010872,-0.021935,-0.057031,-0.005913
6.290368,0.003624,0.012779,0.005913,0.010872,-0.021935,-0.057031,-0.005913
6.300399,0.003624,0.012779,0.005913,0.010872,-0.021935,-0.057031,-0.005913
6.310468,0.003624,0.012779,0.005913,0.010872,-0.021935,-0.057031,-0.005913
6.320531,0.003624,0.012779,0.005913,0.010872,-0.021935,-0.057031,-0.005913
6.330598,0.003624,0.012779,0.005913,0.010872,-0.021935,-0.057031,-0.005913
6.340672,0.003624,0.012779,0.005913,0.010872,-0.021935,-0.057031,-0.005913
6.350736,0.003624,0.012779,0.005913,0.010872,-0.021935,-0.057031,-0.005913
6.360802,0.003624,0.012779,0.005913,0.010872,-0.021935,-0.057031,-0.005913
6.370913,0.003624,0.012779,0.005913,0.010872,-0.021935,-0.057031,-0.005913
6.380982,0.003624,0.012779,0.005913,0.010872,-0.021935,-0.057031,-0.005913
6.391053,0.003624,0.012779,0.005913,0.010872,-0.021935,-0.057031,-0.005913
6.401133,0.003624,0.012779,0.005913,0.010872,-0.021935,-0.057031,-0.005913
6.411469,0.003624,0.012779,0.005913,0.010872,-0.021935,-0.057031,-0.005913
6.421589,0.003624,0.012779,0.005913,0.010872,-0.021935,-0.057031,-0.005913
6.431675,0.003624,0.012779,0.005913,0.010872,-0.021935,-0.057031,-0.005913
6.441751,0.003624,0.012779,0.005913,0.010872,-0.021935,-0.057031,-0.005913
6.452262,0.003624,0.012779,0.005913,0.010872,-0.021935,-0.057031,-0.005913
6.462376,0.003624,0.012779,0.005913,0.010872,-0.021935,-0.057031,-0.005913
6.472477,0.003624,0.012779,0.005913,0.010872,-0.021935,-0.057031,-0.005913
6.482557,0.003624,0.012779,0.005913,0.010872,-0.021935,-0.057031,-0.005913
6.492669,0.003624,0.012779,0.005913,0.010872,-0.021935,-0.057031,-0.005913
6.502740,0.003624,0.012779,0.005913,0.010872,-0.021935,-0.057031,-0.005913
6.512827,0.003624,0.012779,0.005913,0.010872,-0.021935,-0.057031,-0.005913
6.522936,0.003624,0.012779,0.005913,0.010872,-0.021935,-0.057031,-0.005913
6.533052,0.003624,0.012779,0.005913,0.010872,-0.021935,-0.057031,-0.005913
6.543138,0.003624,0.012779,0.005913,0.010872,-0.021935,-0.057031,-0.005913
6.553247,0.003624,0.012779,0.005913,0.010872,-0.021935,-0.057031,-0.005913
6.563359,0.003624,0.012779,0.005913,0.010872,-0.021935,-0.057031,-0.005913
6.573509,0.003624,0.012779,0.005913,0.010872,-0.021935,-0.057031,-0.005913
6.583623,0.003624,0.012779,0.005913,0.010872,-0.021935,-0.057031,-0.005913
6.593709,0.003624,0.012779,0.005913,0.010872,-0.021935,-0.057031,-0.005913
6.603817,0.003624,0.012779,0.005913,0.010872,-0.021935,-0.057031,-0.005913
6.613930,0.003624,0.012779,0.005913,0.010872,-0.021935,-0.057031,-0.005913
6.624134,0.003624,0.012779,0.005913,0.010872,-0.021935,-0.057031,-0.005913
6.634253,0.003624,0.012779,0.005913,0.010872,-0.021935,-0.057031,-0.005913
6.644365,0.003624,0.012779,0.005913,0.010872,-0.021935,-0.057031,-0.005913
6.654483,0.003624,0.012779,0.005913,0.010872,-0.021935,-0.057031,-0.005913
6.664553,0.003624,0.012779,0.005913,0.010872,-0.021935,-0.057031,-0.005913
6.674661,0.003624,0.012779,0.005913,0.010872,-0.021935,-0.057031,-0.005913
6.684773,0.003624,0.012779,0.005913,0.010872,-0.021935,-0.057031,-0.005913
6.694859,0.003624,0.012779,0.005913,0.010872,-0.021935,-0.057031,-0.005913
6.704930,0.003624,0.012779,0.005913,0.010872,-0.021935,-0.057031,-0.005913
6.714995,0.003624,0.012779,0.005913,0.010872,-0.021935,-0.057031,-0.005913
6.725111,0.003624,0.012779,0.005913,0.010872,-0.021935,-0.057031,-0.005913
6.735224,0.003624,0.012779,0.005913,0.010872,-0.021935,-0.057031,-0.005913
6.745332,0.003624,0.012779,0.005913,0.010872,-0.021935,-0.057031,-0.005913
6.755451,0.003624,0.012779,0.005913,0.010872,-0.021935,-0.057031,-0.005913
6.765561,0.003624,0.012779,0.005913,0.010872,-0.021935,-0.057031,-0.005913
6.775643,0.003624,0.012779,0.005913,0.010872,-0.021935,-0.057031,-0.005913
6.785735,0.003624,0.012779,0.005913,0.010872,-0.021935,-0.057031,-0.005913
6.795856,0.003624,0.012779,0.005913,0.010872,-0.021935,-0.057031,-0.005913
6.805984,0.003624,0.012779,0.005913,0.010872,-0.021935,-0.057031,-0.005913
6.816059,0.003624,0.012779,0.005913,0.010872,-0.021935,-0.057031,-0.005913
6.826151,0.003624,0.012779,0.005913,0.010872,-0.021935,-0.057031,-0.005913
6.836267,0.003624,0.012779,0.005913,0.010872,-0.021935,-0.057031,-0.005913
6.846450,0.003624,0.012779,0.005913,0.010872,-0.021935,-0.057031,-0.005913
6.856557,0.003624,0.012779,0.005913,0.010872,-0.021935,-0.057031,-0.005913
6.866629,0.003624,0.012779,0.005913,0.010872,-0.021935,-0.057031,-0.005913
6.876718,0.003624,0.012779,0.005913,0.010872,-0.021935,-0.057031,-0.005913
6.886830,0.003624,0.012779,0.005913,0.010872,-0.021935,-0.057031,-0.005913
6.896952,0.003624,0.012779,0.005913,0.010872,-0.021935,-0.057031,-0.005913
6.907031,0.003624,0.012779,0.005913,0.010872,-0.021935,-0.057031,-0.005913
6.917144,0.003624,0.012779,0.005913,0.010872,-0.021935,-0.057031,-0.005913
6.927231,0.003624,0.012779,0.005913,0.010872,-0.021935,-0.057031,-0.005913
6.937342,0.003624,0.012779,0.005913,0.010872,-0.021935,-0.057031,-0.005913
6.947445,0.003624,0.012779,0.005913,0.010872,-0.021935,-0.057031,-0.005913
6.957555,0.003624,0.012779,0.005913,0.010872,-0.021935,-0.057031,-0.005913
6.967668,0.003624,0.012779,0.005913,0.010872,-0.021935,-0.057031,-0.005913
6.977792,0.003624,0.012779,0.005913,0.010872,-0.021935,-0.057031,-0.005913
6.987892,0.003624,0.012779,0.005913,0.010872,-0.021935,-0.057031,-0.005913
6.997964,0.003624,0.012779,0.005913,0.010872,-0.021935,-0.057031,-0.005913
7.008043,0.003624,0.012779,0.005913,0.010872,-0.021935,-0.057031,-0.005913
7.018155,0.003624,0.012779,0.005913,0.010872,-0.021935,-0.057031,-0.005913
7.028270,0.003624,0.012779,0.005913,0.010872,-0.021935,-0.057031,-0.005913
7.038378,0.003624,0.012779,0.005913,0.010872,-0.021935,-0.057031,-0.005913
7.048444,0.003624,0.012779,0.005913,0.010872,-0.021935,-0.057031,-0.005913
7.058514,0.003624,0.012779,0.005913,0.010872,-0.021935,-0.057031,-0.005913
7.068626,0.003624,0.012779,0.005913,0.010872,-0.021935,-0.057031,-0.005913
7.078753,0.003624,0.012779,0.005913,0.010872,-0.021935,-0.057031,-0.005913
7.088863,0.003624,0.012779,0.005913,0.010872,-0.021935,-0.057031,-0.005913
7.098990,0.003624,0.012779,0.005913,0.010872,-0.021935,-0.057031,-0.005913
7.109067,0.003624,0.012779,0.005913,0.010872,-0.021935,-0.057031,-0.005913
7.119180,0.003624,0.012779,0.005913,0.010872,-0.021935,-0.057031,-0.005913
7.129294,0.003624,0.012779,0.005913,0.010872,-0.021935,-0.057031,-0.005913
7.139694,0.003624,0.012779,0.005913,0.010872,-0.021935,-0.057031,-0.005913
7.149809,0.003624,0.012779,0.005913,0.010872,-0.021935,-0.057031,-0.005913
7.159896,0.003624,0.012779,0.005913,0.010872,-0.021935,-0.057031,-0.005913
7.170007,0.003624,0.012779,0.005913,0.010872,-0.021935,-0.057031,-0.005913
7.180117,0.003624,0.012779,0.005913,0.010872,-0.021935,-0.057031,-0.005913
7.190228,0.003624,0.012779,0.005913,0.010872,-0.021935,-0.057031,-0.005913
7.200339,0.003624,0.012779,0.005913,0.010872,-0.021935,-0.057031,-0.005913
7.210422,0.003624,0.012779,0.005913,0.010872,-0.021935,-0.057031,-0.005913
7.220533,0.003624,0.012779,0.005913,0.010872,-0.021935,-0.057031,-0.005913
7.230620,0.003624,0.012779,0.005913,0.010872,-0.021935,-0.057031,-0.005913
7.240730,0.003624,0.012779,0.005913,0.010872,-0.021935,-0.057031,-0.005913
7.250847,0.003624,0.012779,0.005913,0.010872,-0.021935,-0.057031,-0.005913
7.260961,0.003624,0.012779,0.005913,0.010872,-0.021935,-0.057031,-0.005913
7.271073,0.003624,0.012779,0.005913,0.010872,-0.021935,-0.057031,-0.005913
7.281166,0.003624,0.012779,0.005913,0.010872,-0.021935,-0.057031,-0.005913
7.291279,0.003624,0.012779,0.005913,0.010872,-0.021935,-0.057031,-0.005913
7.301409,0.003624,0.012779,0.005913,0.010872,-0.021935,-0.057031,-0.005913
7.311495,0.003624,0.012779,0.005913,0.010872,-0.021935,-0.057031,-0.005913
7.321574,0.003624,0.012779,0.005913,0.010872,-0.021935,-0.057031,-0.005913
7.331685,0.003624,0.012779,0.005913,0.010872,-0.021935,-0.057031,-0.005913
7.341761,0.003624,0.012779,0.005913,0.010872,-0.021935,-0.057031,-0.005913
7.351823,0.003624,0.012779,0.005913,0.010872,-0.021935,-0.057031,-0.005913
7.361885,0.003624,0.012779,0.005913,0.010872,-0.021935,-0.057031,-0.005913
7.371975,0.003624,0.012779,0.005913,0.010872,-0.021935,-0.057031,-0.005913
7.382089,0.003624,0.012779,0.005913,0.010872,-0.021935,-0.057031,-0.005913
7.392168,0.003624,0.012779,0.005913,0.010872,-0.021935,-0.057031,-0.005913
7.402285,0.003624,0.012779,0.005913,0.010872,-0.021935,-0.057031,-0.005913
7.412414,0.003624,0.012779,0.005913,0.010872,-0.021935,-0.057031,-0.005913
7.422482,0.003624,0.012779,0.005913,0.010872,-0.021935,-0.057031,-0.005913
7.432556,0.003624,0.012779,0.005913,0.010872,-0.021935,-0.057031,-0.005913
7.442691,0.003624,0.012779,0.005913,0.010872,-0.021935,-0.057031,-0.005913
7.452803,0.003624,0.012779,0.005913,0.010872,-0.021935,-0.057031,-0.005913
7.462920,0.003624,0.012779,0.005913,0.010872,-0.021935,-0.057031,-0.005913
7.473029,0.003624,0.012779,0.005913,0.010872,-0.021935,-0.057031,-0.005913
7.483141,0.003624,0.012779,0.005913,0.010872,-0.021935,-0.057031,-0.005913
7.493254,0.003624,0.012779,0.005913,0.010872,-0.021935,-0.057031,-0.005913
7.503364,0.003624,0.012779,0.005913,0.010872,-0.021935,-0.057031,-0.005913
7.513442,0.003624,0.012779,0.005913,0.010872,-0.021935,-0.057031,-0.005913
7.523556,0.003624,0.012779,0.005913,0.010872,-0.021935,-0.057031,-0.005913
7.533665,0.003624,0.012779,0.005913,0.010872,-0.021935,-0.057031,-0.005913
7.543779,0.003624,0.012779,0.005913,0.010872,-0.021935,-0.057031,-0.005913
7.553888,0.003624,0.012779,0.005913,0.010872,-0.021935,-0.057031,-0.005913
7.564001,0.003624,0.012779,0.005913,0.010872,-0.021935,-0.057031,-0.005913
7.574113,0.003624,0.012779,0.005913,0.010872,-0.021935,-0.057031,-0.005913
7.584191,0.003624,0.012779,0.005913,0.010872,-0.021935,-0.057031,-0.005913
7.594366,0.003624,0.012779,0.005913,0.010872,-0.021935,-0.057031,-0.005913
7.604491,0.003624,0.012779,0.005913,0.010872,-0.021935,-0.057031,-0.005913
7.614601,0.003624,0.012779,0.005913,0.010872,-0.021935,-0.057031,-0.005913
7.624711,0.003624,0.012779,0.005913,0.010872,-0.021935,-0.057031,-0.005913
7.634820,0.003624,0.012779,0.005913,0.010872,-0.021935,-0.057031,-0.005913
7.644932,0.003624,0.012779,0.005913,0.010872,-0.021935,-0.057031,-0.005913
7.655041,0.003624,0.012779,0.005913,0.010872,-0.021935,-0.057031,-0.005913
7.665154,0.003624,0.012779,0.005913,0.010872,-0.021935,-0.057031,-0.005913
7.675263,0.003624,0.012779,0.005913,0.010872,-0.021935,-0.057031,-0.005913
7.685376,0.003624,0.012779,0.005913,0.010872,-0.021935,-0.057031,-0.005913
7.695472,0.003624,0.012779,0.005913,0.010872,-0.021935,-0.057031,-0.005913
7.705539,0.003624,0.012779,0.005913,0.010872,-0.021935,-0.057031,-0.005913
7.715612,0.003624,0.012779,0.005913,0.010872,-0.021935,-0.057031,-0.005913
7.725724,0.003624,0.012779,0.005913,0.010872,-0.021935,-0.057031,-0.005913
7.735791,0.003624,0.012779,0.005913,0.010872,-0.021935,-0.057031,-0.005913
7.745860,0.003624,0.012779,0.005913,0.010872,-0.021935,-0.057031,-0.005913
7.755969,0.003624,0.012779,0.005913,0.010872,-0.021935,-0.057031,-0.005913
7.766307,0.003624,0.012779,0.005913,0.010872,-0.021935,-0.057031,-0.005913
7.776402,0.003624,0.012779,0.005913,0.010872,-0.021935,-0.057031,-0.005913
7.786466,0.003624,0.012779,0.005913,0.010872,-0.021935,-0.057031,-0.005913
7.796534,0.003624,0.012779,0.005913,0.010872,-0.021935,-0.057031,-0.005913
7.806597,0.003624,0.012779,0.005913,0.010872,-0.021935,-0.057031,-0.005913
7.816676,0.003624,0.012779,0.005913,0.010872,-0.021935,-0.057031,-0.005913
7.826791,0.003624,0.012779,0.005913,0.010872,-0.021935,-0.057031,-0.005913
7.836901,0.003624,0.012779,0.005913,0.010872,-0.021935,-0.057031,-0.005913
7.846989,0.003624,0.012779,0.005913,0.010872,-0.021935,-0.057031,-0.005913
7.857326,0.003624,0.012779,0.005913,0.010872,-0.021935,-0.057031,-0.005913
7.867398,0.003624,0.012779,0.005913,0.010872,-0.021935,-0.057031,-0.005913
7.877464,0.003624,0.012779,0.005913,0.010872,-0.021935,-0.057031,-0.005913
7.887576,0.003624,0.012779,0.005913,0.010872,-0.021935,-0.057412,-0.005913
7.897645,0.003624,0.012779,0.005913,0.010872,-0.021935,-0.057412,-0.005913
7.907713,0.003624,0.012779,0.005913,0.010872,-0.021935,-0.058175,-0.005913
7.917826,0.003624,0.012779,0.005913,0.010872,-0.021935,-0.058557,-0.005913
7.927916,0.003624,0.012779,0.005913,0.010872,-0.021553,-0.059319,-0.005913
7.937976,0.003624,0.012779,0.005913,0.010872,-0.021553,-0.059701,-0.005913
7.948041,0.003624,0.012779,0.005913,0.010872,-0.021553,-0.061227,-0.005913
7.958109,0.003624,0.012779,0.005913,0.010872,-0.021553,-0.062753,-0.005913
7.968173,0.003624,0.012779,0.005913,0.010872,-0.021553,-0.065804,-0.005913
7.978238,0.003624,0.012779,0.005913,0.010872,-0.021553,-0.067330,-0.005913
7.988318,0.003624,0.012779,0.005913,0.010872,-0.021553,-0.070764,-0.005913
7.998397,0.003624,0.012779,0.005913,0.010872,-0.021553,-0.072671,-0.005913
8.008465,0.003624,0.012779,0.005913,0.010872,-0.021553,-0.076486,-0.005913
8.018531,0.003624,0.012779,0.005913,0.010872,-0.021553,-0.078774,-0.005913
8.028596,0.003624,0.012779,0.005913,0.010872,-0.021553,-0.082589,-0.005913
8.038673,0.003624,0.012779,0.005913,0.010872,-0.021553,-0.084878,-0.005913
8.048738,0.003624,0.012779,0.005913,0.010872,-0.021553,-0.088693,-0.005913
8.058846,0.003624,0.012779,0.005913,0.010872,-0.021172,-0.090600,-0.005913
8.068958,0.003624,0.012779,0.005913,0.010872,-0.020790,-0.094034,-0.005913
8.079042,0.003624,0.012779,0.005913,0.010872,-0.020409,-0.095942,-0.005913
8.089153,0.003624,0.012779,0.005913,0.010872,-0.020027,-0.099375,-0.005913
8.099299,0.003624,0.012779,0.005913,0.010872,-0.019646,-0.101282,-0.005913
8.109435,0.003624,0.012779,0.005913,0.010872,-0.019646,-0.105478,-0.005913
8.119547,0.003624,0.012779,0.005913,0.010872,-0.019646,-0.107386,-0.005913
8.129658,0.003624,0.012779,0.005913,0.010872,-0.020027,-0.111200,-0.005913
8.139770,0.003624,0.012779,0.005913,0.010872,-0.020027,-0.112726,-0.005913
8.149859,0.003624,0.012779,0.005913,0.010872,-0.020027,-0.116541,-0.005913
8.159966,0.003624,0.012779,0.005913,0.010872,-0.020027,-0.118830,-0.005913
8.170080,0.003624,0.012779,0.005913,0.010872,-0.020027,-0.123026,-0.005913
8.180196,0.003624,0.012779,0.005913,0.010872,-0.020027,-0.125315,-0.005913
8.190307,0.003624,0.012779,0.005913,0.010872,-0.019646,-0.129511,-0.005913
8.200424,0.003624,0.012779,0.005913,0.010872,-0.019646,-0.131800,-0.005913
8.210506,0.003624,0.012779,0.005913,0.010872,-0.019646,-0.135614,-0.005913
8.220617,0.003624,0.012779,0.005913,0.010872,-0.019646,-0.137140,-0.005913
8.230711,0.003624,0.012779,0.005913,0.010872,-0.019646,-0.140192,-0.005913
8.240819,0.003624,0.012779,0.005913,0.010872,-0.019646,-0.142099,-0.005913
8.250939,0.003624,0.012779,0.005913,0.010872,-0.019646,-0.145533,-0.005913
8.261050,0.003624,0.012779,0.005913,0.010872,-0.019646,-0.147440,-0.005913
8.271162,0.003624,0.012779,0.005913,0.010872,-0.019646,-0.151636,-0.005913
