meetsitaram/go2-rebot/recordings/test_20260423_094354.csv
t,joint1,joint2,joint3,joint4,joint5,joint6,gripper
0.000001,-0.000191,-0.000191,-0.000191,-0.000191,-0.000191,-0.000191,-0.000191
0.010076,-0.000191,-0.000191,-0.000191,-0.000191,-0.000191,-0.000191,-0.000191
0.020158,-0.000191,-0.000191,-0.000191,-0.000191,-0.000191,-0.000191,-0.000191
0.030230,-0.000191,-0.000191,-0.000191,-0.000191,-0.000191,-0.000191,-0.000191
0.040294,-0.000191,-0.000191,-0.000191,-0.000191,-0.000191,-0.000191,-0.000191
0.050368,-0.000191,-0.000191,-0.000191,-0.000191,-0.000191,-0.000191,-0.000191
0.061450,-0.000191,-0.000191,-0.000191,-0.000191,-0.000191,-0.000191,-0.000191
0.071528,-0.000191,-0.000191,-0.000191,-0.000191,-0.000191,-0.000191,-0.000191
0.081564,-0.000191,-0.000191,-0.000191,-0.000191,-0.000191,-0.000191,-0.000191
0.091646,-0.000191,-0.000191,-0.000191,-0.000191,-0.000191,-0.000191,-0.000191
0.101717,-0.000191,-0.000191,-0.000191,-0.000191,-0.000191,-0.000191,-0.000191
0.111794,-0.000191,-0.000191,-0.000191,-0.000191,-0.000191,-0.000191,-0.000191
0.121863,-0.000191,-0.000191,-0.000191,-0.000191,-0.000191,-0.000191,-0.000191
0.131942,-0.000191,-0.000191,-0.000191,-0.000191,-0.000191,-0.000191,-0.000191
0.142016,-0.000191,-0.000191,-0.000191,-0.000191,-0.000191,-0.000191,-0.000191
0.152089,-0.000191,-0.000191,-0.000191,-0.000191,-0.000191,-0.000191,-0.000191
0.162158,-0.000191,-0.000191,-0.000191,-0.000191,-0.000191,-0.000191,-0.000191
0.172245,-0.000191,-0.000191,-0.000191,-0.000191,-0.000191,-0.000191,-0.000191
0.182325,-0.000191,-0.000191,-0.000191,-0.000191,-0.000191,-0.000191,-0.000191
0.192403,-0.000191,-0.000191,-0.000191,-0.000191,-0.000191,-0.000191,-0.000191
0.202504,-0.000191,-0.000191,-0.000191,-0.000191,-0.000191,-0.000191,-0.000191
0.212606,-0.000191,-0.000191,-0.000191,-0.000191,-0.000191,-0.000191,-0.000191
0.222676,-0.000191,-0.000191,-0.000191,-0.000191,-0.000191,-0.000191,-0.000191
0.232745,-0.000191,-0.000191,-0.000191,-0.000191,-0.000191,-0.000191,-0.000191
0.242814,-0.000191,-0.000191,-0.000191,-0.000191,-0.000191,-0.000191,-0.000191
0.252897,-0.000191,-0.000191,-0.000191,-0.000191,-0.000191,-0.000191,-0.000191
0.262967,-0.000191,-0.000191,-0.000191,-0.000191,-0.000191,-0.000191,-0.000191
0.273031,-0.000191,-0.000191,-0.000191,-0.000191,-0.000191,-0.000191,-0.000191
0.283096,-0.000191,-0.000191,-0.000191,-0.000191,-0.000191,-0.000191,-0.000191
0.293159,-0.000191,-0.000191,-0.000191,-0.000191,-0.000191,-0.000191,-0.000191
0.303225,-0.000191,-0.000191,-0.000191,-0.000191,-0.000191,-0.000191,-0.000191
0.313266,-0.000191,-0.000191,-0.000191,-0.000191,-0.000191,-0.000191,-0.000191
0.323339,-0.000191,-0.000191,-0.000191,-0.000191,-0.000191,-0.000191,-0.000191
0.333419,-0.000191,-0.000191,-0.000191,-0.000191,-0.000191,-0.000191,-0.000191
0.343490,-0.000191,-0.000191,-0.000191,-0.000191,-0.000191,-0.000191,-0.000191
0.353563,-0.000191,-0.000191,-0.000191,-0.000191,-0.000191,-0.000191,-0.000191
0.363636,-0.000191,-0.000191,-0.000191,-0.000191,-0.000191,-0.000191,-0.000191
0.373707,-0.000191,-0.000191,-0.000191,-0.000191,-0.000191,-0.000191,-0.000191
0.383781,-0.000191,-0.000191,-0.000191,-0.000191,-0.000191,-0.000191,-0.000191
0.393847,-0.000191,-0.000191,-0.000191,-0.000191,-0.000191,-0.000191,-0.000191
0.403915,-0.000191,-0.000191,-0.000191,-0.000191,-0.000191,-0.000191,-0.000191
0.413991,-0.000191,-0.000191,-0.000191,-0.000191,-0.000191,-0.000191,-0.000191
0.424065,-0.000191,-0.000191,-0.000191,-0.000191,-0.000191,-0.000191,-0.000191
0.434401,-0.000191,-0.000191,-0.000191,-0.000191,-0.000191,-0.000191,-0.000191
0.444452,-0.000191,-0.000191,-0.000191,-0.000191,-0.000191,-0.000191,-0.000191
0.454521,-0.000191,-0.000191,-0.000191,-0.000191,-0.000191,-0.000191,-0.000191
0.464567,-0.000191,-0.000191,-0.000191,-0.000191,-0.000191,-0.000191,-0.000191
0.474639,-0.000191,-0.000191,-0.000191,-0.000191,-0.000191,-0.000191,-0.000191
0.484712,-0.000191,-0.000191,-0.000191,-0.000191,-0.000191,-0.000191,-0.000191
0.494787,-0.000191,-0.000191,-0.000191,-0.000191,-0.000191,-0.000191,-0.000191
0.504864,-0.000191,-0.000191,-0.000191,-0.000191,-0.000191,-0.000191,-0.000191
0.514936,-0.000191,-0.000191,-0.000191,-0.000191,-0.000191,-0.000191,-0.000191
0.525011,-0.000191,-0.000191,-0.000191,-0.000191,-0.000191,-0.000191,-0.000191
0.535091,-0.000191,-0.000191,-0.000191,-0.000191,-0.000191,-0.000191,-0.000191
0.545170,-0.000191,-0.000191,-0.000191,-0.000191,-0.000191,-0.000191,-0.000191
0.555241,-0.000191,-0.000191,-0.000191,-0.000191,-0.000191,-0.000191,-0.000191
0.565329,-0.000191,-0.000191,-0.000191,-0.000191,-0.000191,-0.000191,-0.000191
0.575397,-0.000191,-0.000191,-0.000191,-0.000191,-0.000191,-0.000191,-0.000191
0.585443,-0.000191,-0.000191,-0.000191,-0.000191,-0.000191,-0.000191,-0.000191
0.595518,-0.000191,-0.000191,-0.000191,-0.000191,-0.000191,-0.000191,-0.000191
0.605593,-0.000191,-0.000191,-0.000191,-0.000191,-0.000191,-0.000191,-0.000191
0.615660,-0.000191,-0.000191,-0.000191,-0.000191,-0.000191,-0.000191,-0.000191
0.625724,-0.000191,-0.000191,-0.000191,-0.000191,-0.000191,-0.000191,-0.000191
0.635807,-0.000191,-0.000191,-0.000191,-0.000191,-0.000191,-0.000191,-0.000191
0.645876,-0.000191,-0.000191,-0.000191,-0.000191,-0.000191,-0.000191,-0.000191
0.655941,-0.000191,-0.000191,-0.000191,-0.000191,-0.000191,-0.000191,-0.000191
0.666008,-0.000191,-0.000191,-0.000191,-0.000191,-0.000191,-0.000191,-0.000191
0.676077,-0.000191,-0.000191,-0.000191,-0.000191,-0.000191,-0.000191,-0.000191
0.686146,-0.000191,-0.000191,-0.000191,-0.000191,-0.000191,-0.000191,-0.000191
0.696226,-0.000191,-0.000191,-0.000191,-0.000191,-0.000191,-0.000191,-0.000191
0.706293,-0.000191,-0.000191,-0.000191,-0.000191,-0.000191,-0.000191,-0.000191
0.716358,-0.000191,-0.000191,-0.000191,-0.000191,-0.000191,-0.000191,-0.000191
0.726431,-0.000191,-0.000191,-0.000191,-0.000191,-0.000191,-0.000191,-0.000191
0.736503,-0.000191,-0.000191,-0.000191,-0.000191,-0.000191,-0.000191,-0.000191
0.746578,-0.000191,-0.000191,-0.000191,-0.000191,-0.000191,-0.000191,-0.000191
0.756639,-0.000191,-0.000191,-0.000191,-0.000191,-0.000191,-0.000191,-0.000191
0.766715,-0.000191,-0.000191,-0.000191,-0.000191,-0.000191,-0.000191,-0.000191
0.776781,-0.000191,-0.000191,-0.000191,-0.000191,-0.000191,-0.000191,-0.000191
0.786853,-0.000191,-0.000191,-0.000191,-0.000191,-0.000191,-0.000191,-0.000191
0.796922,-0.000191,-0.000191,-0.000191,-0.000191,-0.000191,-0.000191,-0.000191
0.806993,-0.000191,-0.000191,-0.000191,-0.000191,-0.000191,-0.000191,-0.000191
0.817063,-0.000191,-0.000191,-0.000191,-0.000191,-0.000191,-0.000191,-0.000191
0.828105,-0.000191,-0.000191,-0.000191,-0.000191,-0.000191,-0.000191,-0.000191
0.840448,-0.000191,-0.000191,-0.000191,-0.000191,-0.000191,-0.000191,-0.000191
0.850519,-0.000191,-0.000191,-0.000191,-0.000191,-0.000191,-0.000191,-0.000191
0.860596,-0.000191,-0.000191,-0.000191,-0.000191,-0.000191,-0.000191,-0.000191
0.870664,-0.000191,-0.000191,-0.000191,-0.000191,-0.000191,-0.000191,-0.000191
0.880741,-0.000191,-0.000191,-0.000191,-0.000191,-0.000191,-0.000191,-0.000191
0.890822,-0.000191,-0.000191,-0.000191,-0.000191,-0.000191,-0.000191,-0.000191
0.900904,-0.000191,-0.000191,-0.000191,-0.000191,-0.000191,-0.000191,-0.000191
0.910967,-0.000191,-0.000191,-0.000191,-0.000191,-0.000191,-0.000191,-0.000191
0.921047,-0.000191,-0.000191,-0.000191,-0.000191,-0.000191,-0.000191,-0.000191
0.931122,-0.000191,-0.000191,-0.000191,-0.000191,-0.000191,-0.000191,-0.000191
0.941193,-0.000191,-0.000191,-0.000191,-0.000191,-0.000191,-0.000191,-0.000191
0.951266,-0.000191,-0.000191,-0.000191,-0.000191,-0.000191,-0.000191,-0.000191
0.961349,-0.000191,-0.000191,-0.000191,-0.000191,-0.000191,-0.000191,-0.000191
0.971424,-0.000191,-0.000191,-0.000191,-0.000191,-0.000191,-0.000191,-0.000191
0.981508,-0.000191,-0.000191,-0.000191,-0.000191,-0.000191,-0.000191,-0.000191
0.991581,-0.000191,-0.000191,-0.000191,-0.000191,-0.000191,-0.000191,-0.000191
1.001653,-0.000191,-0.000191,-0.000191,-0.000191,-0.000191,-0.000191,-0.000191
1.011719,-0.000191,-0.000191,-0.000191,-0.000191,-0.000191,-0.000191,-0.000191
1.021788,-0.000191,-0.000191,-0.000191,-0.000191,-0.000191,-0.000191,-0.000191
1.031855,-0.000191,-0.000191,-0.000191,-0.000191,-0.000191,-0.000191,-0.000191
1.041922,-0.000191,-0.000191,-0.000191,-0.000191,-0.000191,-0.000191,-0.000191
1.051989,-0.000191,-0.000191,-0.000191,-0.000191,-0.000191,-0.000191,-0.000191
1.062068,-0.000191,-0.000191,-0.000191,-0.000191,-0.000191,-0.000191,-0.000191
1.072140,-0.000191,-0.000191,-0.000191,-0.000191,-0.000191,-0.000191,-0.000191
1.082210,-0.000191,-0.000191,-0.000191,-0.000191,-0.000191,-0.000191,-0.000191
1.092274,-0.000191,-0.000191,-0.000191,-0.000191,-0.000191,-0.000191,-0.000191
1.102340,-0.000191,-0.000191,-0.000191,-0.000191,-0.000191,-0.000191,-0.000191
1.112455,-0.000191,-0.000191,-0.000191,-0.000191,-0.000191,-0.000191,-0.000191
1.122573,-0.000191,-0.000191,-0.000191,-0.000191,-0.000191,-0.000191,-0.000191
1.132731,-0.000191,-0.000191,-0.000191,-0.000191,-0.000191,-0.000191,-0.000191
1.142828,-0.000191,-0.000191,-0.000191,-0.000191,-0.000191,-0.000191,-0.000191
1.152924,-0.000191,-0.000191,-0.000191,-0.000191,-0.000191,-0.000191,-0.000191
1.163044,-0.000191,-0.000191,-0.000191,-0.000191,-0.000191,-0.000191,-0.000191
1.173383,-0.000191,-0.000191,-0.000191,-0.000191,-0.000191,-0.000191,-0.000191
1.183484,-0.000191,-0.000191,-0.000191,-0.000191,-0.000191,-0.000191,-0.000191
1.193664,-0.000191,-0.000191,-0.000191,-0.000191,-0.000191,-0.000191,-0.000191
1.203762,-0.000191,-0.000191,-0.000191,-0.000191,-0.000191,-0.000191,-0.000191
1.213873,-0.000191,-0.000191,-0.000191,-0.000191,-0.000191,-0.000191,-0.000191
1.223946,-0.000191,-0.000191,-0.000191,-0.000191,-0.000191,-0.000191,-0.000191
1.234014,-0.000191,-0.000191,-0.000191,-0.000191,-0.000191,-0.000191,-0.000191
1.244111,-0.000191,-0.000191,-0.000191,-0.000191,-0.000191,-0.000191,-0.000191
1.254205,-0.000191,-0.000191,-0.000191,-0.000191,-0.000191,-0.000191,-0.000191
1.264363,-0.000191,-0.000191,-0.000191,-0.000191,-0.000191,-0.000191,-0.000191
1.274473,-0.000191,-0.000191,-0.000191,-0.000191,-0.000191,-0.000191,-0.000191
1.284581,-0.000191,-0.000191,-0.000191,-0.000191,-0.000191,-0.000191,-0.000191
1.294691,-0.000191,-0.000191,-0.000191,-0.000191,-0.000191,-0.000191,-0.000191
1.304807,-0.000191,-0.000191,-0.000191,-0.000191,-0.000191,-0.000191,-0.000191
1.314900,-0.000191,-0.000191,-0.000191,-0.000191,-0.000191,-0.000191,-0.000191
1.325014,-0.000191,-0.000191,-0.000191,-0.000191,-0.000191,-0.000191,-0.000191
1.335137,-0.000191,-0.000191,-0.000191,-0.000191,-0.000191,-0.000191,-0.000191
1.345246,-0.000191,-0.000191,-0.000191,-0.000191,-0.000191,-0.000191,-0.000191
1.355359,-0.000191,-0.000191,-0.000191,-0.000191,-0.000191,-0.000191,-0.000191
1.365458,-0.000191,-0.000191,-0.000191,-0.000191,-0.000191,-0.000191,-0.000191
1.375579,-0.000191,-0.000191,-0.000191,-0.000191,-0.000191,-0.000191,-0.000191
1.385649,-0.000191,-0.000191,-0.000191,-0.000191,-0.000191,-0.000191,-0.000191
1.395739,-0.000191,-0.000191,-0.000191,-0.000191,-0.000191,-0.000191,-0.000191
1.405854,-0.000191,-0.000191,-0.000191,-0.000191,-0.000191,-0.000191,-0.000191
1.415931,-0.000191,-0.000191,-0.000191,-0.000191,-0.000191,-0.000191,-0.000191
1.425998,-0.000191,-0.000191,-0.000191,-0.000191,-0.000191,-0.000191,-0.000191
1.436158,-0.000191,-0.000191,-0.000191,-0.000191,-0.000191,-0.000191,-0.000191
1.446263,-0.000191,-0.000191,-0.000191,-0.000191,-0.000191,-0.000191,-0.000191
1.456374,-0.000191,-0.000191,-0.000191,-0.000191,-0.000191,-0.000191,-0.000191
1.466434,-0.000191,-0.000191,-0.000191,-0.000191,-0.000191,-0.000191,-0.000191
1.476500,-0.000191,-0.000191,-0.000191,-0.000191,-0.000191,-0.000191,-0.000191
1.486566,-0.000191,-0.000191,-0.000191,-0.000191,-0.000191,-0.000191,-0.000191
1.496630,-0.000191,-0.000191,-0.000191,-0.000191,-0.000191,-0.000191,-0.000191
1.506701,-0.000191,-0.000191,-0.000191,-0.000191,-0.000191,-0.000191,-0.000191
1.516769,-0.000191,-0.000191,-0.000191,-0.000191,-0.000191,-0.000191,-0.000191
1.526834,-0.000191,-0.000191,-0.000191,-0.000191,-0.000191,-0.000191,-0.000191
1.536902,-0.000191,-0.000191,-0.000191,-0.000191,-0.000191,-0.000191,-0.000191
1.546996,-0.000191,-0.000191,-0.000191,-0.000191,-0.000191,-0.000191,-0.000191
1.557107,-0.000191,-0.000191,-0.000191,-0.000191,-0.000191,-0.000191,-0.000191
1.567219,-0.000191,-0.000191,-0.000191,-0.000191,-0.000191,-0.000191,-0.000191
1.577331,-0.000191,-0.000191,-0.000191,-0.000191,-0.000191,-0.000191,-0.000191
1.587444,-0.000191,-0.000191,-0.000191,-0.000191,-0.000191,-0.000191,-0.000191
1.597559,-0.000191,-0.000191,-0.000191,-0.000191,-0.000191,-0.000191,-0.000191
1.607669,-0.000191,-0.000191,-0.000191,-0.000191,-0.000191,-0.000191,-0.000191
1.617765,-0.000191,-0.000191,-0.000191,-0.000191,-0.000191,-0.000191,-0.000191
1.627860,-0.000191,-0.000191,-0.000191,-0.000191,-0.000191,-0.000191,-0.000191
1.637973,-0.000191,-0.000191,-0.000191,-0.000191,-0.000191,-0.000191,-0.000191
1.648084,-0.000191,-0.000191,-0.000191,-0.000191,-0.000191,-0.000191,-0.000191
1.658195,-0.000191,-0.000191,-0.000191,-0.000191,-0.000191,-0.000191,-0.000191
1.668297,-0.000191,-0.000191,-0.000191,-0.000191,-0.000191,-0.000191,-0.000191
1.678408,-0.000191,-0.000191,-0.000191,-0.000191,-0.000191,-0.000191,-0.000191
1.688505,-0.000191,-0.000191,-0.000191,-0.000191,-0.000191,-0.000191,-0.000191
1.698599,-0.000191,-0.000191,-0.000191,-0.000191,-0.000191,-0.000191,-0.000191
1.708695,-0.000191,-0.000191,-0.000191,-0.000191,-0.000191,-0.000191,-0.000191
1.718800,-0.000191,-0.000191,-0.000191,-0.000191,-0.000191,-0.000191,-0.000191
1.728910,-0.000191,-0.000191,-0.000191,-0.000191,-0.000191,-0.000191,-0.000191
1.739022,-0.000191,-0.000191,-0.000191,-0.000191,-0.000191,-0.000191,-0.000191
1.749164,-0.000191,-0.000191,-0.000191,-0.000191,-0.000191,-0.000191,-0.000191
1.759241,-0.000191,-0.000191,-0.000191,-0.000191,-0.000191,-0.000191,-0.000191
1.769336,-0.000191,-0.000191,-0.000191,-0.000191,-0.000191,-0.000191,-0.000191
1.779449,-0.000191,-0.000191,-0.000191,-0.000191,-0.000191,-0.000191,-0.000191
1.789510,-0.000191,-0.000191,-0.000191,-0.000191,-0.000191,-0.000191,-0.000191
1.799576,-0.000191,-0.000191,-0.000191,-0.000191,-0.000191,-0.000191,-0.000191
1.809640,-0.000191,-0.000191,-0.000191,-0.000191,-0.000191,-0.000191,-0.000191
1.819711,-0.000191,-0.000191,-0.000191,-0.000191,-0.000191,-0.000191,-0.000191
1.829777,-0.000191,-0.000191,-0.000191,-0.000191,-0.000191,-0.000191,-0.000191
1.839859,-0.000191,-0.000191,-0.000191,-0.000191,-0.000191,-0.000191,-0.000191
1.849924,-0.000191,-0.000191,-0.000191,-0.000191,-0.000191,-0.000191,-0.000191
1.860035,-0.000191,-0.000191,-0.000191,-0.000191,-0.000191,-0.000191,-0.000191
1.870150,-0.000191,-0.000191,-0.000191,-0.000191,-0.000191,-0.000191,-0.000191
1.880261,-0.000191,-0.000191,-0.000191,-0.000191,-0.000191,-0.000191,-0.000191
1.890326,-0.000191,-0.000191,-0.000191,-0.000191,-0.000191,-0.000191,-0.000191
1.900388,-0.000191,-0.000191,-0.000191,-0.000191,-0.000191,-0.000191,-0.000191
1.910430,-0.000191,-0.000191,-0.000191,-0.000191,-0.000191,-0.000191,-0.000191
1.920497,-0.000191,-0.000191,-0.000191,-0.000191,-0.000191,-0.000191,-0.000191
1.930565,-0.000191,-0.000191,-0.000191,-0.000191,-0.000191,-0.000191,-0.000191
1.940635,-0.000191,-0.000191,-0.000191,-0.000191,-0.000191,-0.000191,-0.000191
1.950729,-0.000191,-0.000191,-0.000191,-0.000191,-0.000191,-0.000191,-0.000191
1.960823,-0.000191,-0.000191,-0.000191,-0.000191,-0.000191,-0.000191,-0.000191
1.970919,-0.000191,-0.000191,-0.000191,-0.000191,-0.000191,-0.000191,-0.000191
1.981029,-0.000191,-0.000191,-0.000191,-0.000191,-0.000191,-0.000191,-0.000191
1.991124,-0.000191,-0.000191,-0.000191,-0.000191,-0.000191,-0.000191,-0.000191
2.001281,-0.000191,-0.000191,-0.000191,-0.000191,-0.000191,-0.000191,-0.000191
2.011351,-0.000191,-0.000191,-0.000191,-0.000191,-0.000191,-0.000191,-0.000191
2.021452,-0.000191,-0.000191,-0.000191,-0.000191,-0.000191,-0.000191,-0.000191
2.031562,-0.000191,-0.000191,-0.000191,-0.000191,-0.000191,-0.000191,-0.000191
2.041673,-0.000191,-0.000191,-0.000191,-0.000191,-0.000191,-0.000191,-0.000191
2.051774,-0.000191,-0.000191,-0.000191,-0.000191,-0.000191,-0.000191,-0.000191
2.061884,-0.000191,-0.000191,-0.000191,-0.000191,-0.000191,-0.000191,-0.000191
2.071995,-0.000191,-0.000191,-0.000191,-0.000191,-0.000191,-0.000191,-0.000191
2.082090,-0.000191,-0.000191,-0.000191,-0.000191,-0.000191,-0.000191,-0.000191
2.092200,-0.000191,-0.000191,-0.000191,-0.000191,-0.000191,-0.000191,-0.000191
2.102295,-0.000191,-0.000191,-0.000191,-0.000191,-0.000191,-0.000191,-0.000191
2.112361,-0.000191,-0.000191,-0.000191,-0.000191,-0.000191,-0.000191,-0.000191
2.122428,-0.000191,-0.000191,-0.000191,-0.000191,-0.000191,-0.000191,-0.000191
2.132493,-0.000191,-0.000191,-0.000191,-0.000191,-0.000191,-0.000191,-0.000191
2.142563,-0.000191,-0.000191,-0.000191,-0.000191,-0.000191,-0.000191,-0.000191
2.152640,-0.000191,-0.000191,-0.000191,-0.000191,-0.000191,-0.000191,-0.000191
2.162746,-0.000191,-0.000191,-0.000191,-0.000191,-0.000191,-0.000191,-0.000191
2.172859,-0.000191,-0.000191,-0.000191,-0.000191,-0.000191,-0.000191,-0.000191
2.182954,-0.000191,-0.000191,-0.000191,-0.000191,-0.000191,-0.000191,-0.000191
2.193064,-0.000191,-0.000191,-0.000191,-0.000191,-0.000191,-0.000191,-0.000191
2.203177,-0.000191,-0.000191,-0.000191,-0.000191,-0.000191,-0.000191,-0.000191
2.213288,-0.000191,-0.000191,-0.000191,-0.000191,-0.000191,-0.000191,-0.000191
2.223385,-0.000191,-0.000191,-0.000191,-0.000191,-0.000191,-0.000191,-0.000191
2.233483,-0.000191,-0.000191,-0.000191,-0.000191,-0.000191,-0.000191,-0.000191
2.243595,-0.000191,-0.000191,-0.000191,-0.000191,-0.000191,-0.000191,-0.000191
2.253707,-0.000191,-0.000191,-0.000191,-0.000191,-0.000191,-0.000191,-0.000191
2.263799,-0.000191,-0.000191,-0.000191,-0.000191,-0.000191,-0.000191,-0.000191
2.273866,-0.000191,-0.000191,-0.000191,-0.000191,-0.000191,-0.000191,-0.000191
2.283962,-0.000191,-0.000191,-0.000191,-0.000191,-0.000191,-0.000191,-0.000191
2.294025,-0.000191,-0.000191,-0.000191,-0.000191,-0.000191,-0.000191,-0.000191
2.304088,-0.000191,-0.000191,-0.000191,-0.000191,-0.000191,-0.000191,-0.000191
2.314152,-0.000191,-0.000191,-0.000191,-0.000191,-0.000191,-0.000191,-0.000191
2.324223,-0.000191,-0.000191,-0.000191,-0.000191,-0.000191,-0.000191,-0.000191
2.334317,-0.000191,-0.000191,-0.000191,-0.000191,-0.000191,-0.000191,-0.000191
2.344443,-0.000191,-0.000191,-0.000191,-0.000191,-0.000191,-0.000191,-0.000191
2.354526,-0.000191,-0.000191,-0.000191,-0.000191,-0.000191,-0.000191,-0.000191
2.364704,-0.000191,-0.000191,-0.000191,-0.000191,-0.000191,-0.000191,-0.000191
2.374815,-0.000191,-0.000191,-0.000191,-0.000191,-0.000191,-0.000191,-0.000191
2.384911,-0.000191,-0.000191,-0.000191,-0.000191,-0.000191,-0.000191,-0.000191
2.395022,-0.000191,-0.000191,-0.000191,-0.000191,-0.000191,-0.000191,-0.000191
2.405134,-0.000191,-0.000191,-0.000191,-0.000191,-0.000191,-0.000191,-0.000191
2.415237,-0.000191,-0.000191,-0.000191,-0.000191,-0.000191,-0.000191,-0.000191
2.425307,-0.000191,-0.000191,-0.000191,-0.000191,-0.000191,-0.000191,-0.000191
2.435394,-0.000191,-0.000191,-0.000191,-0.000191,-0.000191,-0.000191,-0.000191
2.445425,-0.000191,-0.000191,-0.000191,-0.000191,-0.000191,-0.000191,-0.000191
2.455489,-0.000191,-0.000191,-0.000191,-0.000191,-0.000191,-0.000191,-0.000191
2.465554,-0.000191,-0.000191,-0.000191,-0.000191,-0.000191,-0.000191,-0.000191
2.475623,-0.000191,-0.000191,-0.000191,-0.000191,-0.000191,-0.000191,-0.000191
2.485720,-0.000191,-0.000191,-0.000191,-0.000191,-0.000191,-0.000191,-0.000191
2.495830,-0.000191,-0.000191,-0.000191,-0.000191,-0.000191,-0.000191,-0.000191
2.505947,-0.000191,-0.000191,-0.000191,-0.000191,-0.000191,-0.000191,-0.000191
2.516034,-0.000191,-0.000191,-0.000191,-0.000191,-0.000191,-0.000191,-0.000191
2.526101,-0.000191,-0.000191,-0.000191,-0.000191,-0.000191,-0.000191,-0.000191
2.536166,-0.000191,-0.000191,-0.000191,-0.000191,-0.000191,-0.000191,-0.000191
2.546230,-0.000191,-0.000191,-0.000191,-0.000191,-0.000191,-0.000191,-0.000191
2.556310,-0.000191,-0.000191,-0.000191,-0.000191,-0.000191,-0.000191,-0.000191
2.566375,-0.000191,-0.000191,-0.000191,-0.000191,-0.000191,-0.000191,-0.000191
2.576516,-0.000191,-0.000191,-0.000191,-0.000191,-0.000191,-0.000191,-0.000191
2.586581,-0.000191,-0.000191,-0.000191,-0.000191,-0.000191,-0.000191,-0.000191
2.596643,-0.000191,-0.000191,-0.000191,-0.000191,-0.000191,-0.000191,-0.000191
2.606706,-0.000191,-0.000191,-0.000191,-0.000191,-0.000191,-0.000191,-0.000191
2.616771,-0.000191,-0.000191,-0.000191,-0.000191,-0.000191,-0.000191,-0.000191
2.626833,-0.000191,-0.000191,-0.000191,-0.000191,-0.000191,-0.000191,-0.000191
2.636906,-0.000191,-0.000191,-0.000191,-0.000191,-0.000191,-0.000191,-0.000191
2.646973,-0.000191,-0.000191,-0.000191,-0.000191,-0.000191,-0.000191,-0.000191
2.657037,-0.000191,-0.000191,-0.000191,-0.000191,-0.000191,-0.000191,-0.000191
2.667100,-0.000191,-0.000191,-0.000191,-0.000191,-0.000191,-0.000191,-0.000191
2.677164,-0.000191,-0.000191,-0.000191,-0.000191,-0.000191,-0.000191,-0.000191
2.687226,-0.000191,-0.000191,-0.000191,-0.000191,-0.000191,-0.000191,-0.000191
2.697288,-0.000191,-0.000191,-0.000191,-0.000191,-0.000191,-0.000191,-0.000191
2.707349,-0.000191,-0.000191,-0.000191,-0.000191,-0.000191,-0.000191,-0.000191
2.717413,-0.000191,-0.000191,-0.000191,-0.000191,-0.000191,-0.000191,-0.000191
2.727477,-0.000191,-0.000191,-0.000191,-0.000191,-0.000191,-0.000191,-0.000191
2.737541,-0.000191,-0.000191,-0.000191,-0.000191,-0.000191,-0.000191,-0.000191
2.747603,-0.000191,-0.000191,-0.000191,-0.000191,-0.000191,-0.000191,-0.000191
2.757665,-0.000191,-0.000191,-0.000191,-0.000191,-0.000191,-0.000191,-0.000191
2.767729,-0.000191,-0.000191,-0.000191,-0.000191,-0.000191,-0.000191,-0.000191
2.777791,-0.000191,-0.000191,-0.000191,-0.000191,-0.000191,-0.000191,-0.000191
2.787853,-0.000191,-0.000191,-0.000191,-0.000191,-0.000191,-0.000191,-0.000191
2.797914,-0.000191,-0.000191,-0.000191,-0.000191,-0.000191,-0.000191,-0.000191
2.808009,-0.000191,-0.000191,-0.000191,-0.000191,-0.000191,-0.000191,-0.000191
2.818075,-0.000191,-0.000191,-0.000191,-0.000191,-0.000191,-0.000191,-0.000191
2.828142,-0.000191,-0.000191,-0.000191,-0.000191,-0.000191,-0.000191,-0.000191
2.838254,-0.000191,-0.000191,-0.000191,-0.000191,-0.000191,-0.000191,-0.000191
2.848774,-0.000191,-0.000191,-0.000191,-0.000191,-0.000191,-0.000191,-0.000191
2.858872,-0.000191,-0.000191,-0.000191,-0.000191,-0.000191,-0.000191,-0.000191
2.868970,-0.000191,-0.000191,-0.000191,-0.000191,-0.000191,-0.000191,-0.000191
2.879081,-0.000191,-0.000191,-0.000191,-0.000191,-0.000191,-0.000191,-0.000191
2.889177,-0.000191,-0.000191,-0.000191,-0.000191,-0.000191,-0.000191,-0.000191
2.899296,-0.000191,-0.000191,-0.000191,-0.000191,-0.000191,-0.000191,-0.000191
2.909394,-0.000191,-0.000191,-0.000191,-0.000191,-0.000191,-0.000191,-0.000191
2.919508,-0.000191,-0.000191,-0.000191,-0.000191,-0.000191,-0.000191,-0.000191
2.929619,-0.000191,-0.000191,-0.000191,-0.000191,-0.000191,-0.000191,-0.000191
2.939731,-0.000191,-0.000191,-0.000191,-0.000191,-0.000191,-0.000191,-0.000191
2.949843,-0.000191,-0.000191,-0.000191,-0.000191,-0.000191,-0.000191,-0.000191
2.959939,-0.000191,-0.000191,-0.000191,-0.000191,-0.000191,-0.000191,-0.000191
2.970097,-0.000191,-0.000191,-0.000191,-0.000191,-0.000191,-0.000191,-0.000191
2.980558,-0.000191,-0.000191,-0.000191,-0.000191,-0.000191,-0.000191,-0.000191
2.990669,-0.000191,-0.000191,-0.000191,-0.000191,-0.000191,-0.000191,-0.000191
3.000781,-0.000191,-0.000191,-0.000191,-0.000191,-0.000191,-0.000191,-0.000191
3.010907,-0.000191,-0.000191,-0.000191,-0.000191,-0.000191,-0.000191,-0.000191
3.021004,-0.000191,-0.000191,-0.000191,-0.000191,-0.000191,-0.000191,-0.000191
3.031117,-0.000191,-0.000191,-0.000191,-0.000191,-0.000191,-0.000191,-0.000191
3.041212,-0.000191,-0.000191,-0.000191,-0.000191,-0.000191,-0.000191,-0.000191
3.051307,-0.000191,-0.000191,-0.000191,-0.000191,-0.000191,-0.000191,-0.000191
3.061434,-0.000191,-0.000191,-0.000191,-0.000191,-0.000191,-0.000191,-0.000191
3.071535,-0.000191,-0.000191,-0.000191,-0.000191,-0.000191,-0.000191,-0.000191
3.081646,-0.000191,-0.000191,-0.000191,-0.000191,-0.000191,-0.000191,-0.000191
3.091769,-0.000191,-0.000191,-0.000191,-0.000191,-0.000191,-0.000191,-0.000191
3.101867,-0.000191,-0.000191,-0.000191,-0.000191,-0.000191,-0.000191,-0.000191
3.112203,-0.000191,-0.000191,-0.000191,-0.000191,-0.000191,-0.000191,-0.000191
3.122376,-0.000191,-0.000191,-0.000191,-0.000191,-0.000191,-0.000191,-0.000191
3.132495,-0.000191,-0.000191,-0.000191,-0.000191,-0.000191,-0.000191,-0.000191
3.142591,-0.000191,-0.000191,-0.000191,-0.000191,-0.000191,-0.000191,-0.000191
3.152706,-0.000191,-0.000191,-0.000191,-0.000191,-0.000191,-0.000191,-0.000191
3.162818,-0.000191,-0.000191,-0.000191,-0.000191,-0.000191,-0.000191,-0.000191
3.172928,-0.000191,-0.000191,-0.000191,-0.000191,-0.000191,-0.000191,-0.000191
3.183023,-0.000191,-0.000191,-0.000191,-0.000191,-0.000191,-0.000191,-0.000191
3.193116,-0.000191,-0.000191,-0.000191,-0.000191,-0.000191,-0.000191,-0.000191
3.203210,-0.000191,-0.000191,-0.000191,-0.000191,-0.000191,-0.000191,-0.000191
3.213334,-0.000191,-0.000191,-0.000191,-0.000191,-0.000191,-0.000191,-0.000191
3.223411,-0.000191,-0.000191,-0.000191,-0.000191,-0.000191,-0.000191,-0.000191
3.233440,-0.000191,-0.000191,-0.000191,-0.000191,-0.000191,-0.000191,-0.000191
3.243535,-0.000191,-0.000191,-0.000191,-0.000191,-0.000191,-0.000191,-0.000191
3.253642,-0.000191,-0.000191,-0.000191,-0.000191,-0.000191,-0.000191,-0.000191
3.264048,-0.000191,-0.000191,-0.000191,-0.000191,-0.000191,-0.000191,-0.000191
3.274553,-0.000191,-0.000191,-0.000191,-0.000191,-0.000191,-0.000191,-0.000191
3.284631,-0.000191,-0.000191,-0.000191,-0.000191,-0.000191,-0.000191,-0.000191
3.294743,-0.000191,-0.000191,-0.000191,-0.000191,-0.000191,-0.000191,-0.000191
3.304809,-0.000191,-0.000191,-0.000191,-0.000191,-0.000191,-0.000191,-0.000191
3.314876,-0.000191,-0.000191,-0.000191,-0.000191,-0.000191,-0.000191,-0.000191
3.324944,-0.000191,-0.000191,-0.000191,-0.000191,-0.000191,-0.000191,-0.000191
3.335005,-0.000191,-0.000191,-0.000191,-0.000191,-0.000191,-0.000191,-0.000191
3.345068,-0.000191,-0.000191,-0.000191,-0.000191,-0.000191,-0.000191,-0.000191
3.355131,-0.000191,-0.000191,-0.000191,-0.000191,-0.000191,-0.000191,-0.000191
3.365221,-0.000191,-0.000191,-0.000191,-0.000191,-0.000191,-0.000191,-0.000191
3.375316,-0.000191,-0.000191,-0.000191,-0.000191,-0.000191,-0.000191,-0.000191
3.385407,-0.000191,-0.000191,-0.000191,-0.000191,-0.000191,-0.000191,-0.000191
3.395520,-0.000191,-0.000191,-0.000191,-0.000191,-0.000191,-0.000191,-0.000191
3.405591,-0.000191,-0.000191,-0.000191,-0.000191,-0.000191,-0.000191,-0.000191
3.415800,-0.000191,-0.000191,-0.000191,-0.000191,-0.000191,-0.000191,-0.000191
3.425879,-0.000191,-0.000191,-0.000191,-0.000191,-0.000191,-0.000191,-0.000191
3.435959,-0.000191,-0.000191,-0.000191,-0.000191,-0.000191,-0.000191,-0.000191
3.446070,-0.000191,-0.000191,-0.000191,-0.000191,-0.000191,-0.000191,-0.000191
3.456181,-0.000191,-0.000191,-0.000191,-0.000191,-0.000191,-0.000191,-0.000191
3.466279,-0.000191,-0.000191,-0.000191,-0.000191,-0.000191,-0.000191,-0.000191
3.476349,-0.000191,-0.000191,-0.000191,-0.000191,-0.000191,-0.000191,-0.000191
3.486411,-0.000191,-0.000191,-0.000191,-0.000191,-0.000191,-0.000191,-0.000191
3.496483,-0.000191,-0.000191,-0.000191,-0.000191,-0.000191,-0.000191,-0.000191
3.506554,-0.000191,-0.000191,-0.000191,-0.000191,-0.000191,-0.000191,-0.000191
3.516626,-0.000191,-0.000191,-0.000191,-0.000191,-0.000191,-0.000191,-0.000191
3.526687,-0.000191,-0.000191,-0.000191,-0.000191,-0.000191,-0.000191,-0.000191
3.536749,-0.000191,-0.000191,-0.000191,-0.000191,-0.000191,-0.000191,-0.000191
3.546813,-0.000191,-0.000191,-0.000191,-0.000191,-0.000191,-0.000191,-0.000191
3.556874,-0.000191,-0.000191,-0.000191,-0.000191,-0.000191,-0.000191,-0.000191
3.566935,-0.000191,-0.000191,-0.000191,-0.000191,-0.000191,-0.000191,-0.000191
3.576997,-0.000191,-0.000191,-0.000191,-0.000191,-0.000191,-0.000191,-0.000191
3.587057,-0.000191,-0.000191,-0.000191,-0.000191,-0.000191,-0.000191,-0.000191
3.597118,-0.000191,-0.000191,-0.000191,-0.000191,-0.000191,-0.000191,-0.000191
3.607179,-0.000191,-0.000191,-0.000191,-0.000191,-0.000191,-0.000191,-0.000191
3.617252,-0.000191,-0.000191,-0.000191,-0.000191,-0.000191,-0.000191,-0.000191
3.627330,-0.000191,-0.000191,-0.000191,-0.000191,-0.000191,-0.000191,-0.000191
3.637399,-0.000191,-0.000191,-0.000191,-0.000191,-0.000191,-0.000191,-0.000191
3.647524,-0.000191,-0.000191,-0.000191,-0.000191,-0.000191,-0.000191,-0.000191
3.657600,-0.000191,-0.000191,-0.000191,-0.000191,-0.000191,-0.000191,-0.000191
3.667667,-0.000191,-0.000191,-0.000191,-0.000191,-0.000191,-0.000191,-0.000191
3.677781,-0.000191,-0.000191,-0.000191,-0.000191,-0.000191,-0.000191,-0.000191
3.687898,-0.000191,-0.000191,-0.000191,-0.000191,-0.000191,-0.000191,-0.000191
3.698018,-0.000191,-0.000191,-0.000191,-0.000191,-0.000191,-0.000191,-0.000191
3.708130,-0.000191,-0.000191,-0.000191,-0.000191,-0.000191,-0.000191,-0.000191
3.718244,-0.000191,-0.000191,-0.000191,-0.000191,-0.000191,-0.000191,-0.000191
3.728356,-0.000191,-0.000191,-0.000191,-0.000191,-0.000191,-0.000191,-0.000191
3.738468,-0.000191,-0.000191,-0.000191,-0.000191,-0.000191,-0.000191,-0.000191
3.748554,-0.000191,-0.000191,-0.000191,-0.000191,-0.000191,-0.000191,-0.000191
3.758864,-0.000191,-0.000191,-0.000191,-0.000191,-0.000191,-0.000191,-0.000191
3.768977,-0.000191,-0.000191,-0.000191,-0.000191,-0.000191,-0.000191,-0.000191
3.779089,-0.000191,-0.000191,-0.000191,-0.000191,-0.000191,-0.000191,-0.000191
3.789150,-0.000191,-0.000191,-0.000191,-0.000191,-0.000191,-0.000191,-0.000191
3.799211,-0.000191,-0.000191,-0.000191,-0.000191,-0.000191,-0.000191,-0.000191
3.809278,-0.000191,-0.000191,-0.000191,-0.000191,-0.000191,-0.000191,-0.000191
3.819353,-0.000191,-0.000191,-0.000191,-0.000191,-0.000191,-0.000191,-0.000191
3.829441,-0.000191,-0.000191,-0.000191,-0.000191,-0.000191,-0.000191,-0.000191
3.839555,-0.000191,-0.000191,-0.000191,-0.000191,0.000191,-0.000191,-0.000191
3.849708,-0.000191,-0.000191,-0.000191,-0.000191,0.000191,-0.000191,-0.000191
3.859825,-0.000191,-0.000191,-0.000191,-0.000191,0.000191,-0.000191,-0.000191
3.869935,-0.000191,-0.000191,-0.000191,-0.000191,0.000191,-0.000191,-0.000191
3.880053,-0.000191,-0.000191,-0.000191,-0.000191,0.000191,-0.000191,-0.000191
3.890165,-0.000191,-0.000191,-0.000191,-0.000191,0.000191,-0.000191,-0.000191
3.900284,-0.000191,-0.000191,-0.000191,0.000191,0.000191,-0.000191,-0.000191
3.910403,-0.000191,-0.000191,-0.000191,0.000572,0.000191,-0.000191,-0.000191
3.920484,-0.000191,-0.000191,-0.000191,0.000572,0.000191,-0.000191,-0.000191
3.930596,-0.000191,-0.000191,-0.000191,0.000572,0.000191,-0.000191,-0.000191
3.940707,-0.000191,-0.000191,-0.000191,0.000572,0.000191,-0.000191,-0.000191
3.950825,-0.000191,-0.000191,-0.000191,0.000572,0.000191,-0.000191,-0.000191
3.960938,-0.000191,-0.000191,-0.000191,0.000572,0.000191,-0.000191,-0.000191
3.971048,-0.000191,-0.000191,-0.000191,0.000572,0.000191,-0.000191,-0.000191
3.981161,-0.000191,-0.000191,-0.000191,0.000572,0.000191,-0.000191,-0.000191
3.991272,-0.000191,-0.000191,-0.000191,0.000572,0.000191,-0.000191,-0.000191
4.001387,-0.000191,-0.000191,-0.000191,0.000572,0.000191,-0.000191,-0.000191
4.011499,-0.000191,-0.000191,-0.000191,0.000572,0.000191,-0.000191,-0.000191
4.021613,-0.000191,-0.000191,-0.000191,0.000572,0.000191,-0.000191,-0.000191
4.031734,-0.000191,-0.000191,-0.000191,0.000572,0.000572,-0.000191,-0.000191
4.041854,-0.000191,-0.000191,-0.000191,0.000572,0.000572,-0.000191,-0.000191
4.051971,-0.000191,-0.000191,-0.000191,0.000572,0.000572,-0.000191,-0.000191
4.062086,-0.000191,-0.000191,-0.000191,0.000572,0.000572,-0.000191,-0.000191
4.072199,-0.000191,-0.000191,-0.000191,0.000572,0.000572,-0.000191,-0.000191
4.082410,-0.000191,-0.000191,-0.000191,0.000572,0.000572,-0.000191,-0.000191
4.092505,-0.000191,-0.000191,-0.000191,0.000572,0.000572,-0.000191,-0.000191
4.102684,-0.000191,-0.000191,-0.000191,0.000572,0.000572,-0.000191,-0.000191
4.112797,-0.000191,-0.000191,-0.000191,0.000572,0.000572,-0.000191,-0.000191
4.122908,-0.000191,-0.000191,-0.000191,0.000572,0.000572,-0.000191,-0.000191
4.133033,-0.000191,-0.000191,-0.000191,0.000572,0.000572,-0.000191,-0.000191
4.143142,-0.000191,-0.000191,-0.000191,0.000572,0.000572,-0.000191,-0.000191
4.153316,-0.000191,-0.000191,-0.000191,0.000572,0.000572,-0.000191,-0.000191
4.163388,-0.000191,-0.000191,-0.000191,0.000572,0.000572,-0.000191,-0.000191
4.173455,-0.000191,-0.000191,-0.000191,0.000572,0.000572,-0.000191,-0.000191
4.183541,-0.000191,-0.000191,-0.000191,0.000572,0.000572,-0.000191,-0.000191
4.193615,-0.000191,-0.000191,-0.000191,0.000572,0.000572,-0.000191,-0.000191
4.203682,-0.000191,-0.000191,-0.000191,0.000572,0.000191,-0.000191,-0.000191
4.213753,-0.000191,-0.000191,-0.000191,0.000572,0.000191,-0.000191,-0.000191
4.223824,-0.000191,-0.000191,-0.000191,0.000572,0.000191,-0.000191,-0.000191
4.233898,-0.000191,-0.000191,-0.000191,0.000572,0.000191,-0.000191,-0.000191
4.243965,-0.000191,-0.000191,-0.000191,0.000572,0.000191,-0.000191,-0.000191
4.254032,-0.000191,-0.000191,-0.000191,0.000572,0.000191,-0.000191,-0.000191
4.264101,-0.000191,-0.000191,-0.000191,0.000572,0.000191,-0.000191,-0.000191
4.274174,-0.000191,-0.000191,-0.000191,0.000572,0.000191,-0.000191,-0.000191
4.284284,-0.000191,-0.000191,-0.000191,0.000572,0.000572,-0.000191,-0.000191
4.294393,-0.000191,-0.000191,-0.000191,0.000572,0.000572,-0.000191,-0.000191
4.304481,-0.000191,-0.000191,-0.000191,0.000572,0.000572,-0.000191,-0.000191
4.315012,-0.000191,-0.000191,-0.000191,0.000572,0.000572,-0.000191,-0.000191
4.325099,-0.000191,-0.000191,-0.000191,0.000572,0.000572,-0.000191,-0.000191
4.335176,-0.000191,-0.000191,-0.000191,0.000572,0.000572,-0.000191,-0.000191
4.345290,-0.000191,-0.000191,-0.000191,0.000572,0.000572,-0.000191,-0.000191
4.355412,-0.000191,-0.000191,-0.000191,0.000572,0.000572,-0.000191,-0.000191
4.365525,-0.000191,-0.000191,-0.000191,0.000572,0.000572,-0.000191,-0.000191
4.375612,-0.000191,-0.000191,-0.000191,0.000572,0.000572,-0.000191,-0.000191
4.385681,-0.000191,-0.000191,-0.000191,0.000572,0.000572,-0.000191,-0.000191
4.395746,-0.000191,-0.000191,-0.000191,0.000572,0.000572,-0.000191,-0.000191
4.405808,-0.000191,-0.000191,-0.000191,0.000572,0.000572,-0.000191,-0.000191
4.415869,-0.000191,-0.000191,-0.000191,0.000572,0.000572,-0.000191,-0.000191
4.425937,-0.000191,-0.000191,-0.000191,0.000572,0.000572,-0.000191,-0.000191
4.436002,-0.000191,-0.000191,-0.000191,0.000572,0.000572,-0.000191,-0.000191
4.446069,-0.000191,-0.000191,-0.000191,0.000572,0.000572,-0.000191,-0.000191
4.456136,-0.000191,-0.000191,-0.000191,0.000572,0.000572,-0.000191,-0.000191
4.466205,-0.000191,-0.000191,-0.000191,0.000572,0.000572,-0.000191,-0.000191
4.476271,-0.000191,-0.000191,-0.000191,0.000572,0.000572,-0.000191,-0.000191
4.486336,-0.000191,-0.000191,-0.000191,0.000572,0.000572,-0.000191,-0.000191
4.496401,-0.000191,-0.000191,-0.000191,0.000572,0.000572,-0.000191,-0.000191
4.506466,-0.000191,-0.000191,-0.000191,0.000572,0.000572,-0.000191,-0.000191
4.516538,-0.000191,-0.000191,-0.000191,0.000572,0.000572,-0.000191,-0.000191
4.526603,-0.000191,-0.000191,-0.000191,0.000572,0.000572,-0.000191,-0.000572
4.536668,-0.000191,-0.000191,-0.000191,0.000572,0.000572,-0.000191,-0.000572
4.546736,-0.000191,-0.000191,-0.000191,0.000572,0.000572,-0.000191,-0.000572
4.556799,-0.000191,-0.000191,-0.000191,0.000572,0.000191,-0.000191,-0.000954
4.566864,-0.000191,-0.000191,-0.000191,0.000572,0.000191,-0.000191,-0.001335
4.576930,-0.000191,-0.000191,-0.000191,0.000572,0.000191,-0.000191,-0.002861
4.586998,-0.000191,-0.000191,-0.000191,0.000572,0.000191,-0.000191,-0.004005
4.597063,-0.000191,-0.000191,-0.000191,0.000572,0.000191,-0.000191,-0.007057
4.607128,-0.000191,-0.000191,-0.000191,0.000572,0.000191,-0.000191,-0.008965
4.617191,-0.000191,-0.000191,-0.000191,0.000572,0.000191,-0.000191,-0.013542
4.627260,-0.000191,-0.000191,-0.000191,0.000572,0.000191,-0.000191,-0.016212
4.637322,-0.000191,-0.000191,-0.000191,0.000572,0.000191,-0.000191,-0.021935
4.647387,-0.000191,-0.000191,-0.000191,0.000572,0.000572,-0.000191,-0.025368
4.657462,-0.000191,-0.000191,-0.000191,0.000572,0.000572,-0.000191,-0.032617
4.667527,-0.000191,-0.000191,-0.000191,0.000572,0.000572,-0.000191,-0.036431
4.677594,-0.000191,-0.000191,-0.000191,0.000572,0.000572,-0.000191,-0.044824
4.687663,-0.000191,-0.000191,-0.000191,0.000572,0.000572,-0.000191,-0.049783
4.697775,-0.000191,-0.000191,-0.000191,0.000572,0.000572,-0.000191,-0.059701
4.707861,-0.000191,-0.000191,-0.000191,0.000572,0.000572,-0.000191,-0.065423
4.717932,-0.000191,-0.000191,-0.000191,0.000572,0.000572,-0.000572,-0.077630
4.728003,-0.000191,-0.000191,-0.000191,0.000572,0.000572,-0.000572,-0.084115
4.738072,-0.000191,-0.000191,-0.000191,0.000572,0.000572,-0.001335,-0.097467
4.748142,-0.000191,-0.000191,-0.000191,0.000572,0.000572,-0.001717,-0.104715
4.758204,-0.000191,-0.000191,-0.000191,0.000572,0.000572,-0.002480,-0.119211
4.768269,-0.000191,-0.000191,-0.000191,0.000572,0.000572,-0.002861,-0.126841
4.778331,-0.000191,-0.000191,-0.000191,0.000572,0.000572,-0.004005,-0.141718
4.788395,-0.000191,-0.000191,-0.000191,0.000572,0.000572,-0.004387,-0.149347
4.798508,-0.000191,-0.000191,-0.000191,0.000572,0.000572,-0.005150,-0.165370
4.808616,-0.000191,-0.000191,-0.000191,0.000572,0.000572,-0.005531,-0.173381
4.818725,-0.000191,-0.000191,-0.000191,0.000572,0.000572,-0.006294,-0.189784
4.828838,-0.000191,-0.000191,-0.000191,0.000572,0.000572,-0.006294,-0.198176
4.838904,-0.000191,-0.000191,-0.000191,0.000572,0.000572,-0.006294,-0.215343
4.849017,-0.000191,-0.000191,-0.000191,0.000572,0.000572,-0.006294,-0.223354
4.859131,-0.000191,-0.000191,-0.000191,0.000572,0.000572,-0.006294,-0.239758
4.869240,-0.000191,-0.000191,-0.000191,0.000572,0.000572,-0.006294,-0.247768
4.879353,-0.000191,-0.000191,-0.000191,0.000572,0.000572,-0.006294,-0.263790
4.889474,-0.000191,-0.000191,-0.000191,0.000572,0.000572,-0.006294,-0.271801
4.899586,-0.000191,-0.000191,-0.000191,0.000572,0.000572,-0.006294,-0.288205
4.909701,-0.000191,-0.000191,-0.000191,0.000572,0.000572,-0.006294,-0.296216
4.919872,-0.000191,-0.000191,-0.000191,0.000572,0.000572,-0.006294,-0.311856
4.929984,-0.000191,-0.000191,-0.000191,0.000572,0.000572,-0.006294,-0.319486
4.940069,-0.000191,-0.000191,-0.000191,0.000572,0.000572,-0.006294,-0.326734
4.950181,-0.000191,-0.000191,-0.000191,0.000572,0.000572,-0.006294,-0.340466
4.960292,-0.000191,-0.000191,-0.000191,0.000572,0.000572,-0.006294,-0.346952
4.970444,-0.000191,-0.000191,-0.000191,0.000572,0.000572,-0.006294,-0.360304
4.980558,-0.000191,-0.000191,-0.000191,0.000572,0.000572,-0.006294,-0.372892
4.990668,-0.000191,-0.000191,-0.000191,0.000572,0.000572,-0.006294,-0.379377
5.000754,-0.000191,-0.000191,-0.000191,0.000572,0.000572,-0.006294,-0.385862
5.010861,-0.000191,-0.000191,-0.000191,0.000572,0.000572,-0.006294,-0.398069
5.020947,-0.000191,-0.000191,-0.000191,0.000572,0.000572,-0.006294,-0.404173
5.031031,-0.000191,-0.000191,-0.000191,0.000572,0.000572,-0.006294,-0.414474
5.041140,-0.000191,-0.000191,-0.000191,0.000572,0.000572,-0.006294,-0.423247
5.051225,-0.000191,-0.000191,-0.000191,0.000572,0.000572,-0.006294,-0.427062
5.061337,-0.000191,-0.000191,-0.000191,0.000572,0.000572,-0.006294,-0.434310
5.071425,-0.000191,-0.000191,-0.000191,0.000572,0.000572,-0.006294,-0.437743
5.081537,-0.000191,-0.000191,-0.000191,0.000572,0.000572,-0.006676,-0.444228
5.091646,-0.000191,-0.000191,-0.000191,0.000572,0.000572,-0.006676,-0.447280
5.101758,-0.000191,-0.000191,-0.000191,0.000572,0.000572,-0.006676,-0.449950
5.111873,-0.000191,-0.000191,-0.000191,0.000572,0.000572,-0.006676,-0.455672
5.121985,-0.000191,-0.000191,-0.000191,0.000572,0.000191,-0.006676,-0.457961
5.132100,-0.000191,-0.000191,-0.000191,0.000572,0.000191,-0.006676,-0.462920
5.142168,-0.000191,-0.000191,-0.000191,0.000572,0.000191,-0.006676,-0.465209
5.152231,-0.000191,-0.000191,-0.000191,0.000572,0.000191,-0.006676,-0.469788
5.162292,-0.000191,-0.000191,-0.000191,0.000572,0.000191,-0.006676,-0.472076
5.172356,-0.000191,-0.000191,-0.000191,0.000572,0.000191,-0.006676,-0.475891
5.182419,-0.000191,-0.000191,-0.000191,0.000572,0.000191,-0.006676,-0.478180
5.192450,-0.000191,-0.000191,-0.000191,0.000572,0.000191,-0.006676,-0.482376
5.202561,-0.000191,-0.000191,-0.000191,0.000572,0.000191,-0.006676,-0.484283
5.212674,-0.000191,-0.000191,-0.000191,0.000572,0.000191,-0.006676,-0.488480
5.222752,-0.000191,-0.000191,-0.000191,0.000572,0.000191,-0.006676,-0.490005
5.232818,-0.000191,-0.000191,-0.000191,0.000572,0.000191,-0.006676,-0.493439
5.242879,-0.000191,-0.000191,-0.000191,0.000572,0.000191,-0.006676,-0.494965
5.252942,-0.000191,-0.000191,-0.000191,0.000572,0.000191,-0.006676,-0.497253
5.263003,-0.000191,-0.000191,-0.000191,0.000572,0.000191,-0.006676,-0.498016
5.273071,-0.000191,-0.000191,-0.000191,0.000572,0.000191,-0.006676,-0.499161
5.283187,-0.000191,-0.000191,-0.000191,0.000572,0.000191,-0.006676,-0.499161
5.293303,-0.000191,-0.000191,-0.000191,0.000572,0.000191,-0.006676,-0.499161
5.303429,-0.000191,-0.000191,-0.000191,0.000572,0.000191,-0.006676,-0.499161
5.313541,-0.000191,-0.000191,-0.000191,0.000572,0.000191,-0.006676,-0.499161
5.323625,-0.000191,-0.000191,-0.000191,0.000572,-0.000191,-0.006676,-0.499161
5.333737,-0.000191,-0.000191,-0.000191,0.000572,-0.000572,-0.006676,-0.499161
5.343850,-0.000191,-0.000191,-0.000191,0.000572,-0.000572,-0.006676,-0.499161
5.353945,-0.000191,-0.000191,-0.000191,0.000572,-0.000572,-0.006676,-0.499161
5.364056,-0.000191,-0.000191,-0.000191,0.000572,-0.000572,-0.006676,-0.499161
5.374200,-0.000191,-0.000191,-0.000191,0.000572,-0.000572,-0.006676,-0.499161
5.384311,-0.000191,-0.000191,-0.000191,0.000572,-0.000572,-0.006676,-0.499161
5.394436,-0.000191,-0.000191,-0.000191,0.000572,-0.000572,-0.006676,-0.499161
5.404508,-0.000191,-0.000191,-0.000191,0.000572,-0.000572,-0.006676,-0.499161
5.414573,-0.000191,-0.000191,-0.000191,0.000191,-0.000572,-0.006676,-0.499161
5.424634,-0.000191,-0.000191,-0.000191,0.000191,-0.000572,-0.006676,-0.499161
5.434698,-0.000191,-0.000191,-0.000191,0.000191,-0.000572,-0.006676,-0.499161
5.444764,-0.000191,-0.000191,-0.000191,0.000191,-0.000954,-0.006676,-0.499161
5.454832,-0.000191,-0.000191,-0.000191,0.000191,-0.000954,-0.006676,-0.499161
5.464898,-0.000191,-0.000191,-0.000191,0.000191,-0.000954,-0.006676,-0.499161
5.474970,-0.000191,-0.000191,-0.000191,0.000191,-0.001335,-0.006676,-0.499161
5.485037,-0.000191,-0.000191,-0.000191,0.000191,-0.001717,-0.006676,-0.499161
5.495103,-0.000191,-0.000191,-0.000191,-0.000191,-0.001717,-0.006676,-0.499161
5.505166,-0.000191,-0.000191,-0.000191,-0.000191,-0.002098,-0.006676,-0.499161
5.515229,-0.000191,-0.000191,-0.000191,-0.000191,-0.002480,-0.006676,-0.499161
5.525296,-0.000191,-0.000191,-0.000191,-0.000191,-0.002480,-0.006676,-0.499161
5.535360,-0.000191,-0.000191,-0.000191,-0.000191,-0.002861,-0.006676,-0.499161
5.545431,-0.000191,-0.000191,-0.000191,-0.000191,-0.003242,-0.006676,-0.499161
5.555498,-0.000191,-0.000191,-0.000191,-0.000191,-0.003624,-0.006676,-0.499161
5.565562,-0.000191,-0.000191,-0.000191,-0.000191,-0.004005,-0.006676,-0.499161
5.575629,-0.000191,-0.000191,-0.000191,-0.000191,-0.004387,-0.006676,-0.499161
5.585692,-0.000191,-0.000191,-0.000191,-0.000191,-0.004387,-0.006676,-0.499161
5.595759,-0.000191,-0.000191,-0.000191,-0.000191,-0.004387,-0.006676,-0.499161
5.605826,-0.000191,-0.000191,-0.000191,-0.000191,-0.004387,-0.006676,-0.499161
5.615888,-0.000191,-0.000191,-0.000191,-0.000191,-0.004387,-0.006676,-0.499161
5.625957,-0.000191,-0.000191,-0.000191,-0.000191,-0.004387,-0.006676,-0.499161
5.636026,-0.000191,-0.000191,-0.000191,-0.000191,-0.004387,-0.006676,-0.499161
5.646136,-0.000191,-0.000191,-0.000191,-0.000191,-0.004387,-0.006676,-0.499542
5.656201,-0.000191,-0.000191,-0.000191,-0.000191,-0.004387,-0.006676,-0.499924
5.666323,-0.000191,-0.000191,-0.000191,-0.000191,-0.004387,-0.006676,-0.500305
5.676410,-0.000191,-0.000191,-0.000191,-0.000191,-0.004387,-0.006676,-0.501068
5.686492,-0.000191,-0.000191,-0.000191,-0.000191,-0.004387,-0.006676,-0.501068
5.696605,-0.000191,-0.000191,-0.000191,-0.000191,-0.004387,-0.006676,-0.502594
5.706697,-0.000191,-0.000191,-0.000191,-0.000191,-0.004768,-0.006676,-0.502975
5.716761,-0.000191,-0.000191,-0.000191,-0.000191,-0.005150,-0.006676,-0.504883
5.726825,-0.000191,-0.000191,-0.000191,-0.000191,-0.005150,-0.006676,-0.505264
5.736891,-0.000191,-0.000191,-0.000191,-0.000572,-0.005150,-0.006676,-0.506027
5.746959,-0.000191,-0.000191,-0.000191,-0.000572,-0.005150,-0.006676,-0.507172
5.757068,-0.000191,-0.000191,-0.000191,-0.000572,-0.005150,-0.006676,-0.507935
5.767179,-0.000191,-0.000191,-0.000191,-0.000572,-0.005150,-0.006676,-0.510223
5.777242,-0.000191,-0.000191,-0.000191,-0.000572,-0.005150,-0.006676,-0.511368
5.787329,-0.000191,-0.000191,-0.000191,-0.000572,-0.005531,-0.006676,-0.512894
5.797427,-0.000191,-0.000191,-0.000191,-0.000572,-0.005531,-0.006676,-0.514038
5.807541,-0.000191,-0.000191,-0.000191,-0.000572,-0.005531,-0.006676,-0.516708
5.817604,-0.000191,-0.000191,-0.000191,-0.000572,-0.005531,-0.006676,-0.517853
5.827677,-0.000191,-0.000191,-0.000191,-0.000572,-0.005531,-0.006676,-0.520523
5.837756,-0.000191,-0.000191,-0.000191,-0.000572,-0.005531,-0.006676,-0.522049
5.847871,-0.000191,-0.000191,-0.000191,-0.000572,-0.005150,-0.006676,-0.525482
5.857980,-0.000191,-0.000191,-0.000191,-0.000572,-0.005150,-0.006676,-0.527008
5.868091,-0.000191,-0.000191,-0.000191,-0.000572,-0.005150,-0.006676,-0.530823
5.878215,-0.000191,-0.000191,-0.000191,-0.000572,-0.005150,-0.006676,-0.533113
5.888336,-0.000191,-0.000191,-0.000191,-0.000572,-0.005150,-0.006676,-0.538072
5.898449,-0.000191,-0.000191,-0.000191,-0.000572,-0.005150,-0.006676,-0.541123
5.908556,-0.000191,-0.000191,-0.000191,-0.000572,-0.005150,-0.006676,-0.547227
5.918669,-0.000191,-0.000191,-0.000191,-0.000572,-0.005150,-0.006676,-0.551042
5.928782,-0.000191,-0.000191,-0.000191,-0.000572,-0.005150,-0.006676,-0.558671
5.938891,-0.000191,-0.000191,-0.000191,-0.000572,-0.005150,-0.006676,-0.562867
5.949001,-0.000191,-0.000191,-0.000191,-0.000572,-0.005150,-0.006676,-0.572404
5.959087,-0.000191,-0.000191,-0.000191,-0.000572,-0.005150,-0.006676,-0.577363
5.969197,-0.000191,-0.000191,-0.000191,-0.000572,-0.005150,-0.006676,-0.587663
5.979307,-0.000191,-0.000191,-0.000191,-0.000572,-0.005150,-0.006676,-0.593385
5.989481,-0.000191,-0.000191,-0.000191,-0.000572,-0.005150,-0.006676,-0.604830
5.999592,-0.000191,-0.000191,-0.000191,-0.000572,-0.005150,-0.006676,-0.610170
6.009706,-0.000191,-0.000191,-0.000191,-0.000572,-0.005150,-0.006676,-0.621614
6.019813,-0.000191,-0.000191,-0.000191,-0.000572,-0.005150,-0.006676,-0.626955
6.029904,-0.000191,-0.000191,-0.000191,-0.000572,-0.005150,-0.006676,-0.638781
6.040014,-0.000191,-0.000191,-0.000191,-0.000572,-0.005150,-0.006676,-0.644884
6.050130,-0.000191,-0.000191,-0.000191,-0.000572,-0.005150,-0.006676,-0.657092
6.060287,-0.000191,-0.000191,-0.000191,-0.000572,-0.005150,-0.006676,-0.663577
6.070401,-0.000191,-0.000191,-0.000191,-0.000572,-0.005150,-0.006676,-0.677310
6.080515,-0.000191,-0.000191,-0.000191,-0.000572,-0.005150,-0.006676,-0.684176
6.090627,-0.000191,-0.000191,-0.000191,-0.000572,-0.005150,-0.006676,-0.698291
6.100738,-0.000191,-0.000191,-0.000191,-0.000572,-0.005150,-0.006676,-0.705539
6.110851,-0.000191,-0.000191,-0.000191,-0.000572,-0.005150,-0.006676,-0.719654
6.120963,-0.000191,-0.000191,-0.000191,-0.000572,-0.005150,-0.006676,-0.726139
6.131077,-0.000191,-0.000191,-0.000191,-0.000572,-0.005150,-0.006676,-0.740253
6.141160,-0.000191,-0.000191,-0.000191,-0.000572,-0.005150,-0.006676,-0.746738
6.151273,-0.000191,-0.000191,-0.000191,-0.000572,-0.005150,-0.006676,-0.760853
6.161386,-0.000191,-0.000191,-0.000191,-0.000572,-0.005150,-0.006676,-0.768482
6.171452,-0.000191,-0.000191,-0.000191,-0.000572,-0.005150,-0.006676,-0.782979
6.181519,-0.000191,-0.000191,-0.000191,-0.000572,-0.005150,-0.006676,-0.790608
6.191582,-0.000191,-0.000191,-0.000191,-0.000572,-0.005150,-0.006676,-0.805104
6.201692,-0.000191,-0.000191,-0.000191,-0.000572,-0.005150,-0.006676,-0.812352
6.211777,-0.000191,-0.000191,-0.000191,-0.000572,-0.005150,-0.006676,-0.826848
6.221885,-0.000191,-0.000191,-0.000191,-0.000572,-0.005150,-0.006676,-0.833714
6.231957,-0.000191,-0.000191,-0.000191,-0.000572,-0.005150,-0.006676,-0.848211
6.242063,-0.000191,-0.000191,-0.000191,-0.000572,-0.005150,-0.006676,-0.855841
6.252401,-0.000191,-0.000191,-0.000191,-0.000572,-0.005150,-0.006676,-0.870337
6.262433,-0.000191,-0.000191,-0.000191,-0.000572,-0.005150,-0.006676,-0.877584
6.272497,-0.000191,-0.000191,-0.000191,-0.000572,-0.005150,-0.006676,-0.891699
6.282564,-0.000191,-0.000191,-0.000191,-0.000572,-0.005150,-0.006676,-0.906195
6.292632,-0.000191,-0.000191,-0.000191,-0.000572,-0.005150,-0.006676,-0.913444
6.302694,-0.000191,-0.000191,-0.000191,-0.000572,-0.005150,-0.006676,-0.927176
6.312758,-0.000191,-0.000191,-0.000191,-0.000572,-0.005150,-0.006676,-0.934424
6.322833,-0.000191,-0.000191,-0.000191,-0.000572,-0.005150,-0.006676,-0.948157
6.332948,-0.000191,-0.000191,-0.000191,-0.000572,-0.005150,-0.006676,-0.954642
6.343056,-0.000191,-0.000191,-0.000191,-0.000572,-0.005150,-0.006676,-0.967612
6.353168,-0.000191,-0.000191,-0.000191,-0.000572,-0.005150,-0.006676,-0.974098
6.363282,-0.000191,-0.000191,-0.000191,-0.000191,-0.005150,-0.006676,-0.980583
6.373369,-0.000191,-0.000191,-0.000191,-0.000191,-0.005150,-0.006676,-0.992790
6.383482,-0.000191,-0.000191,-0.000191,-0.000191,-0.004768,-0.006676,-0.998512
6.393510,-0.000191,-0.000191,-0.000191,-0.000191,-0.004768,-0.006676,-1.009575
6.403620,-0.000191,-0.000191,-0.000191,-0.000191,-0.004768,-0.006676,-1.015297
6.413735,-0.000191,-0.000191,-0.000191,-0.000191,-0.004768,-0.006676,-1.025978
6.423811,-0.000191,-0.000191,-0.000191,-0.000191,-0.004768,-0.006676,-1.031320
6.433904,-0.000191,-0.000191,-0.000191,-0.000191,-0.004768,-0.006676,-1.041619
6.443994,-0.000191,-0.000191,-0.000191,-0.000191,-0.004768,-0.006676,-1.046578
6.454103,-0.000191,-0.000191,-0.000191,-0.000191,-0.004768,-0.006676,-1.056115
6.464218,-0.000191,-0.000191,-0.000191,-0.000191,-0.004768,-0.006676,-1.060311
6.474310,-0.000191,-0.000191,-0.000191,-0.000191,-0.004768,-0.006676,-1.069085
6.484442,-0.000191,-0.000191,-0.000191,-0.000191,-0.004768,-0.006676,-1.072900
6.494535,-0.000191,-0.000191,-0.000191,-0.000191,-0.004768,-0.007057,-1.080529
6.504645,-0.000191,-0.000191,-0.000191,-0.000191,-0.004387,-0.007057,-1.083581
6.514735,-0.000191,-0.000191,-0.000191,-0.000191,-0.004387,-0.007057,-1.089684
6.524840,-0.000191,-0.000191,-0.000191,-0.000191,-0.004387,-0.007057,-1.092355
6.534951,-0.000191,-0.000191,-0.000191,-0.000191,-0.004387,-0.007057,-1.096552
6.545055,-0.000191,-0.000191,-0.000191,-0.000191,-0.004387,-0.007057,-1.098078
6.555164,-0.000191,-0.000191,-0.000191,-0.000191,-0.004387,-0.007439,-1.100748
6.565276,-0.000191,-0.000191,-0.000191,-0.000191,-0.004387,-0.007820,-1.101511
6.575362,-0.000191,-0.000191,-0.000191,-0.000191,-0.004768,-0.009346,-1.101892
6.585472,-0.000191,-0.000191,-0.000191,-0.000191,-0.005150,-0.010490,-1.101892
6.595585,-0.000191,-0.000191,-0.000191,-0.000191,-0.005531,-0.012779,-1.101892
6.605727,-0.000191,-0.000191,-0.000191,-0.000191,-0.005531,-0.013542,-1.101892
6.615850,-0.000191,-0.000191,-0.000191,-0.000191,-0.005531,-0.015450,-1.101892
6.625951,-0.000191,-0.000191,-0.000191,-0.000191,-0.005531,-0.016594,-1.101892
6.636019,-0.000191,-0.000191,-0.000191,-0.000191,-0.005531,-0.018883,-1.101892
6.646134,-0.000191,-0.000191,-0.000191,-0.000191,-0.005913,-0.020027,-1.101892
6.656246,-0.000191,-0.000191,-0.000191,-0.000191,-0.005913,-0.021553,-1.101892
6.666358,-0.000191,-0.000191,-0.000191,-0.000191,-0.005913,-0.022316,-1.101892
6.676473,-0.000191,-0.000191,-0.000191,-0.000191,-0.005531,-0.024223,-1.101892
6.686546,-0.000191,-0.000191,-0.000191,-0.000191,-0.005531,-0.024986,-1.101892
6.696660,-0.000191,-0.000191,-0.000191,-0.000191,-0.005150,-0.025749,-1.101892
6.706772,-0.000191,-0.000191,-0.000191,-0.000191,-0.004768,-0.025749,-1.101892
6.716889,-0.000191,-0.000191,-0.000191,-0.000191,-0.004387,-0.025368,-1.101892
6.726960,-0.000191,-0.000191,-0.000191,-0.000191,-0.004005,-0.025368,-1.101892
6.737083,-0.000191,-0.000191,-0.000191,-0.000191,-0.004005,-0.025368,-1.101892
6.747205,-0.000191,-0.000191,-0.000191,-0.000191,-0.004005,-0.025368,-1.101892
6.757379,-0.000191,-0.000191,-0.000191,-0.000191,-0.004005,-0.025368,-1.101892
6.767483,-0.000191,-0.000191,-0.000191,-0.000191,-0.004005,-0.025368,-1.101892
6.777570,-0.000191,-0.000191,-0.000191,-0.000191,-0.004005,-0.025368,-1.101892
6.787681,-0.000191,-0.000191,-0.000191,-0.000191,-0.004005,-0.025368,-1.101892
6.797795,-0.000191,-0.000191,-0.000191,-0.000191,-0.004005,-0.025368,-1.101892
6.807905,-0.000191,-0.000191,-0.000191,-0.000191,-0.004005,-0.025368,-1.101892
6.817970,-0.000191,-0.000191,-0.000191,-0.000191,-0.004005,-0.025368,-1.101892
6.828042,-0.000191,-0.000191,-0.000191,-0.000191,-0.004005,-0.025368,-1.101892
6.838153,-0.000191,-0.000191,-0.000191,-0.000191,-0.004005,-0.025368,-1.101892
6.848268,-0.000191,-0.000191,-0.000191,-0.000191,-0.004005,-0.025368,-1.101892
6.858378,-0.000191,-0.000191,-0.000191,-0.000191,-0.003624,-0.025368,-1.101892
6.868489,-0.000191,-0.000191,-0.000191,-0.000191,-0.003624,-0.025368,-1.101892
6.878602,-0.000191,-0.000191,-0.000191,-0.000191,-0.002861,-0.025368,-1.101892
6.888714,-0.000191,-0.000191,-0.000191,-0.000191,-0.002861,-0.025368,-1.101892
6.898827,-0.000191,-0.000191,-0.000191,-0.000191,-0.002480,-0.025368,-1.101892
6.908913,-0.000191,-0.000191,-0.000191,-0.000191,-0.002098,-0.025368,-1.101892
6.919021,-0.000191,-0.000191,-0.000191,-0.000191,-0.002098,-0.025368,-1.101892
6.929134,-0.000191,-0.000191,-0.000191,-0.000191,-0.002098,-0.025368,-1.101892
6.939249,-0.000191,-0.000191,-0.000191,-0.000191,-0.002098,-0.025368,-1.101892
6.949363,-0.000191,-0.000191,-0.000191,-0.000191,-0.002098,-0.025368,-1.101892
6.959446,-0.000191,-0.000191,-0.000191,-0.000191,-0.002098,-0.025368,-1.101892
6.969558,-0.000191,-0.000191,-0.000191,-0.000191,-0.002098,-0.025368,-1.101892
6.979625,-0.000191,-0.000191,-0.000191,-0.000191,-0.002098,-0.025368,-1.101892
6.989692,-0.000191,-0.000191,-0.000191,-0.000191,-0.002098,-0.025368,-1.101892
6.999758,-0.000191,-0.000191,-0.000191,-0.000191,-0.002098,-0.025368,-1.101892
7.009823,-0.000191,-0.000191,-0.000191,-0.000191,-0.002098,-0.025368,-1.101892
7.019886,-0.000191,-0.000191,-0.000191,-0.000191,-0.002098,-0.025368,-1.101892
7.029952,-0.000191,-0.000191,-0.000191,-0.000191,-0.002098,-0.025368,-1.101892
7.040022,-0.000191,-0.000191,-0.000191,-0.000191,-0.002098,-0.025368,-1.101892
7.050136,-0.000191,-0.000191,-0.000191,-0.000191,-0.002098,-0.025368,-1.101892
7.060221,-0.000191,-0.000191,-0.000191,-0.000191,-0.002098,-0.025368,-1.101892
7.070293,-0.000191,-0.000191,-0.000191,-0.000191,-0.002098,-0.025368,-1.101892
7.080357,-0.000191,-0.000191,-0.000191,-0.000191,-0.002098,-0.025368,-1.101892
7.090420,-0.000191,-0.000191,-0.000191,-0.000191,-0.002098,-0.025368,-1.101892
7.100483,-0.000191,-0.000191,-0.000191,-0.000191,-0.002098,-0.025368,-1.101892
7.110545,-0.000191,-0.000191,-0.000191,-0.000191,-0.002098,-0.025368,-1.101892
7.120607,-0.000191,-0.000191,-0.000191,-0.000191,-0.002098,-0.025368,-1.101892
7.130721,-0.000191,-0.000191,-0.000191,-0.000191,-0.002098,-0.025368,-1.101892
7.140798,-0.000191,-0.000191,-0.000191,-0.000191,-0.002098,-0.025368,-1.101892
7.150871,-0.000191,-0.000191,-0.000191,-0.000191,-0.002098,-0.025368,-1.101892
7.160935,-0.000191,-0.000191,-0.000191,-0.000191,-0.002098,-0.025368,-1.101892
7.171044,-0.000191,-0.000191,-0.000191,-0.000191,-0.002098,-0.025368,-1.101892
7.181156,-0.000191,-0.000191,-0.000191,-0.000191,-0.002098,-0.025368,-1.101892
7.191257,-0.000191,-0.000191,-0.000191,-0.000191,-0.002098,-0.025368,-1.101892
7.201364,-0.000191,-0.000191,-0.000191,-0.000191,-0.002098,-0.025368,-1.101892
7.211477,-0.000191,-0.000191,-0.000191,-0.000191,-0.002098,-0.025368,-1.101892
7.221584,-0.000191,-0.000191,-0.000191,-0.000191,-0.002098,-0.025368,-1.101892
7.231696,-0.000191,-0.000191,-0.000191,-0.000191,-0.002098,-0.025368,-1.101892
7.241782,-0.000191,-0.000191,-0.000191,-0.000191,-0.002098,-0.025368,-1.101892
7.251889,-0.000191,-0.000191,-0.000191,-0.000191,-0.002098,-0.025368,-1.101892
7.261958,-0.000191,-0.000191,-0.000191,-0.000191,-0.002098,-0.025368,-1.101892
7.272067,-0.000191,-0.000191,-0.000191,-0.000191,-0.002098,-0.025368,-1.101892
7.282156,-0.000191,-0.000191,-0.000191,-0.000191,-0.002098,-0.025368,-1.101892
7.292242,-0.000191,-0.000191,-0.000191,-0.000191,-0.002098,-0.025368,-1.101892
7.302370,-0.000191,-0.000191,-0.000191,-0.000191,-0.002098,-0.025368,-1.101892
7.312489,-0.000191,-0.000191,-0.000191,-0.000191,-0.002098,-0.025368,-1.101892
7.322599,-0.000191,-0.000191,-0.000191,-0.000191,-0.002098,-0.025368,-1.101892
7.332712,-0.000191,-0.000191,-0.000191,-0.000191,-0.002098,-0.025368,-1.101892
7.342885,-0.000191,-0.000191,-0.000191,-0.000191,-0.002098,-0.025368,-1.101892
7.352995,-0.000191,-0.000191,-0.000191,-0.000191,-0.002098,-0.025368,-1.101892
7.363108,-0.000191,-0.000191,-0.000191,-0.000191,-0.002098,-0.025368,-1.101892
7.373218,-0.000191,-0.000191,-0.000191,-0.000191,-0.002098,-0.025368,-1.101892
7.383332,-0.000191,-0.000191,-0.000191,-0.000191,-0.002098,-0.025368,-1.101892
7.393439,-0.000191,-0.000191,-0.000191,-0.000191,-0.002098,-0.025368,-1.101892
7.403550,-0.000191,-0.000191,-0.000191,-0.000191,-0.002098,-0.025368,-1.101892
7.413662,-0.000191,-0.000191,-0.000191,-0.000191,-0.002098,-0.025368,-1.101892
7.423775,-0.000191,-0.000191,-0.000191,-0.000191,-0.002098,-0.025368,-1.101892
7.433895,-0.000191,-0.000191,-0.000191,-0.000191,-0.002098,-0.025368,-1.101892
7.444007,-0.000191,-0.000191,-0.000191,-0.000191,-0.002098,-0.025368,-1.101892
7.454117,-0.000191,-0.000191,-0.000191,-0.000191,-0.002098,-0.025368,-1.101892
7.464227,-0.000191,-0.000191,-0.000191,-0.000191,-0.002098,-0.025368,-1.101892
7.474338,-0.000191,-0.000191,-0.000191,-0.000191,-0.002098,-0.025368,-1.101892
7.484457,-0.000191,-0.000191,-0.000191,-0.000191,-0.002098,-0.025368,-1.101892
7.494576,-0.000191,-0.000191,-0.000191,-0.000191,-0.002098,-0.025368,-1.101892
7.504688,-0.000191,-0.000191,-0.000191,-0.000191,-0.002098,-0.025368,-1.101892
7.514801,-0.000191,-0.000191,-0.000191,-0.000191,-0.002098,-0.025368,-1.101892
7.524897,-0.000191,-0.000191,-0.000191,-0.000191,-0.002098,-0.025368,-1.101892
7.535240,-0.000191,-0.000191,-0.000191,-0.000191,-0.002098,-0.025368,-1.101892
7.545350,-0.000191,-0.000191,-0.000191,-0.000191,-0.002098,-0.025368,-1.101892
7.555693,-0.000191,-0.000191,-0.000191,-0.000191,-0.002098,-0.025368,-1.101892
7.565759,-0.000191,-0.000191,-0.000191,-0.000191,-0.002098,-0.025368,-1.101892
7.575825,-0.000191,-0.000191,-0.000191,-0.000191,-0.002098,-0.025368,-1.101892
7.586387,-0.000191,-0.000191,-0.000191,-0.000191,-0.002098,-0.025368,-1.101892
7.596474,-0.000191,-0.000191,-0.000191,-0.000191,-0.002098,-0.025368,-1.101892
7.606586,-0.000191,-0.000191,-0.000191,-0.000191,-0.002098,-0.025368,-1.101892
7.616702,-0.000191,-0.000191,-0.000191,-0.000191,-0.002098,-0.025368,-1.101892
7.626812,-0.000191,-0.000191,-0.000191,-0.000191,-0.001717,-0.025368,-1.101892
7.636880,-0.000191,-0.000191,-0.000191,-0.000191,-0.001717,-0.025368,-1.101892
7.646947,-0.000191,-0.000191,-0.000191,-0.000191,-0.000954,-0.025368,-1.101892
7.657116,-0.000191,-0.000191,-0.000191,-0.000191,-0.000572,-0.025368,-1.101892
7.667226,-0.000191,-0.000191,-0.000191,-0.000191,0.000191,-0.025368,-1.101892
7.677343,-0.000191,-0.000191,-0.000191,-0.000191,0.000572,-0.025368,-1.101892
7.687456,-0.000191,-0.000191,-0.000191,-0.000191,0.000954,-0.025368,-1.101892
7.697570,-0.000191,-0.000191,-0.000191,-0.000191,0.000954,-0.025368,-1.101892
7.707682,-0.000191,-0.000191,-0.000191,-0.000191,0.000954,-0.025368,-1.101892
7.717795,-0.000191,-0.000191,-0.000191,-0.000191,0.001335,-0.025368,-1.101892
7.727905,-0.000191,-0.000191,-0.000191,-0.000191,0.001335,-0.025368,-1.101892
7.738019,-0.000191,-0.000191,-0.000191,-0.000191,0.001335,-0.025368,-1.101892
7.748131,-0.000191,-0.000191,-0.000191,-0.000191,0.001335,-0.025368,-1.101892
7.758242,-0.000191,-0.000191,-0.000191,-0.000191,0.001335,-0.025368,-1.101892
7.768354,-0.000191,-0.000191,-0.000191,-0.000191,0.001335,-0.025368,-1.101892
7.778434,-0.000191,-0.000191,-0.000191,-0.000191,0.001335,-0.025368,-1.101892
7.788514,-0.000191,-0.000191,-0.000191,-0.000191,0.001335,-0.025368,-1.101892
7.798593,-0.000191,-0.000191,-0.000191,-0.000191,0.000954,-0.025368,-1.101892
7.808664,-0.000191,-0.000191,-0.000191,-0.000191,0.000954,-0.025368,-1.101892
7.818732,-0.000191,-0.000191,-0.000191,-0.000191,0.000572,-0.025368,-1.101892
7.828801,-0.000191,-0.000191,-0.000191,-0.000191,0.000191,-0.025368,-1.101892
7.838912,-0.000191,-0.000191,-0.000191,-0.000191,-0.000191,-0.025368,-1.101892
7.849024,-0.000191,-0.000191,-0.000191,-0.000191,-0.000572,-0.025368,-1.101892
7.859119,-0.000191,-0.000191,-0.000191,-0.000191,-0.000572,-0.025368,-1.101892
7.869232,-0.000191,-0.000191,-0.000191,-0.000191,-0.000572,-0.025368,-1.101892
7.879310,-0.000191,-0.000191,-0.000191,-0.000191,-0.000572,-0.025368,-1.101892
7.889373,-0.000191,-0.000191,-0.000191,-0.000191,-0.000572,-0.025368,-1.101892
7.899438,-0.000191,-0.000191,-0.000191,-0.000191,-0.000572,-0.025368,-1.101892
7.909498,-0.000191,-0.000191,-0.000191,-0.000191,-0.000572,-0.025368,-1.101892
7.919561,-0.000191,-0.000191,-0.000191,-0.000191,-0.000572,-0.025368,-1.101892
7.929620,-0.000191,-0.000572,-0.000191,-0.000191,-0.000572,-0.025368,-1.101892
7.939681,-0.000191,-0.000954,-0.000191,-0.000191,-0.000572,-0.025368,-1.101892
7.949740,-0.000191,-0.002098,-0.000191,-0.000191,-0.000572,-0.025368,-1.101892
7.959804,-0.000191,-0.002480,-0.000191,-0.000191,-0.000572,-0.025368,-1.101892
7.969872,-0.000191,-0.004387,-0.000191,-0.000191,-0.000572,-0.025368,-1.101892
7.979936,-0.000191,-0.005531,-0.000191,-0.000191,-0.000572,-0.025368,-1.101892
7.990002,-0.000191,-0.007820,-0.000191,-0.000191,-0.000572,-0.025368,-1.101892
8.000067,-0.000191,-0.009346,-0.000572,-0.000191,-0.000191,-0.025368,-1.101892
8.010158,-0.000191,-0.012779,-0.000572,-0.000191,-0.000191,-0.024986,-1.101892
8.020271,-0.000191,-0.014687,-0.000572,0.000191,-0.000191,-0.024223,-1.101892
8.030372,-0.000191,-0.018883,-0.000572,0.000191,-0.000191,-0.023460,-1.101892
8.040525,-0.000191,-0.021553,-0.000572,-0.000191,-0.000191,-0.022697,-1.101892
8.050646,-0.000191,-0.026512,-0.000572,-0.000191,-0.000191,-0.022697,-1.101892
8.060772,-0.000191,-0.029564,-0.000954,-0.000191,-0.000191,-0.022697,-1.101892
8.070881,-0.000191,-0.035287,-0.001335,-0.000572,-0.000191,-0.022697,-1.101892
8.080994,-0.000191,-0.038339,-0.002861,-0.000572,-0.000191,-0.022697,-1.101892
8.091106,-0.000191,-0.044061,-0.004005,-0.000572,-0.000191,-0.022697,-1.101892
8.101225,-0.000191,-0.047112,-0.007057,-0.000191,-0.000191,-0.022697,-1.101892
8.111311,-0.000191,-0.053216,-0.008202,-0.000191,-0.000191,-0.022697,-1.101892
8.121443,-0.000191,-0.056268,-0.011253,-0.000191,-0.000191,-0.022697,-1.101892
8.131516,-0.000191,-0.062753,-0.012779,-0.000191,-0.000191,-0.022697,-1.101892
8.141623,-0.000191,-0.065804,-0.016212,-0.000191,-0.000191,-0.022697,-1.101892
8.151736,-0.000191,-0.071908,-0.017738,-0.000191,-0.000191,-0.022697,-1.101892
8.161848,-0.000191,-0.074960,-0.021172,-0.000191,-0.000191,-0.022697,-1.101892
8.171960,-0.000191,-0.080682,-0.023079,-0.000191,-0.000191,-0.022697,-1.101892
8.182072,-0.000191,-0.083734,-0.026512,-0.000191,-0.000191,-0.022697,-1.101892
8.192184,-0.000191,-0.088693,-0.028801,-0.000191,-0.000191,-0.022697,-1.101892
8.202298,-0.000191,-0.091363,-0.032617,-0.000191,-0.000191,-0.022697,-1.101892
8.212376,-0.000191,-0.095942,-0.034905,-0.000191,0.000191,-0.022697,-1.101892
8.222478,-0.000191,-0.098230,-0.038720,-0.000191,0.000572,-0.022697,-1.101892
8.232562,-0.000191,-0.102808,-0.042916,-0.000191,0.000954,-0.023079,-1.101892
8.242634,-0.000191,-0.104715,-0.044824,-0.000191,0.001717,-0.023079,-1.101892
8.252700,-0.000191,-0.108530,-0.049020,-0.000191,0.002098,-0.023079,-1.101892
8.262767,-0.000191,-0.110437,-0.050927,-0.000191,0.002480,-0.023079,-1.101892
8.272829,-0.000191,-0.113489,-0.055123,-0.000191,0.002480,-0.023079,-1.101892
8.282921,-0.000191,-0.115396,-0.057031,-0.000191,0.002480,-0.023460,-1.101892
8.293034,-0.000191,-0.118830,-0.058938,-0.000191,0.002480,-0.023460,-1.101892
8.303152,-0.000191,-0.120356,-0.063134,-0.000191,0.002480,-0.023460,-1.101892
8.313260,-0.000191,-0.123789,-0.065042,-0.000191,0.002480,-0.023460,-1.101892
8.323330,-0.000191,-0.125696,-0.069238,-0.000191,0.002480,-0.023460,-1.101892
8.333399,-0.000191,-0.129129,-0.071145,-0.000191,0.002480,-0.023460,-1.101892
8.343435,-0.000191,-0.131037,-0.075723,-0.000191,0.002480,-0.023460,-1.101892
8.353500,-0.000191,-0.134851,-0.078012,-0.000191,0.002480,-0.023460,-1.101892
8.363571,-0.000191,-0.137140,-0.082971,-0.000191,0.002480,-0.023460,-1.101892
8.373679,-0.000191,-0.141336,-0.085259,-0.000191,0.002480,-0.023460,-1.101892
8.383793,-0.000191,-0.144007,-0.090600,-0.000191,0.002480,-0.023460,-1.101892
8.393878,-0.000191,-0.148966,-0.093270,-0.000191,0.002480,-0.023460,-1.101892
8.403989,-0.000191,-0.151636,-0.098612,-0.000191,0.002480,-0.023460,-1.101892
8.414100,-0.000191,-0.157359,-0.101664,-0.000191,0.002480,-0.023460,-1.101892
8.424213,-0.000191,-0.160411,-0.107767,-0.000572,0.002480,-0.023460,-1.101892
8.434284,-0.000191,-0.167277,-0.110819,-0.000572,0.002480,-0.023460,-1.101892
8.444353,-0.000191,-0.170711,-0.118067,-0.000572,0.002480,-0.023460,-1.101892
8.454442,-0.000191,-0.178340,-0.121500,-0.000572,0.002480,-0.023460,-1.101892
8.464553,-0.000191,-0.182155,-0.129129,-0.000572,0.002480,-0.023460,-1.101892
8.474669,-0.000191,-0.189784,-0.132944,-0.000572,0.002480,-0.023460,-1.101892
8.484779,-0.000191,-0.193980,-0.141336,-0.000572,0.002480,-0.023460,-1.101892
8.494894,-0.000191,-0.202373,-0.145151,-0.000572,0.002480,-0.023460,-1.101892
8.505254,-0.000191,-0.206569,-0.153925,-0.000572,0.002480,-0.023460,-1.101892
8.515365,-0.000191,-0.215724,-0.163081,-0.000572,0.002480,-0.023460,-1.101892
8.525471,-0.000191,-0.220303,-0.167659,-0.000572,0.002480,-0.023460,-1.101892
8.535811,-0.000191,-0.229839,-0.177196,-0.000572,0.002480,-0.023460,-1.101892
8.545898,-0.000191,-0.234417,-0.182155,-0.000572,0.002480,-0.023460,-1.101892
8.556232,-0.000191,-0.244335,-0.191691,-0.000572,0.002480,-0.023460,-1.101892
8.566569,-0.000191,-0.249294,-0.196651,-0.000572,0.002480,-0.023842,-1.101892
8.576689,-0.000191,-0.259594,-0.206950,-0.000572,0.002480,-0.023842,-1.101892
8.587244,-0.000191,-0.264553,-0.211909,-0.000572,0.002480,-0.023842,-1.101892
8.597355,-0.000191,-0.274853,-0.222210,-0.000572,0.002480,-0.023842,-1.101892
8.607480,-0.000191,-0.280193,-0.227169,-0.000572,0.002480,-0.023842,-1.101892
8.617594,-0.000191,-0.290494,-0.237850,-0.000572,0.002480,-0.023842,-1.101892
8.627661,-0.000191,-0.295835,-0.243191,-0.000572,0.002480,-0.023842,-1.101892
8.637729,-0.000191,-0.306897,-0.253490,-0.000572,0.002480,-0.023842,-1.101892
8.647845,-0.000191,-0.312238,-0.258831,-0.000954,0.002480,-0.023842,-1.101892
8.657983,-0.000191,-0.323682,-0.269131,-0.001335,0.002480,-0.023842,-1.101892
8.668318,-0.000191,-0.329404,-0.274090,-0.001335,0.002480,-0.023842,-1.101892
8.678496,-0.000191,-0.340466,-0.284009,-0.001335,0.002480,-0.023842,-1.101892
8.688609,-0.000191,-0.346189,-0.288968,-0.001717,0.002480,-0.023842,-1.101892
8.698716,-0.000191,-0.357634,-0.299268,-0.001717,0.002480,-0.023842,-1.101892
8.708828,-0.000191,-0.363356,-0.304608,-0.002098,0.002480,-0.023842,-1.101892
8.718939,-0.000191,-0.374418,-0.314527,-0.002098,0.002480,-0.023842,-1.101892
8.729052,-0.000191,-0.380140,-0.319867,-0.002098,0.002480,-0.023842,-1.101892
8.739165,-0.000191,-0.391584,-0.330167,-0.002098,0.002480,-0.023842,-1.101892
8.749278,-0.000191,-0.396925,-0.335507,-0.002098,0.002480,-0.023842,-1.101892
8.759387,-0.000191,-0.407989,-0.346189,-0.002098,0.002480,-0.023842,-1.101892
8.769503,-0.000191,-0.413711,-0.351149,-0.002098,0.002480,-0.023842,-1.101892
8.779617,-0.000191,-0.424773,-0.361448,-0.002098,0.002480,-0.023842,-1.101892
8.789729,-0.000191,-0.430495,-0.366789,-0.002098,0.002480,-0.023842,-1.101892
8.799843,-0.000191,-0.441558,-0.376707,-0.002098,0.002480,-0.023842,-1.101892
8.809952,-0.000191,-0.447280,-0.382048,-0.002098,0.002480,-0.023842,-1.101892
8.820062,-0.000191,-0.458343,-0.392347,-0.002098,0.002480,-0.023842,-1.101892
8.830180,-0.000191,-0.463683,-0.397306,-0.002098,0.002480,-0.023842,-1.101892
8.840324,-0.000191,-0.474747,-0.407989,-0.002098,0.002480,-0.023842,-1.101892
8.850452,-0.000191,-0.480469,-0.412948,-0.002098,0.002480,-0.023842,-1.101892
8.860581,-0.000191,-0.491531,-0.423247,-0.002098,0.002480,-0.023842,-1.101892
8.870697,-0.000191,-0.497253,-0.428206,-0.002098,0.002480,-0.023842,-1.101892
8.880791,-0.000191,-0.508316,-0.438125,-0.002098,0.002098,-0.023842,-1.101892
8.890910,-0.000191,-0.514038,-0.443084,-0.002098,0.002098,-0.023842,-1.101892
8.900989,-0.000191,-0.525482,-0.453383,-0.002098,0.002098,-0.023842,-1.101892
8.911103,-0.000191,-0.531204,-0.458724,-0.002098,0.002098,-0.023842,-1.101892
8.921215,-0.000191,-0.542268,-0.469025,-0.002098,0.002098,-0.023842,-1.101892
8.931318,-0.000191,-0.547990,-0.473984,-0.002098,0.002098,-0.023842,-1.101892
8.941443,-0.000191,-0.559815,-0.484665,-0.002098,0.002098,-0.023842,-1.101892
8.951552,-0.000191,-0.565537,-0.489624,-0.002098,0.002098,-0.023842,-1.101892
8.961622,-0.000191,-0.576982,-0.499924,-0.002098,0.002098,-0.023842,-1.101892
8.971732,-0.000191,-0.583085,-0.505264,-0.002098,0.002098,-0.023842,-1.101892
8.981844,-0.000191,-0.594530,-0.515182,-0.002098,0.002098,-0.023842,-1.101892
8.991956,-0.000191,-0.600252,-0.520142,-0.002098,0.002098,-0.023842,-1.101892
9.002067,-0.000191,-0.612078,-0.530441,-0.002098,0.002098,-0.023842,-1.101892
9.012157,-0.000191,-0.618181,-0.536164,-0.002098,0.002098,-0.023842,-1.101892
9.022263,-0.000191,-0.630007,-0.546845,-0.002098,0.002098,-0.023842,-1.101892
9.032335,-0.000191,-0.636110,-0.551805,-0.002098,0.002098,-0.023842,-1.101892
9.042448,-0.000191,-0.648317,-0.562867,-0.002098,0.002480,-0.023842,-1.101892
9.052571,-0.000191,-0.654421,-0.568208,-0.002098,0.002480,-0.023842,-1.101892
9.062664,-0.000191,-0.666629,-0.578889,-0.002098,0.002480,-0.023842,-1.101892
9.072799,-0.000191,-0.673114,-0.584611,-0.002098,0.002480,-0.023842,-1.101892
9.082911,-0.000191,-0.685702,-0.595293,-0.002098,0.002480,-0.023842,-1.101892
9.092994,-0.000191,-0.691806,-0.600634,-0.002098,0.002480,-0.023842,-1.101892
9.103105,-0.000191,-0.704776,-0.611696,-0.002098,0.002480,-0.023842,-1.101892
9.113254,-0.000191,-0.710879,-0.617418,-0.002098,0.002480,-0.023842,-1.101892
9.123368,-0.000191,-0.723850,-0.628481,-0.002098,0.002480,-0.023842,-1.101892
9.133483,-0.000191,-0.730335,-0.634203,-0.002098,0.002480,-0.023842,-1.101892
9.143564,-0.000191,-0.742924,-0.645266,-0.002098,0.002480,-0.023842,-1.101892
9.153674,-0.000191,-0.749409,-0.650988,-0.002098,0.002480,-0.023842,-1.101892
9.163760,-0.000191,-0.762379,-0.662051,-0.002098,0.002480,-0.023842,-1.101892
9.173827,-0.000191,-0.768864,-0.667773,-0.002098,0.002480,-0.023842,-1.101892
9.183892,-0.000191,-0.782216,-0.678836,-0.001717,0.002480,-0.023842,-1.101892
9.194005,-0.000191,-0.788701,-0.684558,-0.001717,0.002098,-0.023842,-1.101892
9.204070,-0.000191,-0.801671,-0.695621,-0.001717,0.002098,-0.023842,-1.101892
9.214134,-0.000191,-0.808156,-0.701343,-0.001717,0.002098,-0.023842,-1.101892
9.224204,-0.000191,-0.820745,-0.712405,-0.001717,0.002098,-0.023842,-1.101892
9.234273,-0.000191,-0.826848,-0.717746,-0.001717,0.002098,-0.023842,-1.101892
9.244383,-0.000191,-0.839437,-0.728428,-0.001717,0.002098,-0.023842,-1.101892
9.254495,-0.000191,-0.845541,-0.733768,-0.001335,0.002098,-0.024223,-1.101892
9.264608,-0.000191,-0.858130,-0.744450,-0.001335,0.002098,-0.024223,-1.101892
9.274719,-0.000191,-0.863852,-0.749790,-0.001335,0.002098,-0.024605,-1.101892
9.284827,-0.000191,-0.876059,-0.760090,-0.001335,0.002098,-0.024986,-1.101892
9.294905,-0.000191,-0.882162,-0.765430,-0.001335,0.002098,-0.025749,-1.101892
9.305015,-0.000191,-0.893988,-0.775730,-0.001335,0.002098,-0.025749,-1.101892
9.315127,-0.000191,-0.899710,-0.780689,-0.001335,0.002098,-0.025749,-1.101892
9.325239,-0.000191,-0.911536,-0.790608,-0.001335,0.002098,-0.025749,-1.101892
9.335325,-0.000191,-0.917258,-0.795568,-0.001335,0.002098,-0.025749,-1.101892
9.345394,-0.000191,-0.929084,-0.805486,-0.001335,0.002098,-0.025749,-1.101892
9.355477,-0.000191,-0.934806,-0.810445,-0.001335,0.002098,-0.025749,-1.101892
9.365541,-0.000191,-0.946250,-0.820363,-0.001335,0.002098,-0.025749,-1.101892
9.375608,-0.000191,-0.951972,-0.825704,-0.001335,0.002098,-0.025749,-1.101892
9.385678,-0.000191,-0.963416,-0.835622,-0.001335,0.002098,-0.025749,-1.101892
9.395755,-0.000191,-0.969139,-0.840581,-0.001335,0.002098,-0.025749,-1.101892
9.405817,-0.000191,-0.980202,-0.850500,-0.001335,0.002098,-0.025749,-1.101892
9.415930,-0.000191,-0.985924,-0.855459,-0.001335,0.002098,-0.025749,-1.101892
9.426043,-0.000191,-0.996986,-0.865377,-0.001335,0.002098,-0.025749,-1.101892
9.436152,-0.000191,-1.002708,-0.870337,-0.001335,0.002098,-0.025749,-1.101892
9.446239,-0.000191,-1.013390,-0.879873,-0.001335,0.002098,-0.025749,-1.101892
9.456303,-0.000191,-1.019112,-0.884451,-0.001335,0.002098,-0.025749,-1.101892
9.466364,-0.000191,-1.029793,-0.893606,-0.001335,0.002098,-0.025749,-1.101892
9.476439,-0.000191,-1.035134,-0.898184,-0.001335,0.002098,-0.025749,-1.101892
9.486522,-0.000191,-1.046197,-0.907722,-0.001335,0.002098,-0.025749,-1.101892
9.496638,-0.000191,-1.051538,-0.912299,-0.001335,0.002098,-0.025749,-1.101892
9.506701,-0.000191,-1.062600,-0.921454,-0.001335,0.002098,-0.025749,-1.101892
9.516814,-0.000191,-1.067941,-0.926032,-0.001335,0.002098,-0.025749,-1.101892
9.526925,-0.000191,-1.078240,-0.935187,-0.001335,0.002098,-0.025749,-1.101892
9.537039,-0.000191,-1.083581,-0.939384,-0.001335,0.002098,-0.025749,-1.101892
9.547190,-0.000191,-1.094263,-0.948157,-0.001335,0.002098,-0.025749,-1.101892
9.557297,-0.000191,-1.099604,-0.952735,-0.001335,0.002098,-0.025749,-1.101892
9.567768,-0.000191,-1.110285,-0.961127,-0.001335,0.002098,-0.025749,-1.101892
9.577884,-0.000191,-1.115625,-0.965705,-0.001335,0.002098,-0.025749,-1.101892
9.588222,-0.000191,-1.126688,-0.974098,-0.001335,0.002098,-0.025749,-1.101892
9.598325,-0.000191,-1.132029,-0.978676,-0.001335,0.002098,-0.025749,-1.101892
9.608435,-0.000191,-1.143091,-0.987450,-0.001335,0.002098,-0.025749,-1.101892
9.618517,-0.000191,-1.148432,-0.991646,-0.001335,0.002098,-0.025749,-1.101892
9.628602,-0.000191,-1.159114,-1.000420,-0.001335,0.002098,-0.025749,-1.101892
9.638675,-0.000191,-1.164454,-1.004616,-0.001335,0.002098,-0.025749,-1.101892
9.648741,-0.000191,-1.175136,-1.013008,-0.001335,0.002098,-0.025749,-1.101892
9.658804,-0.000191,-1.180858,-1.017586,-0.000954,0.002098,-0.025749,-1.101892
9.668914,-0.000191,-1.191920,-1.025978,-0.000954,0.002098,-0.025749,-1.101892
9.678982,-0.000191,-1.197642,-1.030174,-0.000954,0.002098,-0.025749,-1.101892
9.689092,-0.000191,-1.208705,-1.038568,-0.000572,0.002098,-0.025749,-1.101892
9.699201,-0.000191,-1.214046,-1.042764,-0.000191,0.002098,-0.025749,-1.101892
9.709312,-0.000191,-1.225109,-1.051919,0.000191,0.002098,-0.025749,-1.101892
9.719440,-0.000191,-1.230450,-1.056115,0.000572,0.002098,-0.025749,-1.101892
9.729524,-0.000191,-1.241131,-1.064889,0.000954,0.002098,-0.025749,-1.101892
9.739638,-0.000191,-1.246471,-1.069085,0.000954,0.002098,-0.025749,-1.101892
9.749749,-0.000191,-1.257534,-1.077477,0.001717,0.002098,-0.025749,-1.101892
9.759860,-0.000191,-1.262875,-1.081674,0.002098,0.002098,-0.025749,-1.101892
9.769972,-0.000191,-1.273556,-1.090829,0.002861,0.002098,-0.025749,-1.101892
9.780121,-0.000191,-1.279278,-1.095407,0.003624,0.002098,-0.025749,-1.101892
9.790185,-0.000191,-1.289960,-1.104563,0.005150,0.002098,-0.025749,-1.101892
9.800252,-0.000191,-1.295300,-1.109140,0.005531,0.002098,-0.025749,-1.101892
9.810316,-0.000191,-1.305982,-1.119059,0.006676,0.002098,-0.025749,-1.101892
9.820380,-0.000191,-1.310941,-1.124018,0.007439,0.002098,-0.025749,-1.101892
9.830433,-0.000191,-1.321240,-1.133173,0.009346,0.002098,-0.025749,-1.101892
9.840551,-0.000191,-1.326200,-1.138132,0.010490,0.002098,-0.025749,-1.101892
9.850661,0.000191,-1.336118,-1.148050,0.012779,0.002098,-0.025749,-1.101892
9.860772,0.000191,-1.341077,-1.153009,0.013542,0.002098,-0.025749,-1.101892
9.870885,0.000191,-1.350615,-1.163310,0.015831,0.002098,-0.025749,-1.101892
9.880997,0.000191,-1.355574,-1.168269,0.016975,0.002098,-0.025749,-1.101892
9.891108,0.000191,-1.364729,-1.177806,0.020027,0.002098,-0.025749,-1.101892
9.901220,0.000954,-1.369688,-1.183146,0.020790,0.002098,-0.025749,-1.101892
9.911327,0.002098,-1.378843,-1.193065,0.023842,0.002098,-0.025749,-1.101892
9.921439,0.002861,-1.383421,-1.198024,0.025368,0.002098,-0.025749,-1.101892
9.931537,0.004387,-1.392195,-1.208323,0.028038,0.002480,-0.025749,-1.101892
9.941646,0.004768,-1.396391,-1.213664,0.029564,0.002480,-0.025749,-1.101892
9.951760,0.005150,-1.405546,-1.223202,0.032998,0.002480,-0.025749,-1.101892
9.961847,0.005150,-1.409743,-1.228161,0.034524,0.002480,-0.025749,-1.101892
9.971959,0.005150,-1.418517,-1.237698,0.037576,0.002480,-0.025749,-1.101892
9.982074,0.005531,-1.423095,-1.242657,0.039102,0.002098,-0.025749,-1.101892
9.992191,0.005913,-1.431487,-1.251431,0.041772,0.002098,-0.025749,-1.101892
10.002305,0.006676,-1.435302,-1.256008,0.043679,0.002098,-0.025749,-1.101892
10.012446,0.006676,-1.443313,-1.264019,0.046731,0.002098,-0.025749,-1.101892
10.022558,0.006676,-1.447509,-1.268215,0.047875,0.002098,-0.025749,-1.101892
10.032670,0.006676,-1.454757,-1.275463,0.050927,0.002098,-0.025749,-1.101892
10.042752,0.006676,-1.458190,-1.278896,0.052072,0.002098,-0.025749,-1.101892
10.052866,0.006676,-1.465438,-1.285382,0.053979,0.002098,-0.025749,-1.101892
10.062976,0.006676,-1.468872,-1.288434,0.054742,0.002098,-0.025749,-1.101892
10.073314,0.006676,-1.475357,-1.293775,0.057031,0.002098,-0.025749,-1.101892
10.083442,0.006676,-1.478409,-1.296063,0.057794,0.002098,-0.025749,-1.101892
10.093556,0.007057,-1.484512,-1.300260,0.058175,0.002098,-0.025749,-1.101892
10.103671,0.007820,-1.487183,-1.301785,0.058557,0.002098,-0.025749,-1.101892
10.113759,0.008965,-1.492523,-1.304456,0.058938,0.002098,-0.025749,-1.101892
10.123877,0.009727,-1.495193,-1.305600,0.058557,0.002098,-0.025749,-1.101892
10.134051,0.010490,-1.499771,-1.307508,0.058557,0.002098,-0.025749,-1.101892
10.144143,0.010872,-1.502060,-1.308270,0.058557,0.002098,-0.025749,-1.101892
10.154255,0.011253,-1.506638,-1.308652,0.058557,0.002098,-0.025749,-1.101892
10.164341,0.011253,-1.508926,-1.308652,0.058557,0.002098,-0.025749,-1.101892
10.174451,0.011253,-1.513123,-1.308652,0.057794,0.002098,-0.025749,-1.101892
10.184562,0.011253,-1.515030,-1.308652,0.057412,0.002098,-0.025749,-1.101892
10.194673,0.011253,-1.519608,-1.308652,0.057031,0.002098,-0.025749,-1.101892
10.204785,0.011253,-1.521515,-1.308652,0.057031,0.002098,-0.025749,-1.101892
10.214870,0.011253,-1.525330,-1.308652,0.056649,0.002098,-0.025749,-1.101892
10.224983,0.011253,-1.527237,-1.308652,0.056649,0.002098,-0.025749,-1.101892
10.235058,0.011253,-1.531434,-1.308652,0.057031,0.002098,-0.025749,-1.101892
10.245130,0.011253,-1.533341,-1.308652,0.057031,0.002098,-0.025749,-1.101892
10.255242,0.011253,-1.537538,-1.308652,0.057031,0.002098,-0.025749,-1.101892
10.265335,0.011253,-1.539826,-1.308652,0.057031,0.002098,-0.025749,-1.101892
10.275446,0.011253,-1.544023,-1.308652,0.057031,0.002098,-0.025749,-1.101892
10.285570,0.011253,-1.546311,-1.308652,0.057031,0.002098,-0.025749,-1.101892
10.295695,0.011253,-1.550889,-1.308652,0.057031,0.002098,-0.025749,-1.101892
10.305806,0.011253,-1.553178,-1.308652,0.057031,0.002098,-0.025749,-1.101892
10.315923,0.011253,-1.558137,-1.308652,0.057031,0.002098,-0.025749,-1.101892
10.326034,0.011253,-1.560426,-1.308652,0.057031,0.002098,-0.025749,-1.101892
10.336147,0.011253,-1.565766,-1.309033,0.057031,0.001717,-0.025368,-1.101892
10.346262,0.011253,-1.568055,-1.309033,0.057031,0.001717,-0.025368,-1.101892
10.356381,0.011253,-1.573014,-1.309033,0.057031,0.001335,-0.025368,-1.101892
10.366494,0.011253,-1.575303,-1.309033,0.057031,0.001335,-0.025368,-1.101892
10.376609,0.011253,-1.579881,-1.309033,0.057031,0.001335,-0.025368,-1.101892
10.386729,0.011253,-1.582170,-1.309033,0.056649,0.001335,-0.025368,-1.101892
10.396809,0.011253,-1.586747,-1.309796,0.056649,0.001335,-0.025368,-1.101892
10.406922,0.011253,-1.589036,-1.310178,0.056649,0.001335,-0.025368,-1.101892
10.417033,0.011253,-1.593232,-1.310941,0.057031,0.001335,-0.025368,-1.101892
10.427144,0.011253,-1.595522,-1.311322,0.057031,0.001335,-0.025368,-1.101892
10.437225,0.011253,-1.600100,-1.312467,0.057031,0.001335,-0.025368,-1.101892
10.447290,0.012016,-1.602007,-1.312848,0.057031,0.001335,-0.025368,-1.101892
10.457412,0.012779,-1.606203,-1.313611,0.057031,0.001335,-0.025749,-1.101892
10.467481,0.015068,-1.608492,-1.313993,0.057031,0.001335,-0.025749,-1.101892
10.477595,0.015831,-1.612307,-1.314755,0.057031,0.001335,-0.025749,-1.101892
10.487709,0.016975,-1.614595,-1.315518,0.057031,0.001335,-0.025749,-1.101892
10.497796,0.018120,-1.619555,-1.317044,0.057031,0.001335,-0.025749,-1.101892
10.507902,0.018883,-1.621843,-1.317807,0.057031,0.001335,-0.025749,-1.101892
10.518018,0.019264,-1.626421,-1.319333,0.057031,0.001335,-0.025749,-1.101892
10.528138,0.019646,-1.629091,-1.320096,0.057031,0.001335,-0.025749,-1.101892
10.538253,0.019646,-1.634050,-1.321622,0.057031,0.001335,-0.025749,-1.101892
10.548340,0.019646,-1.636339,-1.322385,0.057031,0.001335,-0.025749,-1.101892
10.558453,0.019646,-1.641298,-1.324292,0.057031,0.001335,-0.025749,-1.101892
10.568571,0.019646,-1.643969,-1.325437,0.057412,0.001335,-0.025749,-1.101892
10.578687,0.019646,-1.649309,-1.326962,0.057794,0.001335,-0.025749,-1.101892
10.588800,0.019646,-1.651598,-1.328107,0.057794,0.001717,-0.025749,-1.101892
10.598939,0.019646,-1.656940,-1.330396,0.057794,0.001717,-0.025749,-1.101892
10.609377,0.019646,-1.659610,-1.331159,0.057794,0.001717,-0.025749,-1.101892
10.619752,0.019646,-1.665332,-1.332685,0.058175,0.001717,-0.025749,-1.101892
10.629836,0.019646,-1.668384,-1.333447,0.058175,0.001717,-0.025749,-1.101892
10.639925,0.019646,-1.673724,-1.335736,0.058175,0.001717,-0.025749,-1.101892
10.650059,0.019646,-1.676776,-1.336499,0.058175,0.001717,-0.025749,-1.101892
10.660173,0.019646,-1.682879,-1.338407,0.058175,0.001717,-0.025749,-1.101892
10.670284,0.019646,-1.685550,-1.339551,0.058175,0.001717,-0.025749,-1.101892
10.680385,0.019646,-1.691653,-1.342603,0.057794,0.001717,-0.025749,-1.101892
10.690517,0.019646,-1.694705,-1.343747,0.057794,0.001717,-0.025749,-1.101892
10.700612,0.019646,-1.700809,-1.346800,0.057794,0.001717,-0.025749,-1.101892
10.710703,0.019646,-1.703860,-1.348326,0.057794,0.001717,-0.025749,-1.101892
10.721042,0.019646,-1.710345,-1.351759,0.057794,0.001717,-0.025749,-1.101892
10.731133,0.019646,-1.713397,-1.353285,0.057794,0.001717,-0.025749,-1.101892
10.741241,0.019646,-1.719883,-1.357100,0.057794,0.001717,-0.025749,-1.101892
10.751355,0.019646,-1.723316,-1.359388,0.057794,0.002098,-0.025749,-1.101892
10.761761,0.019646,-1.729801,-1.363585,0.058175,0.002480,-0.025749,-1.101892
10.771872,0.019646,-1.736286,-1.365873,0.058175,0.002480,-0.025749,-1.101892
10.781986,0.019646,-1.739338,-1.370070,0.058557,0.002480,-0.025749,-1.101892
10.792096,0.019646,-1.745823,-1.375410,0.058938,0.002480,-0.025749,-1.101892
10.802569,0.019646,-1.748875,-1.378080,0.059319,0.002480,-0.025749,-1.101892
10.812630,0.019646,-1.755360,-1.383421,0.059701,0.002480,-0.025749,-1.101892
10.822701,0.019646,-1.758411,-1.386473,0.060082,0.002480,-0.025749,-1.101892
10.832773,0.019646,-1.764896,-1.391813,0.061227,0.002480,-0.025749,-1.101892
10.842884,0.019646,-1.768330,-1.394484,0.061608,0.002480,-0.025749,-1.101892
10.852998,0.019646,-1.774815,-1.400969,0.063134,0.002480,-0.025749,-1.101892
10.863076,0.019646,-1.778248,-1.404402,0.063897,0.002480,-0.025749,-1.101892
10.873184,0.019646,-1.785115,-1.411651,0.064660,0.002480,-0.025749,-1.101892
10.883293,0.019646,-1.788548,-1.415084,0.066567,0.002480,-0.025749,-1.101892
10.893405,0.019646,-1.795796,-1.422332,0.068475,0.002480,-0.025749,-1.101892
10.903474,0.019646,-1.799230,-1.426147,0.069619,0.002480,-0.025749,-1.101892
10.913595,0.019646,-1.806478,-1.434157,0.072289,0.002480,-0.025749,-1.101892
10.923932,0.019646,-1.809911,-1.437972,0.073434,0.002480,-0.025749,-1.101892
10.934041,0.019646,-1.816777,-1.445601,0.075723,0.002480,-0.025749,-1.101892
10.944379,0.019646,-1.820210,-1.449416,0.077630,0.002480,-0.025749,-1.101892
10.954447,0.019646,-1.827077,-1.457046,0.079537,0.002480,-0.025749,-1.101892
10.964512,0.019646,-1.830510,-1.460860,0.080682,0.002480,-0.025749,-1.101892
10.974577,0.019646,-1.837377,-1.468108,0.082971,0.002480,-0.025749,-1.101892
10.984650,0.019646,-1.840810,-1.471161,0.084115,0.002480,-0.026131,-1.101892
10.994716,0.019646,-1.847296,-1.478409,0.085641,0.002480,-0.026894,-1.101892
11.004799,0.019646,-1.850729,-1.481461,0.086404,0.002480,-0.027275,-1.101892
11.014885,0.019646,-1.857214,-1.487946,0.087930,0.002480,-0.028801,-1.101892
11.024963,0.019646,-1.860266,-1.490997,0.089074,0.002480,-0.029564,-1.101892
11.035030,0.019646,-1.866751,-1.497482,0.090981,0.002480,-0.031472,-1.101892
11.045092,0.019646,-1.869802,-1.500916,0.091744,0.002480,-0.032235,-1.101892
11.055154,0.019646,-1.875906,-1.507782,0.093652,0.002480,-0.032617,-1.101892
11.065221,0.019646,-1.879339,-1.511215,0.094797,0.002480,-0.032998,-1.101892
11.075332,0.019646,-1.885443,-1.517319,0.097467,0.002480,-0.032998,-1.101892
11.085780,0.019646,-1.888113,-1.520752,0.098230,0.002480,-0.032998,-1.101892
11.095895,0.019646,-1.894217,-1.527618,0.100519,0.002480,-0.032998,-1.101892
11.106235,0.019646,-1.896887,-1.530670,0.101664,0.002480,-0.032998,-1.101892
11.116320,0.019646,-1.902990,-1.536775,0.104334,0.002480,-0.032998,-1.101892
11.126451,0.019646,-1.905661,-1.540208,0.105478,0.002480,-0.032998,-1.101892
11.136538,0.019646,-1.911765,-1.546693,0.107767,0.002480,-0.032998,-1.101892
11.146657,0.019646,-1.914435,-1.549745,0.108912,0.002480,-0.032998,-1.101892
11.157007,0.019646,-1.920539,-1.555848,0.111963,0.002480,-0.032998,-1.101892
11.167095,0.019646,-1.923209,-1.558900,0.112726,0.002480,-0.032998,-1.101892
11.177205,0.019646,-1.928931,-1.564622,0.115778,0.002480,-0.032998,-1.101892
11.187316,0.019646,-1.931983,-1.567674,0.116922,0.002480,-0.032998,-1.101892
11.197391,0.019646,-1.937324,-1.573396,0.119211,0.002480,-0.032998,-1.101892
11.207453,0.019646,-1.939994,-1.576066,0.119974,0.002480,-0.032998,-1.101892
11.217518,0.019646,-1.945334,-1.581407,0.122644,0.002480,-0.032998,-1.101892
11.227631,0.019646,-1.947623,-1.583695,0.123789,0.002480,-0.032998,-1.101892
11.237717,0.019646,-1.952582,-1.588273,0.125315,0.002480,-0.032998,-1.101892
11.247826,0.019646,-1.954871,-1.590562,0.126078,0.002480,-0.032998,-1.101892
11.257942,0.019646,-1.959449,-1.594759,0.127985,0.002480,-0.033380,-1.101892
11.268054,0.019646,-1.961356,-1.596285,0.128748,0.002480,-0.033380,-1.101892
11.278166,0.019646,-1.965934,-1.600100,0.130274,0.002480,-0.033380,-1.101892
11.288281,0.019646,-1.967841,-1.602007,0.130655,0.002480,-0.033380,-1.101892
11.298395,0.019646,-1.972038,-1.605440,0.131800,0.002480,-0.033380,-1.101892
11.308510,0.019646,-1.973946,-1.606966,0.132181,0.002480,-0.033380,-1.101892
11.318682,0.019646,-1.977760,-1.609636,0.133326,0.002480,-0.033380,-1.101892
11.328794,0.019646,-1.979668,-1.611544,0.134089,0.002480,-0.033380,-1.101892
11.338911,0.019646,-1.983101,-1.614214,0.135996,0.002480,-0.032998,-1.101892
11.348998,0.019646,-1.984627,-1.616121,0.136759,0.002480,-0.032998,-1.101892
11.359106,0.019646,-1.988060,-1.619936,0.137903,0.002480,-0.032998,-1.101892
11.369282,0.019646,-1.989967,-1.621462,0.138666,0.002480,-0.032998,-1.101892
11.379395,0.019646,-1.993401,-1.624895,0.140192,0.002480,-0.032998,-1.101892
11.389507,0.019646,-1.995308,-1.626421,0.141336,0.002480,-0.032998,-1.101892
11.399601,0.019646,-1.998360,-1.630236,0.143625,0.002480,-0.032998,-1.101892
11.409706,0.019646,-2.000267,-1.632143,0.144388,0.002480,-0.032998,-1.101892
11.419815,0.019646,-2.003700,-1.635958,0.146296,0.002480,-0.032998,-1.101892
11.429928,0.019646,-2.005608,-1.638247,0.147440,0.002480,-0.033380,-1.101892
11.440043,0.019646,-2.009041,-1.641680,0.150110,0.002480,-0.033380,-1.101892
11.450117,0.019646,-2.010567,-1.643969,0.151255,0.002480,-0.033380,-1.101892
11.460185,0.019646,-2.014381,-1.647402,0.153162,0.002480,-0.033380,-1.101892
11.470249,0.019646,-2.016289,-1.649309,0.154306,0.002480,-0.033380,-1.101892
11.480360,0.019646,-2.019722,-1.652742,0.156596,0.002480,-0.033380,-1.101892
11.490477,0.019646,-2.021248,-1.654268,0.157359,0.002480,-0.033380,-1.101892
11.500590,0.019646,-2.025063,-1.657702,0.158504,0.002480,-0.033380,-1.101892
11.510701,0.019646,-2.026970,-1.659228,0.159266,0.002480,-0.033380,-1.101892
11.520810,0.019646,-2.031166,-1.661899,0.161174,0.002480,-0.033761,-1.101892
11.530922,0.019646,-2.033074,-1.663424,0.161937,0.002480,-0.034142,-1.101892
11.541034,0.019646,-2.036889,-1.666858,0.162700,0.002480,-0.035668,-1.101892
11.551148,0.019646,-2.038796,-1.668384,0.163081,0.002480,-0.036431,-1.101892
11.561493,0.019646,-2.042993,-1.671435,0.164226,0.002480,-0.037957,-1.101892
11.571611,0.019646,-2.047189,-1.672961,0.164607,0.002480,-0.039102,-1.101892
11.581716,0.019646,-2.049478,-1.676013,0.165370,0.002098,-0.039865,-1.101892
11.591825,0.019646,-2.053292,-1.677920,0.166133,0.002098,-0.040246,-1.101892
11.601947,0.019646,-2.055200,-1.681735,0.168040,0.002098,-0.040627,-1.101892
11.612290,0.019646,-2.059777,-1.685931,0.168803,0.002098,-0.040627,-1.101892
11.622403,0.019646,-2.061685,-1.688601,0.170329,0.002098,-0.040627,-1.101892
11.632448,0.019646,-2.066262,-1.692798,0.171092,0.002098,-0.040627,-1.101892
11.642526,0.019646,-2.068551,-1.695086,0.173381,0.002098,-0.040627,-1.101892
11.652594,0.019646,-2.073510,-1.699664,0.174525,0.002098,-0.040627,-1.101892
11.662702,0.019646,-2.075799,-1.702334,0.176433,0.002098,-0.040627,-1.101892
11.672775,0.019646,-2.080377,-1.707294,0.177196,0.002098,-0.040627,-1.101892
11.682843,0.019646,-2.083047,-1.709964,0.179103,0.002098,-0.041009,-1.101892
11.692954,0.019646,-2.088006,-1.714923,0.180629,0.002098,-0.041390,-1.101892
11.703065,0.019646,-2.090295,-1.717975,0.183299,0.002098,-0.042535,-1.101892
11.713135,0.019646,-2.095636,-1.720646,0.184062,0.002098,-0.043298,-1.101892
11.723197,0.019646,-2.097925,-1.726749,0.186732,0.002098,-0.045205,-1.101892
11.733259,0.019646,-2.102884,-1.729801,0.188258,0.002098,-0.045968,-1.101892
11.743321,0.019646,-2.105555,-1.736286,0.190928,0.002098,-0.047494,-1.101892
11.753384,0.019646,-2.110514,-1.739338,0.192454,0.002098,-0.048257,-1.101892
11.763424,0.019646,-2.112803,-1.745823,0.195888,0.002098,-0.049783,-1.101892
11.773484,0.019646,-2.117380,-1.749256,0.197032,0.001717,-0.050927,-1.101892
11.783554,0.019646,-2.119669,-1.755741,0.199702,0.001717,-0.052835,-1.101892
11.793622,0.019646,-2.123865,-1.758793,0.201610,0.001717,-0.053216,-1.101892
11.803691,0.019646,-2.126154,-1.765278,0.203898,0.001717,-0.054742,-1.101892
11.813752,0.019646,-2.130350,-1.768330,0.205043,0.001717,-0.055886,-1.101892
11.823821,0.019646,-2.132257,-1.774433,0.207713,0.001717,-0.057794,-1.101892
11.833889,0.019646,-2.134546,-1.777103,0.208858,0.001717,-0.058938,-1.101892
11.844000,0.019646,-2.139124,-1.782445,0.210002,0.001717,-0.060082,-1.101892
11.854113,0.019646,-2.141031,-1.785115,0.210765,0.001717,-0.060845,-1.101892
11.864225,0.019646,-2.145227,-1.790074,0.211909,0.002098,-0.062753,-1.101892
11.874335,0.019646,-2.147516,-1.791982,0.212291,0.002098,-0.063516,-1.101892
11.884434,0.019646,-2.151712,-1.796178,0.212672,0.002480,-0.065042,-1.101892
11.894545,0.019646,-2.153620,-1.798085,0.213054,0.002480,-0.065804,-1.101892
11.904633,0.019646,-2.157435,-1.802663,0.213435,0.002480,-0.066567,-1.101892
11.914753,0.019646,-2.161250,-1.804189,0.213435,0.002480,-0.066949,-1.101892
11.924833,0.019646,-2.163157,-1.808003,0.213435,0.002480,-0.067712,-1.101892
11.934907,0.019646,-2.165065,-1.809529,0.213435,0.002480,-0.068093,-1.101892
11.944985,0.019646,-2.168880,-1.812963,0.213054,0.002480,-0.068856,-1.101892
11.955054,0.019646,-2.173076,-1.814488,0.212672,0.002480,-0.069619,-1.101892
11.965128,0.019646,-2.174983,-1.817540,0.212291,0.002480,-0.070382,-1.101892
11.975248,0.019646,-2.176890,-1.819066,0.211909,0.002480,-0.070764,-1.101892
11.985317,0.019646,-2.181087,-1.821736,0.211528,0.002480,-0.070764,-1.101892
11.995465,0.019646,-2.183375,-1.823262,0.211528,0.002480,-0.070764,-1.101892
12.005581,0.019646,-2.187190,-1.825933,0.211146,0.002480,-0.070764,-1.101892
12.015668,0.019646,-2.189479,-1.827077,0.210765,0.002480,-0.070764,-1.101892
12.025781,0.019646,-2.193675,-1.829366,0.210002,0.002480,-0.070764,-1.101892
12.035850,0.019646,-2.195582,-1.830129,0.210002,0.002480,-0.070764,-1.101892
12.045928,0.019646,-2.199779,-1.831655,0.210002,0.002098,-0.070764,-1.101892
12.055999,0.019646,-2.201304,-1.832417,0.209620,0.002098,-0.070764,-1.101892
12.066073,0.019646,-2.205501,-1.833943,0.209620,0.002098,-0.070764,-1.101892
12.076157,0.019646,-2.207026,-1.834706,0.209239,0.002098,-0.070764,-1.101892
12.086224,0.019646,-2.210841,-1.835851,0.209239,0.002098,-0.070764,-1.101892
12.096288,0.019646,-2.212749,-1.836232,0.209239,0.002098,-0.070764,-1.101892
12.106369,0.019646,-2.216563,-1.836232,0.209239,0.002098,-0.070764,-1.101892
12.116454,0.019646,-2.218089,-1.836232,0.209239,0.002098,-0.070764,-1.101892
12.126568,0.019646,-2.221142,-1.836232,0.208858,0.002098,-0.070382,-1.101892
12.136679,0.019646,-2.224194,-1.836232,0.208858,0.002098,-0.070382,-1.101892
12.147016,0.019646,-2.225719,-1.836232,0.208858,0.002098,-0.070382,-1.101892
12.157127,0.019646,-2.228771,-1.836232,0.209239,0.002098,-0.070382,-1.101892
12.167240,0.019646,-2.230297,-1.836232,0.209239,0.002098,-0.070382,-1.101892
12.177345,0.019646,-2.231441,-1.836232,0.209239,0.002098,-0.070382,-1.101892
12.187413,0.019646,-2.234112,-1.836232,0.209239,0.002098,-0.070382,-1.101892
12.197501,0.019646,-2.236401,-1.836232,0.209239,0.002098,-0.070382,-1.101892
12.207583,0.019646,-2.237926,-1.836232,0.209620,0.002098,-0.070382,-1.101892
12.217670,0.019646,-2.239834,-1.836232,0.209620,0.002098,-0.070382,-1.101892
12.227781,0.019646,-2.240597,-1.836232,0.210002,0.002098,-0.070382,-1.101892
12.237848,0.019646,-2.242504,-1.836232,0.210002,0.002098,-0.070382,-1.101892
12.247914,0.019646,-2.243649,-1.836232,0.210002,0.002098,-0.070382,-1.101892
12.257985,0.019646,-2.245556,-1.836232,0.210002,0.002098,-0.070382,-1.101892
12.268056,0.019646,-2.245937,-1.836232,0.210002,0.002098,-0.070382,-1.101892
12.278129,0.019646,-2.247845,-1.836232,0.210002,0.002098,-0.070382,-1.101892
12.288202,0.019646,-2.248608,-1.836232,0.210002,0.002098,-0.070382,-1.101892
12.298270,0.019646,-2.250515,-1.836232,0.210002,0.002098,-0.070382,-1.101892
12.308340,0.019646,-2.251278,-1.836232,0.210002,0.002098,-0.070382,-1.101892
12.318409,0.019646,-2.251659,-1.836232,0.210002,0.002098,-0.070382,-1.101892
12.328519,0.019646,-2.252041,-1.836232,0.210002,0.002098,-0.070382,-1.101892
12.338632,0.019646,-2.252804,-1.836232,0.210002,0.002098,-0.070382,-1.101892
12.348719,0.019646,-2.253567,-1.836232,0.210002,0.002098,-0.070382,-1.101892
12.358834,0.019646,-2.255474,-1.836232,0.210002,0.002098,-0.070382,-1.101892
12.368910,0.019646,-2.256237,-1.836232,0.210002,0.002098,-0.070382,-1.101892
12.378974,0.019646,-2.257381,-1.836232,0.210002,0.002098,-0.070382,-1.101892
12.389044,0.019646,-2.258144,-1.836232,0.210002,0.002098,-0.070001,-1.101892
12.399155,0.019646,-2.258907,-1.836232,0.210002,0.002098,-0.070001,-1.101892
12.409267,0.019646,-2.259289,-1.836232,0.210002,0.002098,-0.069238,-1.101892
12.419436,0.019646,-2.260815,-1.836232,0.210002,0.002098,-0.069238,-1.101892
12.429550,0.019646,-2.261196,-1.836232,0.210002,0.002098,-0.069238,-1.101892
12.439664,0.019646,-2.262722,-1.836232,0.210002,0.002098,-0.069238,-1.101892
12.449773,0.019646,-2.263485,-1.836232,0.210002,0.002098,-0.069238,-1.101892
12.459886,0.019646,-2.264629,-1.836232,0.210002,0.002098,-0.069238,-1.101892
12.470003,0.019646,-2.265392,-1.836232,0.210002,0.002098,-0.069238,-1.101892
12.480115,0.019646,-2.266537,-1.836232,0.210002,0.002098,-0.069238,-1.101892
12.490196,0.019646,-2.266918,-1.836232,0.210002,0.002098,-0.069238,-1.101892
12.500283,0.019646,-2.268444,-1.836232,0.209620,0.002098,-0.069238,-1.101892
12.510395,0.019646,-2.269207,-1.836232,0.209620,0.002098,-0.069238,-1.101892
12.520454,0.019646,-2.271114,-1.836232,0.209620,0.002098,-0.069238,-1.101892
12.530565,0.019646,-2.271877,-1.836232,0.209620,0.002098,-0.069238,-1.101892
12.540648,0.019646,-2.272640,-1.836232,0.209620,0.002098,-0.069238,-1.101892
12.550735,0.019646,-2.273022,-1.836232,0.209620,0.002098,-0.069238,-1.101892
12.560845,0.019646,-2.273785,-1.836232,0.209239,0.002098,-0.069238,-1.101892
12.570957,0.019646,-2.274548,-1.836232,0.209239,0.002098,-0.069238,-1.101892
12.581179,0.019646,-2.275311,-1.836232,0.209239,0.002098,-0.069238,-1.101892
12.591269,0.019646,-2.277599,-1.836232,0.209239,0.002098,-0.069238,-1.101892
12.601447,0.019646,-2.278744,-1.836232,0.209239,0.002098,-0.069238,-1.101892
12.611563,0.019646,-2.279507,-1.836232,0.208858,0.002098,-0.068856,-1.101892
12.621636,0.019646,-2.280270,-1.836232,0.208858,0.002098,-0.068856,-1.101892
12.631706,0.019646,-2.282559,-1.836232,0.208858,0.002098,-0.068475,-1.101892
12.641776,0.019646,-2.283704,-1.836232,0.208858,0.002098,-0.068475,-1.101892
12.651846,0.019646,-2.284848,-1.836232,0.208095,0.002098,-0.068475,-1.101892
12.661908,0.019646,-2.285611,-1.836232,0.208095,0.002098,-0.068475,-1.101892
12.671978,0.019646,-2.287137,-1.836232,0.208095,0.002098,-0.068475,-1.101892
12.682089,0.019646,-2.288281,-1.836232,0.208095,0.002098,-0.068475,-1.101892
12.692158,0.019646,-2.290570,-1.836232,0.208095,0.002098,-0.068475,-1.101892
12.702231,0.019646,-2.291333,-1.836232,0.208095,0.002098,-0.068475,-1.101892
12.712300,0.019646,-2.293241,-1.836232,0.208095,0.002098,-0.068475,-1.101892
12.722370,0.019646,-2.294385,-1.836232,0.208095,0.002098,-0.068475,-1.101892
12.732432,0.019646,-2.295911,-1.836232,0.208095,0.002098,-0.068475,-1.101892
12.742498,0.019646,-2.296674,-1.836232,0.208095,0.002098,-0.068475,-1.101892
