meetsitaram/go2-rebot/recordings/test_20260423_095641.csv
t,joint1,joint2,joint3,joint4,joint5,joint6,gripper
0.007451,0.003242,0.008202,-0.008202,-0.094034,-0.043679,-0.038720,-0.010490
0.017540,0.003242,0.008202,-0.008202,-0.094416,-0.043679,-0.038720,-0.010490
0.027605,0.003624,0.008202,-0.007820,-0.098230,-0.044061,-0.038720,-0.010490
0.037694,0.003624,0.008202,-0.007057,-0.100519,-0.044442,-0.038720,-0.010490
0.047761,0.003624,0.008202,-0.000572,-0.103952,-0.045205,-0.039483,-0.010490
0.057827,0.003624,0.008202,0.005150,-0.105478,-0.045587,-0.039483,-0.010490
0.067882,0.003624,0.008583,0.018501,-0.105478,-0.046731,-0.040246,-0.010109
0.077961,0.003624,0.008202,0.023460,-0.103189,-0.047875,-0.040627,-0.010109
0.088028,0.003624,0.008202,0.026512,-0.097086,-0.050927,-0.042153,-0.010109
0.098094,0.003624,0.008202,0.025749,-0.094416,-0.052072,-0.043298,-0.010109
0.108159,0.003624,0.008202,0.024605,-0.089837,-0.055123,-0.044442,-0.010109
0.118227,0.003624,0.008202,0.023842,-0.087930,-0.056649,-0.045205,-0.010109
0.128292,0.003624,0.008202,0.023460,-0.084496,-0.058557,-0.045587,-0.010109
0.138370,0.003624,0.008202,0.023460,-0.082589,-0.059701,-0.045587,-0.010109
0.148440,0.003624,0.008202,0.023842,-0.079156,-0.061608,-0.045205,-0.010109
0.158524,0.003624,0.008202,0.023842,-0.078012,-0.062371,-0.045205,-0.010109
0.168594,0.003624,0.008202,0.023842,-0.076486,-0.063516,-0.045205,-0.010109
0.178665,0.003624,0.008202,0.023842,-0.075341,-0.063516,-0.045205,-0.010109
0.188731,0.003624,0.008202,0.023842,-0.073434,-0.063516,-0.045205,-0.010109
0.198802,0.003624,0.008202,0.023842,-0.073052,-0.063134,-0.045205,-0.010109
0.208869,0.003624,0.008202,0.023842,-0.073052,-0.063134,-0.045205,-0.010109
0.218950,0.003624,0.008202,0.023842,-0.073052,-0.063134,-0.045205,-0.010109
0.229021,0.003624,0.008202,0.023842,-0.073052,-0.063134,-0.045205,-0.010109
0.239101,0.003624,0.008202,0.023842,-0.073434,-0.063134,-0.045205,-0.010109
0.249164,0.003624,0.008202,0.023842,-0.073434,-0.063134,-0.045205,-0.010109
0.259235,0.003624,0.008202,0.023842,-0.073815,-0.063134,-0.045205,-0.010109
0.269299,0.003624,0.008202,0.023842,-0.074960,-0.063134,-0.045205,-0.010109
0.279379,0.003624,0.008202,0.023842,-0.075341,-0.063134,-0.045205,-0.010109
0.289445,0.003624,0.008202,0.023842,-0.076867,-0.063134,-0.045205,-0.010109
0.299513,0.003624,0.008202,0.023842,-0.077249,-0.063134,-0.045205,-0.010109
0.309578,0.003624,0.008202,0.023842,-0.078774,-0.063134,-0.045205,-0.010109
0.319659,0.003624,0.008202,0.023842,-0.079156,-0.063134,-0.045205,-0.010109
0.329725,0.003624,0.008202,0.023842,-0.080300,-0.063134,-0.045205,-0.010109
0.339802,0.003624,0.008202,0.023842,-0.080682,-0.063134,-0.045205,-0.010109
0.349868,0.003624,0.008202,0.023842,-0.081445,-0.063134,-0.045205,-0.010109
0.359935,0.003624,0.008202,0.023842,-0.081826,-0.063134,-0.045205,-0.010109
0.370000,0.003624,0.008202,0.023842,-0.082589,-0.063134,-0.045205,-0.010109
0.380071,0.003624,0.008202,0.023842,-0.082589,-0.063134,-0.045205,-0.010109
0.390134,0.003624,0.008202,0.023842,-0.082589,-0.062753,-0.045205,-0.010109
0.400204,0.003624,0.008202,0.023842,-0.082589,-0.062753,-0.045205,-0.010109
0.410267,0.003624,0.008202,0.023842,-0.082589,-0.062371,-0.045205,-0.010109
0.420346,0.003624,0.008202,0.023842,-0.082589,-0.062371,-0.045205,-0.010109
0.430409,0.003624,0.008202,0.023842,-0.082589,-0.062371,-0.045205,-0.010109
0.440487,0.003624,0.008202,0.023842,-0.082971,-0.062371,-0.045205,-0.010109
0.450549,0.003624,0.008202,0.023842,-0.082971,-0.062371,-0.045205,-0.010109
0.460612,0.003624,0.008202,0.023842,-0.083352,-0.062371,-0.045205,-0.010109
0.470674,0.003624,0.008202,0.023842,-0.083734,-0.062371,-0.045205,-0.010109
0.480744,0.003624,0.008202,0.023842,-0.084115,-0.062371,-0.044824,-0.010109
0.490809,0.003624,0.008202,0.023842,-0.084496,-0.061990,-0.044824,-0.010109
0.500876,0.003624,0.008202,0.023842,-0.084496,-0.061990,-0.044061,-0.010109
0.511002,0.003624,0.008202,0.023842,-0.084496,-0.061990,-0.043679,-0.009727
0.521116,0.003624,0.008202,0.023842,-0.084496,-0.061990,-0.042535,-0.008965
0.531226,0.003624,0.008202,0.023842,-0.084115,-0.061990,-0.042535,-0.008202
0.541337,0.003624,0.008202,0.023842,-0.083734,-0.061990,-0.042153,-0.007057
0.551403,0.003624,0.008202,0.023842,-0.082971,-0.061990,-0.042153,-0.006294
0.561479,0.003624,0.008202,0.023842,-0.082589,-0.061608,-0.042153,-0.005531
0.571541,0.003624,0.008202,0.023842,-0.081826,-0.061608,-0.042153,-0.005531
0.581603,0.003624,0.008202,0.023842,-0.081445,-0.061608,-0.042153,-0.005531
0.591662,0.003624,0.008202,0.023842,-0.080682,-0.061227,-0.042153,-0.005531
0.601869,0.003624,0.008202,0.023842,-0.079537,-0.061227,-0.042153,-0.005531
0.611941,0.003624,0.008202,0.023842,-0.079156,-0.061227,-0.042153,-0.005531
0.622012,0.003624,0.008202,0.023842,-0.077630,-0.061227,-0.042153,-0.005531
0.632074,0.003624,0.008202,0.023842,-0.076867,-0.061227,-0.042153,-0.005531
0.642144,0.003624,0.008202,0.023842,-0.074197,-0.061227,-0.042153,-0.005531
0.652209,0.003624,0.008202,0.023842,-0.073052,-0.061227,-0.042153,-0.005531
0.662324,0.003624,0.008202,0.023842,-0.070764,-0.061227,-0.042153,-0.005531
0.672435,0.003624,0.008202,0.023842,-0.069619,-0.061227,-0.042153,-0.005531
0.682546,0.003624,0.008202,0.023842,-0.066949,-0.061227,-0.042153,-0.005531
0.692657,0.003624,0.008202,0.023842,-0.065423,-0.061227,-0.042153,-0.005531
0.702768,0.003624,0.008202,0.023842,-0.063134,-0.061608,-0.042153,-0.005531
0.712854,0.003624,0.008202,0.023842,-0.061608,-0.061608,-0.042153,-0.005531
0.722961,0.003624,0.008202,0.023842,-0.058557,-0.061990,-0.042153,-0.005531
0.733073,0.003624,0.008202,0.023842,-0.057412,-0.062371,-0.042153,-0.005531
0.743182,0.003624,0.008202,0.023842,-0.053979,-0.062753,-0.042153,-0.005531
0.753263,0.003624,0.008202,0.023842,-0.052835,-0.063134,-0.042153,-0.005531
0.763333,0.003624,0.008202,0.023842,-0.050164,-0.063516,-0.042153,-0.005531
0.773400,0.003624,0.008202,0.023842,-0.048638,-0.063897,-0.042535,-0.005531
0.783472,0.003624,0.008202,0.023842,-0.045968,-0.063897,-0.042535,-0.005531
0.793538,0.003624,0.008202,0.023842,-0.044824,-0.064279,-0.042535,-0.005531
0.803604,0.003624,0.008202,0.023842,-0.042535,-0.064279,-0.042916,-0.005531
0.813674,0.003624,0.008202,0.023842,-0.041390,-0.064279,-0.043298,-0.005531
0.823785,0.003624,0.008202,0.023842,-0.039102,-0.064279,-0.043679,-0.005531
0.833885,0.003624,0.008202,0.023842,-0.038339,-0.064279,-0.043679,-0.005531
0.843994,0.003624,0.008202,0.023842,-0.036431,-0.064279,-0.043298,-0.005531
0.854128,0.003624,0.008202,0.023842,-0.035287,-0.064279,-0.043298,-0.005531
0.864217,0.003624,0.008202,0.023842,-0.032998,-0.064279,-0.043298,-0.005531
0.874326,0.003624,0.008202,0.023842,-0.031854,-0.064279,-0.043298,-0.005531
0.884439,0.003624,0.008202,0.023842,-0.030327,-0.064279,-0.043298,-0.005531
0.894550,0.003624,0.008202,0.023842,-0.029182,-0.064279,-0.043298,-0.005531
0.904661,0.003624,0.008202,0.023842,-0.026894,-0.064279,-0.043298,-0.005531
0.914775,0.003624,0.008202,0.023842,-0.026512,-0.064279,-0.043298,-0.005531
0.924886,0.003624,0.008202,0.023842,-0.025368,-0.064279,-0.043298,-0.005531
0.935000,0.003624,0.008202,0.023842,-0.025368,-0.064279,-0.043298,-0.005531
0.945086,0.003624,0.008202,0.023842,-0.024986,-0.064279,-0.043298,-0.005531
0.955158,0.003624,0.008202,0.023842,-0.024605,-0.064279,-0.043298,-0.005531
0.965232,0.003624,0.008202,0.023842,-0.024223,-0.064279,-0.043298,-0.005531
0.975341,0.003624,0.008202,0.023842,-0.024223,-0.064279,-0.043298,-0.005531
0.985455,0.003624,0.008202,0.023842,-0.024605,-0.063897,-0.043298,-0.005531
0.995563,0.003624,0.008202,0.023842,-0.025368,-0.063897,-0.043298,-0.005531
1.005679,0.003624,0.008202,0.023842,-0.026512,-0.063897,-0.043298,-0.005531
1.015792,0.003624,0.008202,0.023842,-0.027275,-0.063897,-0.043298,-0.005531
1.025905,0.003624,0.008202,0.023842,-0.028801,-0.063897,-0.043298,-0.005531
1.036020,0.003624,0.008202,0.023842,-0.029945,-0.063897,-0.043298,-0.005531
1.046133,0.003624,0.008202,0.023842,-0.032617,-0.063516,-0.043298,-0.005531
1.056244,0.003624,0.008202,0.023842,-0.034142,-0.063134,-0.043298,-0.005531
1.066365,0.003624,0.008202,0.023842,-0.037194,-0.062753,-0.043298,-0.005531
1.076475,0.003624,0.008202,0.023842,-0.039102,-0.062753,-0.043298,-0.005531
1.086568,0.003624,0.008202,0.023842,-0.042916,-0.062371,-0.043298,-0.005531
1.096652,0.003624,0.008202,0.023842,-0.045205,-0.061990,-0.043298,-0.005531
1.106765,0.003624,0.008202,0.023842,-0.050164,-0.061608,-0.043298,-0.005531
1.116896,0.003624,0.008202,0.023842,-0.052835,-0.061227,-0.043298,-0.005531
1.127232,0.003624,0.008202,0.023842,-0.058557,-0.060464,-0.043298,-0.005531
1.137343,0.003624,0.008202,0.023842,-0.061227,-0.060082,-0.043298,-0.005531
1.147441,0.003624,0.008202,0.023842,-0.066949,-0.058175,-0.043298,-0.005531
1.157549,0.003624,0.008202,0.023842,-0.070001,-0.057031,-0.043298,-0.005531
1.167662,0.003624,0.008202,0.023842,-0.075341,-0.055123,-0.043679,-0.005531
1.177753,0.003624,0.008202,0.023842,-0.078012,-0.053979,-0.043679,-0.005531
1.187893,0.003624,0.008202,0.023842,-0.082589,-0.052072,-0.043679,-0.005531
1.197966,0.003624,0.008202,0.023842,-0.085259,-0.050927,-0.044061,-0.005531
1.208046,0.003624,0.008202,0.023842,-0.089456,-0.049020,-0.045205,-0.005531
1.218119,0.003624,0.008202,0.023842,-0.091744,-0.048257,-0.045968,-0.005531
1.228203,0.003624,0.008202,0.023842,-0.095560,-0.046731,-0.046731,-0.005531
1.238316,0.003624,0.008202,0.023842,-0.097849,-0.045968,-0.046731,-0.005531
1.248427,0.003624,0.008202,0.023842,-0.101282,-0.044061,-0.047112,-0.005531
1.258513,0.003624,0.008202,0.023842,-0.102808,-0.043298,-0.047112,-0.005531
1.268623,0.003624,0.008202,0.023842,-0.105860,-0.042153,-0.047494,-0.005531
1.278733,0.003624,0.008202,0.023842,-0.107004,-0.041390,-0.047875,-0.005531
1.288846,0.003624,0.008202,0.023842,-0.108912,-0.040627,-0.048257,-0.005531
1.298895,0.003624,0.008202,0.023842,-0.109674,-0.039865,-0.048638,-0.005531
1.309006,0.003624,0.008202,0.023842,-0.111200,-0.038339,-0.049783,-0.005531
1.319115,0.003624,0.008202,0.023842,-0.111582,-0.037576,-0.050927,-0.005531
1.329231,0.003624,0.008202,0.023842,-0.111963,-0.036431,-0.052835,-0.005531
1.339341,0.003624,0.008202,0.023842,-0.111963,-0.036431,-0.053597,-0.005531
1.349413,0.003624,0.008202,0.023842,-0.111963,-0.036813,-0.054742,-0.005531
1.359511,0.003624,0.008202,0.023842,-0.111963,-0.036813,-0.055505,-0.005531
1.369599,0.003624,0.008202,0.023842,-0.111200,-0.036813,-0.057412,-0.005531
1.379716,0.003624,0.008202,0.023842,-0.110819,-0.036813,-0.058175,-0.005531
1.389831,0.003624,0.008202,0.023842,-0.109293,-0.036813,-0.058938,-0.005531
1.399943,0.003624,0.008202,0.023842,-0.107767,-0.037194,-0.058938,-0.005531
1.410054,0.003624,0.008202,0.023842,-0.105097,-0.037957,-0.058938,-0.005531
1.420167,0.003624,0.008202,0.023842,-0.103571,-0.037957,-0.058938,-0.005531
1.430292,0.003624,0.008202,0.023842,-0.100138,-0.038720,-0.058557,-0.005531
1.440403,0.003624,0.008202,0.023842,-0.098230,-0.038720,-0.058557,-0.005531
1.450516,0.003624,0.008202,0.023842,-0.094797,-0.039483,-0.058175,-0.005531
1.460627,0.003624,0.008202,0.023842,-0.092507,-0.039865,-0.058175,-0.005531
1.470740,0.003624,0.008202,0.023842,-0.089456,-0.040246,-0.058175,-0.005531
1.480917,0.003624,0.008202,0.023842,-0.087548,-0.040627,-0.058175,-0.005531
1.491028,0.003624,0.008202,0.023842,-0.084115,-0.042535,-0.058175,-0.005531
1.501140,0.003624,0.008202,0.023842,-0.082589,-0.043679,-0.058175,-0.005531
1.511248,0.003624,0.008202,0.023842,-0.079537,-0.045587,-0.058175,-0.005531
1.521364,0.003624,0.008202,0.023842,-0.078012,-0.046350,-0.058175,-0.005531
1.531476,0.003624,0.008202,0.023842,-0.075723,-0.047875,-0.058175,-0.005531
1.541588,0.003624,0.008202,0.023842,-0.074197,-0.048638,-0.058175,-0.005531
1.551706,0.003624,0.008202,0.023842,-0.071908,-0.050546,-0.058175,-0.005531
1.561794,0.003624,0.008202,0.023842,-0.071145,-0.051309,-0.058175,-0.005531
1.572170,0.003624,0.008202,0.023842,-0.070382,-0.052453,-0.058175,-0.005531
1.582282,0.003624,0.008202,0.023842,-0.069619,-0.052835,-0.058175,-0.005531
1.592392,0.003624,0.008202,0.023842,-0.068475,-0.053597,-0.058175,-0.005531
1.602503,0.003624,0.008202,0.023842,-0.067712,-0.053979,-0.058175,-0.005531
1.612613,0.003624,0.008202,0.023842,-0.066949,-0.055886,-0.058175,-0.005531
1.622725,0.003624,0.008202,0.023842,-0.066567,-0.057031,-0.058175,-0.005531
1.632837,0.003624,0.008202,0.023842,-0.066567,-0.058557,-0.058175,-0.005531
1.642923,0.003624,0.008202,0.023842,-0.066567,-0.058938,-0.058175,-0.005531
1.653034,0.003624,0.008202,0.023842,-0.066186,-0.059319,-0.058175,-0.005531
1.663098,0.003624,0.008202,0.023842,-0.065804,-0.059319,-0.058175,-0.005531
1.673162,0.003624,0.008202,0.023842,-0.065042,-0.059319,-0.058175,-0.005531
1.683247,0.003624,0.008202,0.023842,-0.065042,-0.059319,-0.058175,-0.005531
1.693356,0.003624,0.008202,0.023842,-0.064660,-0.059319,-0.058175,-0.005531
1.703433,0.003624,0.008202,0.023842,-0.064660,-0.059319,-0.058175,-0.005531
1.713513,0.003624,0.008202,0.023842,-0.064660,-0.059701,-0.058175,-0.005531
1.723580,0.003624,0.008202,0.023842,-0.064660,-0.060464,-0.058175,-0.005531
1.733648,0.003624,0.008202,0.023842,-0.064660,-0.062371,-0.058175,-0.005531
1.743712,0.003624,0.008202,0.023842,-0.064660,-0.063516,-0.058175,-0.005531
1.753788,0.003624,0.008202,0.023842,-0.065042,-0.065804,-0.058175,-0.005531
1.763895,0.003624,0.008202,0.023842,-0.065042,-0.066567,-0.058175,-0.005531
1.774240,0.003624,0.008202,0.023842,-0.065804,-0.067712,-0.058175,-0.005531
1.784362,0.003624,0.008202,0.023842,-0.065804,-0.068475,-0.058175,-0.005531
1.794475,0.003624,0.008202,0.023842,-0.065804,-0.070001,-0.058175,-0.005531
1.804544,0.003624,0.008202,0.023842,-0.066186,-0.070382,-0.058175,-0.005531
1.814611,0.003624,0.008202,0.023842,-0.066949,-0.071145,-0.057794,-0.005531
1.824723,0.003624,0.008202,0.023842,-0.067330,-0.071145,-0.057412,-0.005531
1.834834,0.003624,0.008202,0.023842,-0.068093,-0.071527,-0.057031,-0.005531
1.844949,0.003624,0.008202,0.023842,-0.068475,-0.071908,-0.057031,-0.005531
1.855062,0.003624,0.008202,0.023842,-0.070001,-0.072289,-0.057031,-0.005531
1.865262,0.003624,0.008202,0.023842,-0.070764,-0.072289,-0.057031,-0.005531
1.875371,0.003624,0.008202,0.023842,-0.072671,-0.072671,-0.057031,-0.005531
1.885483,0.003624,0.008202,0.023842,-0.073434,-0.073052,-0.057031,-0.005531
1.895591,0.003624,0.008202,0.023842,-0.074960,-0.073052,-0.057412,-0.005531
1.905706,0.003624,0.008202,0.023842,-0.076104,-0.073052,-0.057412,-0.005531
1.915793,0.003624,0.008202,0.023842,-0.078774,-0.073434,-0.057412,-0.005531
1.925883,0.003624,0.008202,0.023842,-0.079919,-0.073815,-0.057412,-0.005531
1.935996,0.003624,0.008202,0.023842,-0.082208,-0.073815,-0.057412,-0.005531
1.946061,0.003624,0.008202,0.023842,-0.082971,-0.073815,-0.057412,-0.005531
1.956140,0.003624,0.008202,0.023842,-0.085641,-0.073815,-0.057412,-0.005531
1.966209,0.003624,0.008202,0.023842,-0.086785,-0.073815,-0.057412,-0.005531
1.976318,0.003624,0.008202,0.023842,-0.088693,-0.073815,-0.057412,-0.005531
1.986388,0.003624,0.008202,0.023842,-0.089456,-0.073815,-0.057412,-0.005531
1.996463,0.003624,0.008202,0.023842,-0.090600,-0.073815,-0.057412,-0.005531
2.006542,0.003624,0.008202,0.023842,-0.091363,-0.073815,-0.057412,-0.005531
2.016611,0.003624,0.008202,0.023842,-0.091744,-0.073815,-0.057412,-0.005531
2.026690,0.003624,0.008202,0.023842,-0.091363,-0.073815,-0.057412,-0.005531
2.036770,0.003624,0.008202,0.023842,-0.090981,-0.073815,-0.057412,-0.005531
2.046885,0.003624,0.008202,0.023842,-0.090981,-0.073815,-0.057412,-0.005531
2.056968,0.003624,0.008202,0.023842,-0.090219,-0.073815,-0.057412,-0.005531
2.067094,0.003624,0.008202,0.023842,-0.089456,-0.073815,-0.057412,-0.005531
2.077204,0.003624,0.008202,0.023842,-0.087548,-0.073815,-0.057412,-0.005531
2.087321,0.003624,0.008202,0.023842,-0.086404,-0.074197,-0.057412,-0.005531
2.097440,0.003624,0.008202,0.023842,-0.084878,-0.075341,-0.057412,-0.005531
2.107551,0.003624,0.008202,0.023842,-0.084115,-0.076104,-0.057412,-0.005531
2.117673,0.003624,0.008202,0.023842,-0.081445,-0.077630,-0.057412,-0.005913
2.127747,0.003624,0.008202,0.023842,-0.079919,-0.078393,-0.057412,-0.005913
2.137817,0.003624,0.008202,0.023842,-0.077630,-0.079156,-0.057412,-0.005913
2.147883,0.003624,0.008202,0.023842,-0.076104,-0.079537,-0.057412,-0.005913
2.157953,0.003624,0.008202,0.023842,-0.072671,-0.080300,-0.057412,-0.005913
2.168023,0.003624,0.008202,0.023842,-0.071527,-0.081063,-0.057412,-0.005913
2.178088,0.003624,0.008202,0.023842,-0.068856,-0.082208,-0.057412,-0.005913
2.188154,0.003624,0.008202,0.023842,-0.067330,-0.083352,-0.057412,-0.005913
2.198240,0.003624,0.008202,0.023842,-0.064660,-0.084496,-0.057412,-0.005913
2.208349,0.003624,0.008202,0.023842,-0.063516,-0.084878,-0.057412,-0.005913
2.218459,0.003624,0.008202,0.023842,-0.060845,-0.086022,-0.057412,-0.005913
2.228569,0.003624,0.008202,0.023842,-0.059701,-0.086022,-0.057412,-0.005913
2.238683,0.003624,0.008202,0.023842,-0.058175,-0.086785,-0.057412,-0.005913
2.248857,0.003624,0.008202,0.023842,-0.057412,-0.087548,-0.057412,-0.005913
2.258874,0.003624,0.008202,0.023842,-0.056268,-0.088311,-0.057412,-0.005913
2.268948,0.003624,0.008202,0.023842,-0.055505,-0.090219,-0.057412,-0.005913
2.279059,0.003624,0.008202,0.023842,-0.053597,-0.090600,-0.057412,-0.005913
2.289131,0.003624,0.008202,0.023842,-0.053216,-0.090600,-0.057412,-0.005913
2.299201,0.003624,0.008202,0.023842,-0.053216,-0.090600,-0.057412,-0.005913
2.309268,0.003624,0.008202,0.023842,-0.053216,-0.090219,-0.057412,-0.005913
2.319334,0.003624,0.008202,0.023842,-0.053216,-0.090219,-0.057412,-0.005913
2.329399,0.003624,0.008202,0.023842,-0.052835,-0.090219,-0.057412,-0.005913
2.339513,0.003624,0.008202,0.023842,-0.052453,-0.090219,-0.057412,-0.005913
2.349588,0.003624,0.008202,0.023842,-0.052453,-0.090219,-0.057412,-0.005913
2.359702,0.003624,0.008202,0.023842,-0.052453,-0.090219,-0.057412,-0.005913
2.369815,0.003624,0.008202,0.023842,-0.052835,-0.090219,-0.057412,-0.005913
2.379924,0.003624,0.008202,0.023842,-0.052835,-0.090219,-0.057412,-0.005913
2.390035,0.003624,0.008202,0.023842,-0.053597,-0.090219,-0.057412,-0.005913
2.400101,0.003624,0.008202,0.023842,-0.053979,-0.090600,-0.057412,-0.005913
2.410167,0.003624,0.008202,0.023842,-0.054742,-0.090600,-0.057412,-0.005913
2.420233,0.003624,0.008202,0.023842,-0.055123,-0.090600,-0.057412,-0.005913
2.430323,0.003624,0.008202,0.023842,-0.056649,-0.090600,-0.057412,-0.005913
2.440439,0.003624,0.008202,0.023842,-0.057412,-0.090600,-0.057412,-0.005913
2.450615,0.003624,0.008202,0.023842,-0.058938,-0.090600,-0.057412,-0.005913
2.460727,0.003624,0.008202,0.023842,-0.059701,-0.090219,-0.057412,-0.005913
2.470837,0.003624,0.008202,0.023842,-0.060845,-0.090219,-0.057412,-0.005913
2.480951,0.003624,0.008202,0.023842,-0.061227,-0.090219,-0.057412,-0.005913
2.491063,0.003624,0.008202,0.023842,-0.062753,-0.090219,-0.057412,-0.005913
2.501177,0.003624,0.008202,0.023842,-0.063516,-0.090219,-0.057412,-0.005913
2.511287,0.003624,0.008202,0.023842,-0.065423,-0.090219,-0.057412,-0.005913
2.521400,0.003624,0.008202,0.023842,-0.066186,-0.089837,-0.057412,-0.005913
2.531483,0.003624,0.008202,0.023842,-0.066949,-0.089074,-0.057412,-0.005913
2.541544,0.003624,0.008202,0.023842,-0.067330,-0.088311,-0.057412,-0.005913
2.551614,0.003624,0.008202,0.023842,-0.068093,-0.087167,-0.057412,-0.005913
2.561681,0.003624,0.008202,0.023842,-0.068475,-0.086022,-0.057412,-0.005913
2.571757,0.003242,0.008202,0.023842,-0.069238,-0.083734,-0.057412,-0.005913
2.581905,0.003242,0.008202,0.023842,-0.070001,-0.082589,-0.057412,-0.005913
2.592016,0.003242,0.008202,0.023842,-0.070382,-0.080300,-0.057412,-0.005913
2.602128,0.003242,0.008202,0.023842,-0.070764,-0.079156,-0.057412,-0.005913
2.612237,0.003242,0.008202,0.023842,-0.071145,-0.076867,-0.057412,-0.005913
2.622351,0.003624,0.008202,0.023842,-0.071145,-0.076104,-0.057412,-0.005913
2.632460,0.003624,0.008202,0.023842,-0.071145,-0.074960,-0.057412,-0.005913
2.642570,0.003624,0.008202,0.023842,-0.071145,-0.074578,-0.057412,-0.005913
2.652658,0.003624,0.008202,0.023842,-0.071145,-0.073815,-0.057412,-0.005913
2.662768,0.003624,0.008202,0.023842,-0.071145,-0.073052,-0.057412,-0.005913
2.672891,0.003624,0.008202,0.023842,-0.071145,-0.071908,-0.057412,-0.005913
2.682994,0.003624,0.008202,0.023842,-0.071145,-0.071145,-0.057412,-0.005913
2.693103,0.003624,0.008202,0.023842,-0.071145,-0.069619,-0.057412,-0.005913
2.703655,0.003624,0.008202,0.023842,-0.071145,-0.069238,-0.057412,-0.005913
2.713731,0.003624,0.008202,0.023842,-0.071145,-0.069238,-0.057412,-0.005913
2.723800,0.003624,0.008202,0.023842,-0.071527,-0.069238,-0.057412,-0.005913
2.733876,0.003624,0.008202,0.023842,-0.071527,-0.069619,-0.057412,-0.005913
2.743951,0.003624,0.008202,0.023842,-0.071527,-0.069619,-0.057412,-0.005913
2.754018,0.003624,0.008202,0.023842,-0.071527,-0.069619,-0.057412,-0.005913
2.764081,0.003624,0.008202,0.023842,-0.071527,-0.069619,-0.057412,-0.005913
2.774149,0.003624,0.008202,0.023842,-0.071527,-0.069619,-0.057412,-0.005913
2.784212,0.003624,0.008202,0.023842,-0.071527,-0.069619,-0.057412,-0.005913
2.794277,0.003624,0.008202,0.023842,-0.071145,-0.069619,-0.057412,-0.005913
2.804350,0.003624,0.008202,0.023842,-0.071145,-0.069619,-0.057412,-0.005913
2.814415,0.003624,0.008202,0.023842,-0.071145,-0.069619,-0.057412,-0.005913
2.824498,0.003624,0.008202,0.023842,-0.071145,-0.069619,-0.057412,-0.005913
2.834568,0.003624,0.008202,0.023842,-0.071145,-0.069619,-0.057412,-0.005913
2.844650,0.003624,0.008202,0.023842,-0.071145,-0.069619,-0.057412,-0.005913
2.854720,0.003624,0.008202,0.023842,-0.070764,-0.069619,-0.057412,-0.005913
2.864797,0.003624,0.008202,0.023842,-0.070764,-0.069619,-0.057412,-0.005913
2.874876,0.003624,0.008202,0.023842,-0.070001,-0.069619,-0.057412,-0.005913
2.884952,0.003624,0.008202,0.023842,-0.069619,-0.069619,-0.057412,-0.005913
2.895022,0.003624,0.008202,0.023842,-0.068856,-0.069238,-0.057412,-0.005913
2.905108,0.003624,0.008202,0.023842,-0.068093,-0.069238,-0.057412,-0.005913
2.915180,0.003624,0.008202,0.023842,-0.066186,-0.069238,-0.057412,-0.005913
2.925258,0.003624,0.008202,0.023842,-0.065042,-0.069238,-0.057412,-0.005913
2.935322,0.003624,0.008202,0.023842,-0.062753,-0.069238,-0.057412,-0.005913
2.945384,0.003624,0.008202,0.023842,-0.060845,-0.069238,-0.057412,-0.005913
2.955453,0.003624,0.008202,0.023842,-0.057794,-0.069238,-0.057412,-0.005913
2.965538,0.003624,0.008202,0.023842,-0.056268,-0.069238,-0.057412,-0.005913
2.975614,0.003624,0.008202,0.023842,-0.052453,-0.069238,-0.057412,-0.005913
2.985680,0.003624,0.008202,0.023842,-0.050927,-0.068856,-0.057412,-0.005913
2.995750,0.003624,0.008202,0.023842,-0.047112,-0.068475,-0.057412,-0.005913
3.005825,0.003624,0.008202,0.023842,-0.045205,-0.067712,-0.057412,-0.005913
3.015890,0.003624,0.008202,0.023842,-0.041009,-0.066949,-0.057412,-0.005913
3.025969,0.003624,0.008202,0.023842,-0.038720,-0.066186,-0.057412,-0.005913
3.036042,0.003624,0.008202,0.023842,-0.033761,-0.063897,-0.057412,-0.005913
3.046115,0.003624,0.008202,0.023842,-0.031472,-0.062753,-0.057412,-0.005913
3.056188,0.003624,0.008202,0.023842,-0.026512,-0.060082,-0.057412,-0.005913
3.066253,0.003624,0.008202,0.023842,-0.024223,-0.058557,-0.057412,-0.005913
3.076365,0.003624,0.008202,0.023842,-0.020027,-0.054742,-0.057031,-0.005913
3.086436,0.003624,0.008202,0.023842,-0.018120,-0.052835,-0.057031,-0.005913
3.096546,0.003624,0.008202,0.023842,-0.015068,-0.048257,-0.057031,-0.005913
3.106657,0.003624,0.008202,0.023842,-0.013542,-0.045968,-0.057031,-0.005913
3.116744,0.003624,0.008202,0.023842,-0.012016,-0.041009,-0.057031,-0.005913
3.126852,0.003624,0.008202,0.023842,-0.010872,-0.038339,-0.057031,-0.005913
3.136923,0.003624,0.008202,0.023842,-0.008583,-0.033761,-0.057031,-0.005913
3.147008,0.003624,0.008202,0.023842,-0.007439,-0.031472,-0.057412,-0.005913
3.157089,0.003624,0.008202,0.023842,-0.006294,-0.027657,-0.057412,-0.005913
3.167167,0.003624,0.008202,0.023842,-0.005531,-0.026131,-0.057412,-0.005913
3.177243,0.003624,0.008202,0.023842,-0.004387,-0.023842,-0.057412,-0.005913
3.187314,0.003624,0.008202,0.023842,-0.003242,-0.023079,-0.057412,-0.005913
3.197379,0.003624,0.008202,0.023842,-0.001335,-0.022697,-0.057412,-0.005913
3.207448,0.003624,0.008202,0.023842,-0.001335,-0.022697,-0.057412,-0.005913
3.217511,0.003624,0.008202,0.023842,-0.001335,-0.022697,-0.057412,-0.005913
3.227576,0.003624,0.008202,0.023842,-0.001335,-0.022316,-0.057412,-0.005913
3.237642,0.003624,0.008202,0.023842,-0.001335,-0.021553,-0.057794,-0.005913
3.247704,0.003624,0.008202,0.023842,-0.001335,-0.021553,-0.057794,-0.005913
3.257772,0.003624,0.008202,0.023842,-0.001335,-0.020790,-0.057794,-0.005913
3.267834,0.003624,0.008202,0.023842,-0.001335,-0.020790,-0.057794,-0.005913
3.277900,0.003624,0.008202,0.023842,-0.001335,-0.020409,-0.057794,-0.005913
3.287961,0.003624,0.008202,0.023842,-0.001335,-0.020027,-0.057794,-0.005913
3.298024,0.003624,0.008202,0.023842,-0.001335,-0.019646,-0.058557,-0.005913
3.308091,0.003624,0.008202,0.023842,-0.001335,-0.019646,-0.058557,-0.005913
3.318153,0.003624,0.008202,0.023842,-0.001335,-0.019646,-0.058557,-0.005913
3.328216,0.003624,0.008202,0.023842,-0.001335,-0.019646,-0.058557,-0.005913
3.338283,0.003624,0.008202,0.023842,-0.001335,-0.019646,-0.058557,-0.005913
3.348381,0.003624,0.008202,0.023842,-0.001335,-0.019646,-0.058557,-0.005913
3.358455,0.003624,0.008202,0.023842,-0.001335,-0.019646,-0.058557,-0.005913
3.368520,0.003624,0.008202,0.023842,-0.001335,-0.019646,-0.058557,-0.005913
3.378603,0.003624,0.008202,0.023842,-0.001335,-0.019646,-0.058557,-0.005913
3.388693,0.003624,0.008202,0.023842,-0.001335,-0.019646,-0.058557,-0.005913
3.398828,0.003624,0.008202,0.023842,-0.001335,-0.019646,-0.058557,-0.005913
3.408891,0.003624,0.008202,0.023842,-0.001335,-0.019646,-0.058557,-0.005913
3.418959,0.003624,0.008202,0.023842,-0.001335,-0.019646,-0.058557,-0.005913
3.429025,0.003624,0.008202,0.023842,-0.001335,-0.019646,-0.058557,-0.005913
3.439093,0.003624,0.008202,0.023842,-0.001335,-0.019646,-0.058557,-0.005913
3.449160,0.003624,0.008202,0.023842,-0.001335,-0.019646,-0.058557,-0.005913
3.459229,0.003624,0.008202,0.023842,-0.001335,-0.019646,-0.058557,-0.005913
3.469300,0.003624,0.008202,0.023842,-0.001335,-0.019646,-0.058557,-0.005913
3.479361,0.003624,0.008202,0.023842,-0.001335,-0.019646,-0.058557,-0.005913
3.489431,0.003624,0.008202,0.023842,-0.001335,-0.019264,-0.058175,-0.005913
3.499496,0.003624,0.008202,0.023842,-0.001335,-0.018883,-0.058175,-0.005913
3.509560,0.003624,0.008202,0.023842,-0.001335,-0.018501,-0.058175,-0.005913
3.519624,0.003624,0.008202,0.023842,-0.001335,-0.018501,-0.058175,-0.005913
3.529687,0.003624,0.008202,0.023842,-0.001335,-0.017738,-0.058175,-0.005913
3.539747,0.003624,0.008202,0.023842,-0.001335,-0.017738,-0.058175,-0.005913
3.549818,0.003624,0.008202,0.023842,-0.001335,-0.017738,-0.058175,-0.005913
3.559934,0.003624,0.008202,0.023842,-0.001335,-0.017738,-0.058175,-0.005913
3.570046,0.003624,0.008202,0.023842,-0.001335,-0.017738,-0.058175,-0.005913
3.580156,0.003624,0.008202,0.023842,-0.001335,-0.017738,-0.058175,-0.005913
3.590262,0.003624,0.008202,0.023460,-0.001335,-0.017738,-0.058175,-0.005913
3.600349,0.003624,0.008202,0.023460,-0.001717,-0.017738,-0.058175,-0.005913
3.610460,0.003624,0.008202,0.023460,-0.002098,-0.017738,-0.058175,-0.005913
3.620570,0.003624,0.008202,0.022697,-0.002098,-0.017738,-0.058175,-0.005913
3.630682,0.003624,0.008202,0.022697,-0.002098,-0.017738,-0.058175,-0.005913
3.640745,0.003624,0.008202,0.022697,-0.002098,-0.017738,-0.058175,-0.005913
3.650810,0.003624,0.008202,0.022697,-0.002098,-0.017738,-0.058175,-0.005913
3.660870,0.003624,0.008202,0.021553,-0.002480,-0.017738,-0.058175,-0.005913
3.670939,0.003624,0.008202,0.020790,-0.002098,-0.017738,-0.058175,-0.005913
3.681001,0.003624,0.008202,0.018501,-0.002098,-0.017738,-0.058175,-0.005913
3.691062,0.003624,0.008202,0.016975,-0.002098,-0.017738,-0.058175,-0.005913
3.701122,0.003624,0.007439,0.013924,-0.002098,-0.017738,-0.058175,-0.005913
3.711192,0.003624,0.006676,0.012016,-0.002098,-0.017357,-0.057794,-0.005913
3.721255,0.003624,0.004387,0.010109,-0.001717,-0.016975,-0.057412,-0.005913
3.731319,0.003624,0.003242,0.006294,-0.001717,-0.016594,-0.056649,-0.005913
3.741380,0.003624,-0.000191,0.002098,-0.001717,-0.016594,-0.056649,-0.005913
3.751450,0.003624,-0.002098,-0.000191,-0.001717,-0.016212,-0.056268,-0.005913
3.761752,0.003624,-0.006676,-0.005531,-0.001717,-0.016212,-0.056268,-0.005913
3.771820,0.003624,-0.008583,-0.008583,-0.001717,-0.015450,-0.056649,-0.005913
3.781933,0.003624,-0.013542,-0.014305,-0.001717,-0.015068,-0.056649,-0.005913
3.792050,0.003624,-0.016212,-0.017738,-0.001717,-0.014687,-0.056649,-0.005913
3.802141,0.003624,-0.021172,-0.023842,-0.001717,-0.014305,-0.056649,-0.005913
3.812250,0.003624,-0.023842,-0.026894,-0.001717,-0.012779,-0.056649,-0.005913
3.822331,0.003624,-0.029182,-0.033380,-0.001717,-0.012016,-0.056649,-0.005913
3.832516,0.003624,-0.032235,-0.036431,-0.001335,-0.010109,-0.056649,-0.005913
3.842596,0.003624,-0.037957,-0.042916,-0.001335,-0.008583,-0.056649,-0.005913
3.852707,0.003624,-0.041390,-0.045968,-0.001335,-0.008202,-0.056649,-0.005913
3.862822,0.003624,-0.047494,-0.052453,-0.001335,-0.006676,-0.056649,-0.005913
3.872934,0.003624,-0.050546,-0.055886,-0.001717,-0.005913,-0.056649,-0.005913
3.883058,0.003624,-0.057031,-0.062753,-0.001717,-0.004387,-0.056649,-0.005913
3.893170,0.003624,-0.060464,-0.066186,-0.001717,-0.004005,-0.056649,-0.005913
3.903343,0.003624,-0.067330,-0.073815,-0.001717,-0.003624,-0.056649,-0.005913
3.913452,0.003624,-0.071145,-0.077630,-0.002098,-0.003624,-0.056649,-0.005913
3.923522,0.003624,-0.078774,-0.085641,-0.002098,-0.004005,-0.056649,-0.005913
3.933594,0.003624,-0.082971,-0.090219,-0.002098,-0.004005,-0.056649,-0.005913
3.943705,0.003624,-0.091744,-0.099375,-0.002098,-0.004005,-0.056649,-0.005913
3.953781,0.003624,-0.096323,-0.103952,-0.002098,-0.004005,-0.056649,-0.005913
3.963847,0.003624,-0.106241,-0.113871,-0.002098,-0.004005,-0.056649,-0.005913
3.973929,0.003624,-0.111582,-0.119211,-0.002098,-0.004005,-0.056649,-0.005913
3.984009,0.003624,-0.122644,-0.129892,-0.002098,-0.004005,-0.056649,-0.005913
3.994117,0.003624,-0.128366,-0.135233,-0.002098,-0.004005,-0.056649,-0.005913
4.004202,0.003624,-0.140574,-0.146296,-0.002098,-0.004005,-0.056649,-0.005913
4.014310,0.003624,-0.147058,-0.152399,-0.002098,-0.004005,-0.056649,-0.005913
4.024425,0.003624,-0.160411,-0.164607,-0.002098,-0.004005,-0.056649,-0.005913
4.034535,0.003624,-0.167277,-0.170711,-0.002098,-0.004005,-0.056649,-0.005913
4.044649,0.003624,-0.181010,-0.183299,-0.002098,-0.004005,-0.056649,-0.005913
4.054721,0.003624,-0.187877,-0.189784,-0.002098,-0.004005,-0.056649,-0.005913
4.064805,0.003624,-0.201991,-0.203135,-0.002098,-0.004005,-0.056649,-0.005913
4.074918,0.003624,-0.208858,-0.209620,-0.002098,-0.004005,-0.056649,-0.005913
4.085029,0.003624,-0.223354,-0.216105,-0.002098,-0.004005,-0.056649,-0.005913
4.095139,0.003624,-0.230221,-0.229076,-0.002098,-0.004005,-0.056649,-0.005913
4.105316,0.003624,-0.244335,-0.242428,-0.002098,-0.004005,-0.056649,-0.005913
4.115426,0.003624,-0.251202,-0.248913,-0.002098,-0.004005,-0.056649,-0.005913
4.125541,0.003624,-0.264553,-0.261883,-0.002098,-0.004005,-0.056649,-0.005913
4.135653,0.003624,-0.271038,-0.268368,-0.002098,-0.004005,-0.056649,-0.005913
4.145717,0.003624,-0.284009,-0.274471,-0.002098,-0.004005,-0.056649,-0.005913
4.155790,0.003624,-0.290494,-0.286679,-0.002098,-0.004005,-0.056649,-0.005913
4.165891,0.003624,-0.302701,-0.292783,-0.002098,-0.004005,-0.056649,-0.005913
4.176004,0.003624,-0.308423,-0.304227,-0.002098,-0.004005,-0.056649,-0.005913
4.186090,0.003624,-0.319486,-0.309567,-0.002098,-0.004005,-0.056649,-0.005913
4.196198,0.003624,-0.324445,-0.319486,-0.002098,-0.004005,-0.056649,-0.005913
4.206310,0.003624,-0.333219,-0.328641,-0.002098,-0.004005,-0.056649,-0.005913
4.216419,0.003624,-0.337033,-0.332837,-0.002098,-0.004005,-0.056649,-0.005913
4.226482,0.003624,-0.343901,-0.340085,-0.002098,-0.004005,-0.057031,-0.005913
4.236559,0.003624,-0.346571,-0.343137,-0.001717,-0.004005,-0.057412,-0.005913
4.246620,0.003624,-0.351149,-0.348097,-0.001717,-0.004005,-0.057794,-0.005913
4.256689,0.003624,-0.353056,-0.350004,-0.001335,-0.004005,-0.057794,-0.005913
4.266821,0.003624,-0.356108,-0.353437,-0.001335,-0.004005,-0.057794,-0.005913
4.276910,0.003624,-0.357252,-0.354582,-0.001335,-0.004005,-0.058175,-0.005913
4.286975,0.003624,-0.359159,-0.355726,-0.001335,-0.004005,-0.058557,-0.005913
4.297038,0.003624,-0.359922,-0.356108,-0.001335,-0.004005,-0.058557,-0.005913
4.307109,0.003624,-0.359922,-0.356108,-0.001335,-0.004005,-0.058557,-0.005913
4.317187,0.003624,-0.359541,-0.356108,-0.001335,-0.004005,-0.058557,-0.005913
4.327267,0.003624,-0.359541,-0.355726,-0.001335,-0.004005,-0.058557,-0.005913
4.337351,0.003624,-0.359541,-0.354963,-0.001335,-0.004005,-0.058175,-0.005913
4.347435,0.003624,-0.359541,-0.354200,-0.001335,-0.004005,-0.058175,-0.005913
4.357576,0.003624,-0.359541,-0.353056,-0.001335,-0.004005,-0.058175,-0.005913
4.368896,0.003624,-0.359541,-0.351149,-0.001335,-0.004005,-0.058175,-0.005913
4.378979,0.003624,-0.359541,-0.350386,-0.001335,-0.004005,-0.058175,-0.005913
4.389057,0.003624,-0.359541,-0.347715,-0.001335,-0.004005,-0.058175,-0.005913
4.399132,0.003624,-0.359159,-0.346952,-0.001335,-0.004005,-0.058175,-0.005913
4.409204,0.003624,-0.358397,-0.345045,-0.001717,-0.004005,-0.058175,-0.005913
4.419287,0.003624,-0.358015,-0.343901,-0.001717,-0.004005,-0.058175,-0.005913
4.429368,0.003624,-0.356871,-0.342374,-0.002098,-0.004005,-0.058175,-0.005913
4.439449,0.003624,-0.356108,-0.340466,-0.002098,-0.004005,-0.058175,-0.005913
4.449524,0.003624,-0.354582,-0.339322,-0.002098,-0.004005,-0.058175,-0.005913
4.459606,0.003624,-0.353437,-0.336652,-0.002098,-0.004005,-0.058175,-0.005913
4.469680,0.003624,-0.351149,-0.335507,-0.002098,-0.004005,-0.058175,-0.005913
4.479760,0.003624,-0.350004,-0.332837,-0.002098,-0.004005,-0.058175,-0.005913
4.489834,0.003624,-0.347715,-0.331311,-0.002098,-0.004005,-0.058175,-0.005913
4.499881,0.003624,-0.346189,-0.328259,-0.002098,-0.004005,-0.058175,-0.005913
4.510005,0.003624,-0.343137,-0.326352,-0.002098,-0.004005,-0.058175,-0.005913
4.520097,0.003624,-0.340848,-0.322919,-0.002098,-0.004005,-0.058175,-0.005913
4.530189,0.003624,-0.338941,-0.320630,-0.002098,-0.004005,-0.058175,-0.005913
4.540308,0.003624,-0.334744,-0.316052,-0.002098,-0.004005,-0.058175,-0.005913
4.550379,0.003624,-0.332456,-0.313382,-0.002098,-0.004005,-0.058175,-0.005913
4.560454,0.003624,-0.327115,-0.308042,-0.002098,-0.004005,-0.058175,-0.005913
4.570566,0.003624,-0.324445,-0.305371,-0.002098,-0.004005,-0.058175,-0.005913
4.580677,0.003624,-0.318723,-0.299649,-0.002098,-0.004005,-0.058175,-0.005913
4.590745,0.003624,-0.315671,-0.296979,-0.002098,-0.004005,-0.058175,-0.005913
4.600852,0.003624,-0.309186,-0.290875,-0.002098,-0.004005,-0.058175,-0.005913
4.610945,0.003624,-0.305753,-0.287824,-0.002098,-0.004005,-0.058175,-0.005913
4.621012,0.003624,-0.298505,-0.281339,-0.002098,-0.004005,-0.058175,-0.005913
4.631095,0.003624,-0.295072,-0.277905,-0.002098,-0.004005,-0.058175,-0.005913
4.641162,0.003624,-0.287442,-0.271038,-0.002098,-0.004005,-0.058175,-0.005913
4.651237,0.003624,-0.283628,-0.267223,-0.002098,-0.004005,-0.058175,-0.005913
4.661308,0.003624,-0.275616,-0.259975,-0.002098,-0.004005,-0.058175,-0.005913
4.671381,0.003624,-0.271801,-0.256161,-0.002098,-0.004005,-0.058175,-0.005913
4.681445,0.003624,-0.263409,-0.248150,-0.002098,-0.004005,-0.058175,-0.005913
4.691523,0.003624,-0.259212,-0.244335,-0.002098,-0.004005,-0.058175,-0.005913
4.701592,0.003624,-0.250439,-0.236324,-0.002098,-0.004005,-0.058175,-0.005913
4.711672,0.003624,-0.245861,-0.232128,-0.002098,-0.004005,-0.058175,-0.005913
4.721740,0.003624,-0.236706,-0.224117,-0.002098,-0.004005,-0.058175,-0.005913
4.731825,0.003624,-0.232128,-0.219921,-0.002098,-0.004005,-0.058175,-0.005913
4.741943,0.003624,-0.222973,-0.211528,-0.002098,-0.004005,-0.058175,-0.005913
4.752038,0.003624,-0.218394,-0.207332,-0.002098,-0.004005,-0.058175,-0.005913
4.762149,0.003624,-0.209239,-0.198558,-0.002098,-0.004005,-0.058175,-0.005913
4.772235,0.003624,-0.204661,-0.193980,-0.002098,-0.004005,-0.058175,-0.005913
4.782344,0.003624,-0.194743,-0.184825,-0.002098,-0.004005,-0.058175,-0.005913
4.792453,0.003624,-0.189784,-0.180247,-0.002098,-0.004005,-0.058175,-0.005913
4.802564,0.003624,-0.179866,-0.171092,-0.002098,-0.004005,-0.058175,-0.005913
4.812650,0.003624,-0.174525,-0.166514,-0.002098,-0.004005,-0.058175,-0.005913
4.822812,0.003624,-0.164226,-0.157741,-0.002098,-0.004005,-0.058175,-0.005913
4.832932,0.003624,-0.159266,-0.153162,-0.002098,-0.004005,-0.058175,-0.005913
4.843046,0.003624,-0.149347,-0.144007,-0.002098,-0.004005,-0.058175,-0.005913
4.853131,0.003624,-0.144388,-0.139429,-0.002098,-0.004005,-0.058175,-0.005913
4.863242,0.003624,-0.134470,-0.130655,-0.002098,-0.004005,-0.058175,-0.005913
4.873358,0.003624,-0.129892,-0.126459,-0.002098,-0.004005,-0.058175,-0.005913
4.883472,0.003624,-0.120737,-0.118067,-0.002098,-0.004005,-0.058175,-0.005913
4.893595,0.003624,-0.116159,-0.113871,-0.002098,-0.004005,-0.058175,-0.005913
4.903706,0.003624,-0.107767,-0.106241,-0.002098,-0.004005,-0.058175,-0.005913
4.913824,0.003624,-0.103952,-0.102427,-0.002098,-0.004005,-0.058175,-0.005913
4.923923,0.003624,-0.096704,-0.095942,-0.002098,-0.004005,-0.058175,-0.005913
4.934033,0.003624,-0.090219,-0.092889,-0.002098,-0.004005,-0.058175,-0.005913
4.944144,0.003624,-0.087548,-0.087167,-0.002098,-0.004005,-0.058175,-0.005913
4.954256,0.003624,-0.082208,-0.084496,-0.002098,-0.004387,-0.058175,-0.005913
4.964366,0.003624,-0.079537,-0.079156,-0.002098,-0.004387,-0.058175,-0.005913
4.974481,0.003624,-0.074960,-0.074578,-0.002098,-0.004768,-0.058175,-0.005913
4.984596,0.003624,-0.073052,-0.071908,-0.002098,-0.005150,-0.058175,-0.005913
4.994707,0.003624,-0.068856,-0.067712,-0.002098,-0.005150,-0.058175,-0.005913
5.004779,0.003624,-0.066567,-0.065804,-0.002098,-0.005150,-0.058175,-0.005913
5.014889,0.003624,-0.062753,-0.061990,-0.002098,-0.005150,-0.058175,-0.005913
5.025008,0.003624,-0.060845,-0.059701,-0.002098,-0.005150,-0.058175,-0.005913
5.035093,0.003624,-0.057412,-0.055886,-0.002098,-0.005150,-0.058175,-0.005913
5.045204,0.003624,-0.055505,-0.053979,-0.002098,-0.005150,-0.058175,-0.005913
5.055315,0.003624,-0.052453,-0.050164,-0.002098,-0.005150,-0.058175,-0.005913
5.065401,0.003624,-0.050546,-0.047875,-0.002098,-0.005150,-0.058175,-0.005913
5.075512,0.003624,-0.047494,-0.045968,-0.002098,-0.005150,-0.058175,-0.005913
5.085633,0.003624,-0.045968,-0.042153,-0.002098,-0.005150,-0.058175,-0.005913
5.095746,0.003624,-0.042535,-0.038339,-0.002098,-0.005150,-0.058175,-0.005913
5.105856,0.003624,-0.041390,-0.036813,-0.002098,-0.005150,-0.058175,-0.005913
5.115970,0.003624,-0.037957,-0.033380,-0.002098,-0.005150,-0.058175,-0.005913
5.126085,0.003624,-0.036813,-0.031854,-0.002098,-0.005150,-0.058175,-0.005913
5.136208,0.003624,-0.034142,-0.029182,-0.002098,-0.005150,-0.058175,-0.005913
5.146322,0.003624,-0.032617,-0.027657,-0.002098,-0.005150,-0.058175,-0.005913
5.156394,0.003624,-0.029945,-0.024986,-0.002098,-0.005150,-0.058175,-0.005913
5.166462,0.003624,-0.028801,-0.023842,-0.002098,-0.005150,-0.058175,-0.005913
5.176528,0.003624,-0.025749,-0.021172,-0.002098,-0.005150,-0.058175,-0.005913
5.186592,0.003624,-0.024223,-0.020027,-0.002098,-0.005150,-0.058175,-0.005913
5.196702,0.003624,-0.021172,-0.019264,-0.002098,-0.005150,-0.058175,-0.005913
5.206821,0.003624,-0.019646,-0.016975,-0.002098,-0.005150,-0.058175,-0.005913
5.216939,0.003624,-0.016594,-0.015831,-0.002098,-0.005150,-0.058175,-0.005913
5.227051,0.003624,-0.015068,-0.013924,-0.002098,-0.005150,-0.058175,-0.005913
5.237136,0.003624,-0.011635,-0.012016,-0.002098,-0.005150,-0.058175,-0.005913
5.247248,0.003624,-0.009727,-0.010872,-0.002098,-0.005150,-0.058175,-0.005913
5.257360,0.003624,-0.006294,-0.008965,-0.002098,-0.005150,-0.058175,-0.005913
5.267473,0.003624,-0.004387,-0.007820,-0.002098,-0.005150,-0.058175,-0.005913
5.277583,0.003624,-0.000191,-0.005531,-0.002098,-0.005150,-0.058175,-0.005913
5.287698,0.003624,0.002098,-0.004387,-0.002098,-0.005150,-0.058175,-0.005913
5.297820,0.003624,0.005913,-0.002098,-0.002098,-0.005150,-0.058175,-0.005913
5.307934,0.003624,0.008202,-0.000954,-0.002098,-0.005150,-0.058175,-0.005913
5.318055,0.003624,0.011253,0.001717,-0.002098,-0.005150,-0.058175,-0.005913
5.328144,0.003624,0.012016,0.003242,-0.002480,-0.005150,-0.058175,-0.005913
5.338318,0.003624,0.012016,0.006294,-0.002480,-0.005150,-0.058175,-0.005913
5.348409,0.003624,0.012016,0.007439,-0.003624,-0.005150,-0.058175,-0.005913
5.358482,0.003624,0.012016,0.010109,-0.004387,-0.005150,-0.058175,-0.005913
5.368620,0.003624,0.012016,0.012016,-0.005150,-0.005150,-0.058175,-0.005913
5.378731,0.003624,0.012016,0.015450,-0.006294,-0.005150,-0.058175,-0.005913
5.388842,0.003624,0.012016,0.017738,-0.007057,-0.005150,-0.058175,-0.005913
5.398954,0.003624,0.012016,0.021553,-0.006676,-0.005150,-0.058175,-0.005913
5.409067,0.003624,0.012016,0.023079,-0.006294,-0.005150,-0.058175,-0.005913
5.419159,0.003624,0.012016,0.023842,-0.005531,-0.005531,-0.058175,-0.005913
5.429275,0.003624,0.012016,0.023460,-0.005531,-0.005913,-0.058175,-0.005913
5.439346,0.003624,0.012016,0.023079,-0.004005,-0.005913,-0.058175,-0.005913
5.449462,0.003624,0.012016,0.022697,-0.003242,-0.005913,-0.058175,-0.005913
5.459576,0.003624,0.012016,0.023079,-0.002098,-0.005913,-0.058175,-0.005913
5.469701,0.003624,0.012016,0.023079,-0.001717,-0.005913,-0.058175,-0.005913
5.479815,0.003624,0.012016,0.023079,-0.001335,-0.005913,-0.058175,-0.005913
5.489928,0.003624,0.012016,0.023079,-0.000954,-0.005913,-0.058175,-0.005913
5.500042,0.003624,0.012016,0.023079,-0.000572,-0.005913,-0.058175,-0.005913
5.510155,0.003624,0.012016,0.023079,-0.000191,-0.005913,-0.058175,-0.005913
5.520237,0.003624,0.012016,0.023079,-0.000191,-0.005531,-0.058175,-0.005913
5.530354,0.003624,0.012016,0.023079,-0.000191,-0.005531,-0.058175,-0.005913
5.540439,0.003624,0.012016,0.023079,-0.000191,-0.005150,-0.058175,-0.005913
5.550505,0.003624,0.012016,0.023079,-0.000191,-0.004768,-0.058175,-0.005913
5.560575,0.003624,0.012016,0.023079,-0.000191,-0.004768,-0.058175,-0.005913
5.570654,0.003624,0.012016,0.023079,-0.000191,-0.004768,-0.058175,-0.005913
5.580765,0.003624,0.012016,0.023079,-0.000191,-0.004768,-0.058175,-0.005913
5.590836,0.003624,0.012016,0.023079,-0.000191,-0.004768,-0.058175,-0.005913
5.600946,0.003624,0.012016,0.023079,-0.000191,-0.004768,-0.058175,-0.005913
5.611060,0.003624,0.012016,0.023079,-0.000191,-0.004768,-0.058175,-0.005913
5.621169,0.003624,0.012016,0.023079,-0.000191,-0.004768,-0.058175,-0.005913
5.631283,0.003624,0.012016,0.023079,-0.000191,-0.004768,-0.058175,-0.005913
5.641411,0.003624,0.012016,0.023079,-0.000191,-0.004768,-0.058175,-0.005913
5.651535,0.003624,0.012016,0.023079,-0.000191,-0.004768,-0.058175,-0.005913
5.661647,0.003624,0.012016,0.023079,-0.000191,-0.004768,-0.058175,-0.005913
5.671798,0.003624,0.012016,0.023079,-0.000191,-0.004768,-0.058175,-0.005913
5.681906,0.003624,0.012016,0.023079,-0.000191,-0.004768,-0.058175,-0.005913
5.692018,0.003624,0.012016,0.023079,-0.000191,-0.004768,-0.058175,-0.005913
5.702130,0.003624,0.012016,0.023079,-0.000191,-0.004768,-0.058175,-0.005913
5.712241,0.003624,0.012016,0.023079,-0.000191,-0.004768,-0.058175,-0.005913
5.722329,0.003624,0.012016,0.023079,-0.000191,-0.004768,-0.058175,-0.005913
5.732437,0.003624,0.012016,0.023079,-0.000191,-0.004768,-0.058175,-0.005913
5.742552,0.003624,0.012016,0.023079,-0.000191,-0.004768,-0.058175,-0.005913
5.752623,0.003624,0.012016,0.023079,-0.000191,-0.004768,-0.058175,-0.005913
5.762736,0.003624,0.012016,0.023079,-0.000191,-0.004768,-0.058175,-0.005913
5.772808,0.003624,0.012016,0.023079,-0.000191,-0.004768,-0.058175,-0.005913
5.782886,0.003624,0.012016,0.023079,-0.000191,-0.004768,-0.058175,-0.005913
5.792952,0.003624,0.012016,0.023079,-0.000191,-0.004768,-0.058175,-0.005913
5.803058,0.003624,0.012016,0.023079,-0.000191,-0.004768,-0.058175,-0.005913
5.813172,0.003624,0.012016,0.023079,-0.000191,-0.004768,-0.058175,-0.005913
5.823347,0.003624,0.012016,0.023079,-0.000191,-0.004768,-0.058175,-0.005913
5.833462,0.003624,0.012016,0.023079,-0.000191,-0.004768,-0.058175,-0.005913
5.843572,0.003624,0.012016,0.023079,-0.000191,-0.004768,-0.058175,-0.005913
5.853683,0.003624,0.012016,0.023079,-0.000191,-0.004768,-0.058175,-0.005913
5.863793,0.003624,0.012016,0.023079,-0.000191,-0.004768,-0.058175,-0.005913
5.873889,0.003624,0.012016,0.023079,-0.000191,-0.004768,-0.058175,-0.005913
5.884018,0.003624,0.012016,0.023079,-0.000191,-0.004768,-0.058175,-0.005913
5.894133,0.003624,0.012016,0.023079,-0.000191,-0.004768,-0.058175,-0.005913
5.904203,0.003624,0.012016,0.023079,-0.000191,-0.004768,-0.058175,-0.005913
5.914314,0.003624,0.012016,0.023079,-0.000191,-0.004768,-0.058175,-0.005913
5.924427,0.003624,0.012016,0.023079,-0.000191,-0.004768,-0.058175,-0.005913
5.934542,0.003624,0.012016,0.023079,-0.000191,-0.004768,-0.058175,-0.005913
5.944616,0.003624,0.012016,0.023079,-0.000191,-0.004768,-0.058175,-0.005913
5.954684,0.003624,0.012016,0.023079,-0.000191,-0.004768,-0.058175,-0.005913
5.964754,0.003624,0.012016,0.023079,-0.000191,-0.004768,-0.058175,-0.005913
5.974819,0.003624,0.012016,0.023079,-0.000191,-0.004768,-0.058175,-0.005913
5.984899,0.003624,0.012016,0.023079,-0.000191,-0.004768,-0.058175,-0.005913
5.994963,0.003624,0.012016,0.023079,-0.000191,-0.004768,-0.058175,-0.005913
6.005028,0.003624,0.012016,0.023079,-0.000191,-0.004768,-0.058175,-0.005913
6.015091,0.003624,0.012016,0.023079,0.000191,-0.004768,-0.058175,-0.005913
6.025157,0.003624,0.012016,0.023079,0.000191,-0.004768,-0.058175,-0.005913
6.035228,0.003624,0.012016,0.023079,0.000191,-0.004768,-0.058175,-0.005913
6.045293,0.003624,0.012016,0.023079,0.000191,-0.004768,-0.058175,-0.005913
6.055357,0.003624,0.012016,0.023079,0.000191,-0.004768,-0.058175,-0.005913
6.065427,0.003624,0.012016,0.023079,0.000191,-0.004768,-0.058175,-0.005913
6.075492,0.003624,0.012016,0.023079,0.000191,-0.004768,-0.058175,-0.005913
6.085558,0.003624,0.012016,0.023079,0.000191,-0.004768,-0.058175,-0.005913
6.095622,0.003624,0.012016,0.023079,0.000572,-0.004768,-0.058175,-0.005913
6.105688,0.003624,0.012016,0.023079,0.000572,-0.004387,-0.058175,-0.005913
6.115755,0.003624,0.012016,0.023079,0.000572,-0.004387,-0.058175,-0.005913
6.125822,0.003624,0.012016,0.023079,0.000572,-0.004387,-0.058175,-0.005913
6.135889,0.003624,0.012016,0.023079,0.000572,-0.004387,-0.058175,-0.005913
6.145957,0.003624,0.012016,0.023079,0.000572,-0.004005,-0.058175,-0.005913
6.156023,0.003624,0.012016,0.023079,0.000572,-0.004005,-0.058175,-0.005913
6.166103,0.003624,0.012016,0.023079,0.000572,-0.004005,-0.058175,-0.005913
6.176180,0.003624,0.012016,0.023079,0.000572,-0.004005,-0.058175,-0.005913
6.186293,0.003624,0.012016,0.023079,0.000572,-0.004005,-0.058175,-0.005913
6.196366,0.003624,0.012016,0.023079,0.000572,-0.004005,-0.058175,-0.005913
6.206476,0.003624,0.012016,0.023079,0.000572,-0.004005,-0.058175,-0.005913
6.216590,0.003624,0.012016,0.023079,0.000572,-0.004005,-0.058175,-0.005913
6.226678,0.003624,0.012016,0.023079,0.000572,-0.004005,-0.058175,-0.005913
6.236788,0.003624,0.012016,0.023079,0.000572,-0.004005,-0.058175,-0.005913
6.246851,0.003624,0.012016,0.023079,0.000572,-0.004005,-0.058175,-0.005913
6.256872,0.003624,0.012016,0.023079,0.000572,-0.004005,-0.058175,-0.005913
6.266933,0.003624,0.012016,0.023079,0.000572,-0.004005,-0.058175,-0.005913
6.276994,0.003624,0.012016,0.023079,0.000572,-0.004005,-0.058175,-0.005913
6.287073,0.003624,0.012016,0.023079,0.000572,-0.004005,-0.058175,-0.005913
6.297187,0.003624,0.012016,0.023079,0.000572,-0.004005,-0.058175,-0.005913
6.307296,0.003624,0.012016,0.023079,0.000572,-0.004005,-0.058175,-0.005913
6.317633,0.003624,0.012016,0.023079,0.000572,-0.004005,-0.058175,-0.005913
6.327716,0.003624,0.012016,0.023079,0.000572,-0.004005,-0.058175,-0.005913
6.337779,0.003624,0.012016,0.023079,0.000572,-0.004005,-0.058175,-0.005913
6.347852,0.003624,0.012016,0.023079,0.000572,-0.004005,-0.058175,-0.005913
6.357917,0.003624,0.012016,0.023079,0.000572,-0.004005,-0.058175,-0.005913
6.367990,0.003624,0.012016,0.023079,0.000572,-0.004005,-0.058175,-0.005913
6.378052,0.003624,0.012016,0.023079,0.000572,-0.004005,-0.058175,-0.005913
6.388114,0.003624,0.012016,0.023079,0.000572,-0.004005,-0.058175,-0.005913
6.398179,0.003624,0.012016,0.023079,0.000572,-0.004005,-0.058175,-0.005913
6.408241,0.003624,0.012016,0.023079,0.000572,-0.004005,-0.058175,-0.005913
6.418309,0.003624,0.012016,0.023079,0.000572,-0.004005,-0.058175,-0.005913
6.428372,0.003624,0.012016,0.023079,0.000572,-0.004005,-0.058175,-0.005913
6.438436,0.003624,0.012016,0.023079,0.000572,-0.004005,-0.058175,-0.005913
6.448499,0.003624,0.012016,0.023079,0.000572,-0.004005,-0.058175,-0.005913
6.458560,0.003624,0.012016,0.023079,0.000572,-0.004005,-0.058175,-0.005913
6.468621,0.003624,0.012016,0.023079,0.000572,-0.004005,-0.058175,-0.005913
6.478683,0.003624,0.012016,0.023079,0.000572,-0.004005,-0.058175,-0.005913
6.488746,0.003624,0.012016,0.023079,0.000572,-0.004005,-0.058175,-0.005913
6.498809,0.003624,0.012016,0.023079,0.000572,-0.004005,-0.058175,-0.005913
6.508877,0.003624,0.012016,0.023079,0.000572,-0.004005,-0.058175,-0.005913
6.518942,0.003624,0.012016,0.023079,0.000572,-0.004005,-0.058175,-0.005913
6.529012,0.003624,0.012016,0.023079,0.000572,-0.004005,-0.058175,-0.005913
6.539076,0.003624,0.012016,0.023079,0.000572,-0.004005,-0.058175,-0.005913
6.549143,0.003624,0.012016,0.023079,0.000572,-0.004005,-0.058175,-0.005913
6.559211,0.003624,0.012016,0.023079,0.000572,-0.004005,-0.058175,-0.005913
6.569278,0.003624,0.012016,0.023079,0.000572,-0.004005,-0.058175,-0.005913
6.579344,0.003624,0.012016,0.023079,0.000572,-0.004005,-0.058175,-0.005913
6.589413,0.003624,0.012016,0.023079,0.000572,-0.004005,-0.058175,-0.005913
6.599477,0.003624,0.012016,0.023079,0.000572,-0.004005,-0.058175,-0.005913
6.609545,0.003624,0.012016,0.023079,0.000572,-0.004005,-0.058175,-0.005913
6.619628,0.003624,0.012016,0.023079,0.000572,-0.004005,-0.058175,-0.005913
6.629692,0.003624,0.012016,0.023079,0.000572,-0.004005,-0.058175,-0.005913
6.639755,0.003624,0.012016,0.023079,0.000572,-0.004005,-0.058175,-0.005913
6.649825,0.003624,0.012016,0.023079,0.000572,-0.004005,-0.058175,-0.005913
6.659874,0.003624,0.012016,0.023079,0.000572,-0.004005,-0.058175,-0.005913
6.669938,0.003624,0.012016,0.023079,0.000572,-0.004005,-0.058175,-0.005913
6.680002,0.003624,0.012016,0.023079,0.000572,-0.004005,-0.058175,-0.005913
6.690064,0.003624,0.012016,0.023079,0.000572,-0.004005,-0.058175,-0.005913
6.700128,0.003624,0.012016,0.023079,0.000572,-0.004005,-0.058175,-0.005913
6.710190,0.003624,0.012016,0.023079,0.000572,-0.004005,-0.058175,-0.005913
6.720255,0.003624,0.012016,0.023079,0.000572,-0.004005,-0.058175,-0.005913
6.730323,0.003624,0.012016,0.023079,0.000572,-0.004005,-0.058175,-0.005913
6.740388,0.003624,0.012016,0.023079,0.000572,-0.004005,-0.058175,-0.005913
6.750455,0.003624,0.012016,0.023079,0.000572,-0.004005,-0.058175,-0.005913
6.760523,0.003624,0.012016,0.023079,0.000572,-0.004005,-0.058175,-0.005913
6.770601,0.003624,0.012016,0.023079,0.000572,-0.004005,-0.058175,-0.005913
6.780668,0.003624,0.012016,0.023079,0.000572,-0.004005,-0.058175,-0.005913
6.790736,0.003624,0.012016,0.023079,0.000572,-0.004005,-0.058175,-0.005913
6.800813,0.003624,0.012016,0.023079,0.000572,-0.004005,-0.058175,-0.005913
6.810897,0.003624,0.012016,0.023079,0.000572,-0.004005,-0.058175,-0.005913
6.820962,0.003624,0.012016,0.023079,0.000572,-0.004005,-0.058175,-0.005913
6.831041,0.003624,0.012016,0.023079,0.000572,-0.004005,-0.058175,-0.005913
6.841106,0.003624,0.012016,0.023079,0.000572,-0.004005,-0.058175,-0.005913
6.851175,0.003624,0.012016,0.023079,0.000572,-0.004005,-0.058175,-0.005913
6.861240,0.003624,0.012016,0.023079,0.000572,-0.004005,-0.058175,-0.005913
6.871307,0.003624,0.012016,0.023079,0.000572,-0.004005,-0.058175,-0.005913
6.881376,0.003624,0.012016,0.023079,0.000572,-0.004005,-0.058175,-0.005913
6.891439,0.003624,0.012016,0.023079,0.000572,-0.004005,-0.058175,-0.005913
6.901506,0.003624,0.012016,0.023079,0.000572,-0.004005,-0.058175,-0.005913
6.911579,0.003624,0.012016,0.023079,0.000572,-0.004005,-0.058175,-0.005913
6.921644,0.003624,0.012016,0.023079,0.000572,-0.004005,-0.058175,-0.005913
6.931711,0.003624,0.012016,0.023079,0.000572,-0.004005,-0.058175,-0.005913
6.941783,0.003624,0.012016,0.023079,0.000572,-0.004005,-0.058175,-0.005913
6.951852,0.003624,0.012016,0.023079,0.000572,-0.004005,-0.058175,-0.005913
6.961880,0.003624,0.012016,0.023079,0.000572,-0.004005,-0.058175,-0.005913
6.971944,0.003624,0.012016,0.023079,0.000572,-0.004005,-0.058175,-0.005913
6.982013,0.003624,0.012016,0.023079,0.000572,-0.004005,-0.058175,-0.005913
6.992077,0.003624,0.012016,0.023079,0.000572,-0.004005,-0.058175,-0.005913
7.002142,0.003624,0.012016,0.023079,0.000572,-0.004005,-0.058175,-0.005913
7.012208,0.003624,0.012016,0.023079,0.000572,-0.004005,-0.058175,-0.005913
7.022276,0.003624,0.012016,0.023079,0.000572,-0.004005,-0.058175,-0.005913
7.032343,0.003624,0.012016,0.023079,0.000572,-0.004005,-0.058175,-0.005913
7.042409,0.003624,0.012016,0.023079,0.000572,-0.004005,-0.058175,-0.005913
7.052477,0.003624,0.012016,0.023079,0.000572,-0.004005,-0.058175,-0.005913
7.062542,0.003624,0.012016,0.023079,0.000572,-0.004005,-0.058175,-0.005913
7.072611,0.003624,0.012016,0.023079,0.000572,-0.004005,-0.058175,-0.005913
7.082679,0.003624,0.012016,0.023079,0.000572,-0.004005,-0.058175,-0.005913
7.092760,0.003624,0.012016,0.023079,0.000572,-0.004005,-0.058175,-0.005913
7.102829,0.003624,0.012016,0.023079,0.000572,-0.004005,-0.058175,-0.005913
7.112886,0.003624,0.012016,0.023079,0.000572,-0.004005,-0.058175,-0.005913
7.122952,0.003624,0.012016,0.023079,0.000572,-0.004005,-0.058175,-0.005913
7.133066,0.003624,0.012016,0.023079,0.000572,-0.004005,-0.058175,-0.005913
7.143134,0.003624,0.012016,0.023079,0.000572,-0.004005,-0.058175,-0.005913
7.153206,0.003624,0.012016,0.023079,0.000572,-0.004005,-0.058175,-0.005913
7.163280,0.003624,0.012016,0.023079,0.000572,-0.004005,-0.058175,-0.005913
7.173350,0.003624,0.012016,0.023079,0.000572,-0.004005,-0.058175,-0.005913
7.183460,0.003624,0.012016,0.023079,0.000572,-0.004005,-0.058175,-0.005913
7.193572,0.003624,0.012016,0.023079,0.000572,-0.004005,-0.058175,-0.005913
7.203680,0.003624,0.012016,0.023079,0.000572,-0.004005,-0.058175,-0.005913
7.213790,0.003624,0.012016,0.023079,0.000572,-0.004005,-0.058175,-0.005913
7.223902,0.003624,0.012016,0.023079,0.000572,-0.004005,-0.058175,-0.005913
7.234013,0.003624,0.012016,0.023079,0.000572,-0.004005,-0.058175,-0.005913
7.244125,0.003624,0.012016,0.023079,0.000572,-0.004005,-0.058175,-0.005913
7.254245,0.003624,0.012016,0.023079,0.000572,-0.004005,-0.058175,-0.005913
7.264326,0.003624,0.012016,0.023079,0.000572,-0.004005,-0.058175,-0.005913
7.274392,0.003624,0.012016,0.023079,0.000572,-0.004005,-0.058175,-0.005913
7.284461,0.003624,0.012016,0.023079,0.000572,-0.004005,-0.058175,-0.005913
7.294528,0.003624,0.012016,0.023079,0.000572,-0.004005,-0.058175,-0.005913
7.304620,0.003624,0.012016,0.023079,0.000572,-0.004005,-0.058175,-0.005913
7.314705,0.003624,0.012016,0.023079,0.000572,-0.004005,-0.058175,-0.005913
7.324769,0.003624,0.012016,0.023079,0.000572,-0.004005,-0.058175,-0.005913
7.335106,0.003624,0.012016,0.023079,0.000572,-0.004005,-0.058175,-0.005913
7.345213,0.003624,0.012016,0.023079,0.000572,-0.004005,-0.058175,-0.005913
7.355323,0.003624,0.012016,0.023079,0.000572,-0.004005,-0.058175,-0.005913
7.365399,0.003624,0.012016,0.023079,0.000572,-0.004005,-0.058175,-0.005913
7.375528,0.003624,0.012016,0.023079,0.000572,-0.004005,-0.058175,-0.005913
7.385605,0.003624,0.012016,0.023079,0.000572,-0.004005,-0.058175,-0.005913
7.395701,0.003624,0.012016,0.023079,0.000572,-0.004005,-0.058175,-0.005913
7.405785,0.003624,0.012016,0.023079,0.000572,-0.004005,-0.058175,-0.005913
7.415856,0.003624,0.012016,0.023079,0.000572,-0.004005,-0.058175,-0.005913
7.425887,0.003624,0.012016,0.023079,0.000572,-0.004005,-0.058175,-0.005913
7.435957,0.003624,0.012016,0.023079,0.000572,-0.004005,-0.058175,-0.005913
7.446025,0.003624,0.012016,0.023079,0.000572,-0.004005,-0.058175,-0.005913
7.456091,0.003624,0.012016,0.023079,0.000572,-0.004005,-0.058175,-0.005913
7.466179,0.003624,0.012016,0.023079,0.000572,-0.004005,-0.058175,-0.005913
7.476247,0.003624,0.012016,0.023079,0.000572,-0.004005,-0.058175,-0.005913
7.486361,0.003624,0.012016,0.023079,0.000572,-0.004005,-0.058175,-0.005913
7.496447,0.003624,0.012016,0.023079,0.000572,-0.004005,-0.058175,-0.005913
7.506594,0.003624,0.012016,0.023079,0.000572,-0.004005,-0.058175,-0.005913
7.516930,0.003624,0.012016,0.023079,0.000572,-0.004005,-0.058175,-0.005913
7.526998,0.003624,0.012016,0.023079,0.000572,-0.004005,-0.058175,-0.005913
7.537107,0.003624,0.012016,0.023079,0.000572,-0.004005,-0.058175,-0.005913
7.547226,0.003624,0.012016,0.023079,0.000572,-0.004005,-0.058175,-0.005913
7.557294,0.003624,0.012016,0.023079,0.000572,-0.004005,-0.058175,-0.005913
7.567408,0.003624,0.012016,0.023079,0.000572,-0.004005,-0.058175,-0.005913
7.577481,0.003624,0.012016,0.023079,0.000572,-0.004005,-0.058175,-0.005913
7.587699,0.003624,0.012016,0.023079,0.000572,-0.004005,-0.058175,-0.005913
7.597769,0.003624,0.012016,0.023079,0.000572,-0.004005,-0.058175,-0.005913
7.607835,0.003624,0.012016,0.023079,0.000572,-0.004005,-0.058175,-0.005913
7.617946,0.003624,0.012016,0.023079,0.000572,-0.004005,-0.058175,-0.005913
7.628058,0.003624,0.012016,0.023079,0.000572,-0.004005,-0.058175,-0.005913
7.638139,0.003624,0.012016,0.023079,0.000572,-0.004005,-0.058175,-0.005913
7.648250,0.003624,0.012016,0.023079,0.000572,-0.004005,-0.058175,-0.005913
7.658335,0.003624,0.012016,0.023079,0.000572,-0.004005,-0.058175,-0.005913
7.668672,0.003624,0.012016,0.023079,0.000572,-0.004005,-0.058175,-0.005913
7.678757,0.003624,0.012016,0.023079,0.000572,-0.004005,-0.058175,-0.005913
7.688909,0.003624,0.012016,0.023079,0.000572,-0.004005,-0.058175,-0.005913
7.699021,0.003624,0.012016,0.023079,0.000572,-0.004005,-0.058175,-0.005913
7.709132,0.003624,0.012016,0.023079,0.000572,-0.004005,-0.058175,-0.005913
7.719243,0.003624,0.012016,0.023079,0.000572,-0.004005,-0.058175,-0.005913
7.729359,0.003624,0.012016,0.023079,0.000572,-0.004005,-0.058175,-0.005913
7.739468,0.003624,0.012016,0.023079,0.000572,-0.004005,-0.058175,-0.005913
7.749580,0.003624,0.012016,0.023079,0.000572,-0.004005,-0.058175,-0.005913
7.759754,0.003624,0.012016,0.023079,0.000572,-0.004005,-0.058175,-0.005913
7.769890,0.003624,0.012016,0.023079,0.000572,-0.004005,-0.058175,-0.005913
7.779975,0.003624,0.012016,0.023079,0.000572,-0.004005,-0.058175,-0.005913
7.790084,0.003624,0.012016,0.023079,0.000572,-0.004005,-0.058175,-0.005913
7.800197,0.003624,0.012016,0.023079,0.000572,-0.004005,-0.058175,-0.005913
7.810306,0.003624,0.012016,0.023079,0.000572,-0.004005,-0.058175,-0.005913
7.820417,0.003624,0.012016,0.023079,0.000572,-0.004005,-0.058175,-0.005913
7.830533,0.003624,0.012016,0.023079,0.000572,-0.004005,-0.058175,-0.005913
7.840645,0.003624,0.012016,0.023079,0.000572,-0.004005,-0.058175,-0.005913
7.850760,0.003624,0.012016,0.023079,0.000572,-0.004005,-0.058175,-0.005913
7.860883,0.003624,0.012016,0.023079,0.000572,-0.004005,-0.058175,-0.005913
7.870995,0.003624,0.012016,0.023079,0.000572,-0.004005,-0.058175,-0.005913
7.881106,0.003624,0.012016,0.023079,0.000572,-0.004005,-0.058175,-0.005913
7.891216,0.003624,0.012016,0.023079,0.000572,-0.004005,-0.058175,-0.005913
7.901329,0.003624,0.012016,0.023079,0.000572,-0.004005,-0.058175,-0.005913
7.911438,0.003624,0.012016,0.023079,0.000572,-0.004005,-0.058175,-0.005913
7.921550,0.003624,0.012016,0.023079,0.000572,-0.004005,-0.058175,-0.005913
7.931663,0.003624,0.012016,0.023079,0.000572,-0.004005,-0.058175,-0.005913
7.941773,0.003624,0.012016,0.023079,0.000572,-0.004005,-0.058175,-0.005913
7.951894,0.003624,0.012016,0.023079,0.000572,-0.004005,-0.058175,-0.005913
7.961965,0.003624,0.012016,0.023079,0.000572,-0.004005,-0.058175,-0.005913
7.972043,0.003624,0.012016,0.023079,0.000572,-0.004005,-0.058175,-0.005913
7.982158,0.003624,0.012016,0.023079,0.000572,-0.004005,-0.058175,-0.005913
7.992329,0.003624,0.012016,0.023079,0.000572,-0.004005,-0.058175,-0.005913
8.002443,0.003624,0.012016,0.023079,0.000572,-0.004005,-0.058175,-0.005913
8.012508,0.003624,0.012016,0.023079,0.000572,-0.004005,-0.058175,-0.005913
8.022605,0.003624,0.012016,0.023079,0.000572,-0.004005,-0.058175,-0.005913
8.032718,0.003624,0.012016,0.023079,0.000572,-0.004005,-0.058175,-0.005913
8.042900,0.003624,0.012016,0.023079,0.000572,-0.004005,-0.058175,-0.005913
8.053013,0.003624,0.012016,0.023079,0.000572,-0.004005,-0.058175,-0.005913
8.063098,0.003624,0.012016,0.023079,0.000572,-0.004005,-0.058175,-0.005913
8.073205,0.003624,0.012016,0.023079,0.000572,-0.004005,-0.058175,-0.005913
8.083320,0.003624,0.012016,0.023079,0.000572,-0.004005,-0.058175,-0.005913
8.093493,0.003624,0.012016,0.023079,0.000572,-0.004005,-0.058175,-0.005913
8.103603,0.003624,0.012016,0.023079,0.000572,-0.004005,-0.058175,-0.005913
8.113689,0.003624,0.012016,0.023079,0.000572,-0.004005,-0.058175,-0.005913
8.123809,0.003624,0.012016,0.023079,0.000572,-0.004005,-0.058175,-0.005913
8.133925,0.003624,0.012016,0.023079,0.000572,-0.004005,-0.058175,-0.005913
8.144035,0.003624,0.012016,0.023079,0.000572,-0.004005,-0.058175,-0.005913
8.154108,0.003624,0.012016,0.023079,0.000572,-0.004005,-0.058175,-0.005913
8.164231,0.003624,0.012016,0.023079,0.000572,-0.004005,-0.058175,-0.005913
8.174304,0.003624,0.012016,0.023079,0.000572,-0.004005,-0.058175,-0.005913
8.184373,0.003624,0.012016,0.023079,0.000572,-0.004005,-0.058175,-0.005913
8.194441,0.003624,0.012016,0.023079,0.000572,-0.004005,-0.058175,-0.005913
8.204510,0.003624,0.012016,0.023079,0.000572,-0.004005,-0.058175,-0.005913
8.214595,0.003624,0.012016,0.023079,0.000572,-0.004005,-0.058175,-0.005913
8.224703,0.003624,0.012016,0.023079,0.000572,-0.004005,-0.058175,-0.005913
8.234816,0.003624,0.012016,0.023079,0.000572,-0.004005,-0.058175,-0.005913
8.244899,0.003624,0.012016,0.023079,0.000572,-0.004005,-0.058175,-0.005913
8.254968,0.003624,0.012016,0.023079,0.000572,-0.004005,-0.058175,-0.005913
8.265035,0.003624,0.012016,0.023079,0.000572,-0.004005,-0.058175,-0.005913
8.275101,0.003624,0.012016,0.023079,0.000572,-0.004005,-0.058175,-0.005913
8.285166,0.003624,0.012016,0.023079,0.000572,-0.004005,-0.058175,-0.005913
8.295239,0.003624,0.012016,0.023079,0.000572,-0.004005,-0.058175,-0.005913
8.305305,0.003624,0.012016,0.023079,0.000572,-0.004005,-0.058175,-0.005913
8.315371,0.003624,0.012016,0.023079,0.000572,-0.004005,-0.058175,-0.005913
8.325546,0.003624,0.012016,0.023079,0.000572,-0.004005,-0.058175,-0.005913
8.335617,0.003624,0.012016,0.023079,0.000572,-0.004005,-0.058175,-0.005913
8.345685,0.003624,0.012016,0.023079,0.000572,-0.004005,-0.058175,-0.005913
8.355752,0.003624,0.012016,0.023079,0.000572,-0.004005,-0.058175,-0.005913
8.365817,0.003624,0.012016,0.023079,0.000572,-0.004005,-0.058175,-0.005913
8.375878,0.003624,0.012016,0.023079,0.000572,-0.004005,-0.058175,-0.005913
8.385941,0.003624,0.012016,0.023079,0.000572,-0.004005,-0.058175,-0.005913
8.396009,0.003624,0.012016,0.023079,0.000572,-0.004005,-0.058175,-0.005913
8.406074,0.003624,0.012016,0.023079,0.000572,-0.004005,-0.058175,-0.005913
8.416146,0.003624,0.012016,0.023079,0.000572,-0.004005,-0.058175,-0.005913
8.426212,0.003624,0.012016,0.023079,0.000572,-0.004005,-0.058175,-0.005913
8.436279,0.003624,0.012016,0.023079,0.000572,-0.004005,-0.058175,-0.005913
8.446342,0.003624,0.012016,0.023079,0.000572,-0.004005,-0.058175,-0.005913
8.456408,0.003624,0.012016,0.023079,0.000572,-0.004005,-0.058175,-0.005913
8.466467,0.003624,0.012016,0.023079,0.000572,-0.004005,-0.058175,-0.005913
8.476537,0.003624,0.012016,0.023079,0.000572,-0.004005,-0.058175,-0.005913
8.486610,0.003624,0.012016,0.023079,0.000572,-0.004005,-0.058175,-0.005913
8.496674,0.003624,0.012016,0.023079,0.000572,-0.004005,-0.058175,-0.005913
8.506743,0.003624,0.012016,0.023079,0.000572,-0.004005,-0.058175,-0.005913
8.516812,0.003624,0.012016,0.023079,0.000572,-0.004005,-0.058175,-0.005913
8.526851,0.003624,0.012016,0.023079,0.000572,-0.004005,-0.058175,-0.005913
8.536880,0.003624,0.012016,0.023079,0.000572,-0.004005,-0.058175,-0.005913
8.546947,0.003624,0.012016,0.023079,0.000572,-0.004005,-0.058175,-0.005913
8.557012,0.003624,0.012016,0.023079,0.000572,-0.004005,-0.058175,-0.005913
8.567081,0.003624,0.012016,0.023079,0.000572,-0.004005,-0.058175,-0.005913
8.577145,0.003624,0.012016,0.023079,0.000572,-0.004005,-0.058175,-0.005913
8.587211,0.003624,0.012016,0.023079,0.000572,-0.004005,-0.058175,-0.005913
8.597276,0.003624,0.012016,0.023079,0.000572,-0.004005,-0.058175,-0.005913
8.607344,0.003624,0.012016,0.023079,0.000572,-0.004005,-0.058175,-0.005913
8.617411,0.003624,0.012016,0.023079,0.000572,-0.004005,-0.058175,-0.005913
8.627474,0.003624,0.012016,0.023079,0.000572,-0.004005,-0.058175,-0.005913
8.637537,0.003624,0.012016,0.023079,0.000572,-0.004005,-0.058175,-0.005913
8.647605,0.003624,0.012016,0.023079,0.000572,-0.004005,-0.058175,-0.005913
8.657674,0.003624,0.012016,0.023079,0.000572,-0.004005,-0.058175,-0.005913
8.667741,0.003624,0.012016,0.023079,0.000572,-0.004005,-0.058175,-0.005913
8.677815,0.003624,0.012016,0.023079,0.000572,-0.004005,-0.058175,-0.005913
8.687877,0.003624,0.012016,0.023079,0.000572,-0.004005,-0.058175,-0.005913
8.697942,0.003624,0.012016,0.023079,0.000572,-0.004005,-0.058175,-0.005913
8.708021,0.003624,0.012016,0.023079,0.000572,-0.004005,-0.058175,-0.005913
8.718087,0.003624,0.012016,0.023079,0.000572,-0.004005,-0.058175,-0.005913
8.728157,0.003624,0.012016,0.023079,0.000572,-0.004005,-0.058175,-0.005913
8.738222,0.003624,0.012016,0.023079,0.000572,-0.004005,-0.058175,-0.005913
8.748297,0.003624,0.012016,0.023079,0.000572,-0.004005,-0.058175,-0.005913
8.758365,0.003624,0.012016,0.023079,0.000572,-0.004005,-0.058175,-0.005913
8.768435,0.003624,0.012016,0.023079,0.000572,-0.004005,-0.058175,-0.005913
8.778508,0.003624,0.012016,0.023079,0.000572,-0.004005,-0.058175,-0.005913
8.788593,0.003624,0.012016,0.023079,0.000572,-0.004005,-0.058175,-0.005913
8.798709,0.003624,0.012016,0.023079,0.000572,-0.004005,-0.058175,-0.005913
8.808794,0.003624,0.012016,0.023079,0.000572,-0.004005,-0.058175,-0.005913
8.818883,0.003624,0.012016,0.023079,0.000572,-0.004005,-0.058175,-0.005913
8.828950,0.003624,0.012016,0.023079,0.000572,-0.004005,-0.058175,-0.005913
8.839062,0.003624,0.012016,0.023079,0.000572,-0.004005,-0.058175,-0.005913
8.849152,0.003624,0.012016,0.023079,0.000572,-0.004005,-0.058175,-0.005913
8.859228,0.003624,0.012016,0.023079,0.000572,-0.004005,-0.058175,-0.005913
8.869313,0.003624,0.012016,0.023079,0.000572,-0.004005,-0.058175,-0.005913
8.879380,0.003624,0.012016,0.023079,0.000572,-0.004005,-0.058175,-0.005913
8.889443,0.003624,0.012016,0.023079,0.000572,-0.004005,-0.058175,-0.005913
8.899509,0.003624,0.012016,0.023079,0.000572,-0.004005,-0.058175,-0.005913
8.909622,0.003624,0.012016,0.023079,0.000572,-0.004005,-0.058175,-0.005913
8.919736,0.003624,0.012016,0.023079,0.000572,-0.004005,-0.058175,-0.005913
8.929850,0.003624,0.012016,0.023079,0.000572,-0.004005,-0.058175,-0.005913
8.939880,0.003624,0.012016,0.023079,0.000572,-0.004005,-0.058175,-0.005913
8.949948,0.003624,0.012016,0.023079,0.000572,-0.004005,-0.058175,-0.005913
8.960013,0.003624,0.012016,0.023079,0.000572,-0.004005,-0.058175,-0.005913
8.970080,0.003624,0.012016,0.023079,0.000572,-0.004005,-0.058175,-0.005913
8.980145,0.003624,0.012016,0.023079,0.000572,-0.004005,-0.058175,-0.005913
8.990210,0.003624,0.012016,0.023079,0.000572,-0.004005,-0.058175,-0.005913
9.000277,0.003624,0.012016,0.023079,0.000572,-0.004005,-0.058175,-0.005913
9.010341,0.003624,0.012016,0.023079,0.000572,-0.004005,-0.058175,-0.005913
9.020408,0.003624,0.012016,0.023079,0.000572,-0.004005,-0.058175,-0.005913
9.030529,0.003624,0.012016,0.023079,0.000572,-0.004005,-0.058175,-0.005913
9.040642,0.003624,0.012016,0.023079,0.000572,-0.004005,-0.058175,-0.005913
9.050758,0.003624,0.012016,0.023079,0.000572,-0.004005,-0.058175,-0.005913
9.060836,0.003624,0.012016,0.023079,0.000572,-0.004005,-0.058175,-0.005913
9.070952,0.003624,0.012016,0.023079,0.000572,-0.004005,-0.058175,-0.005913
9.081019,0.003624,0.012016,0.023079,0.000572,-0.004005,-0.058175,-0.005913
9.091108,0.003624,0.012016,0.023079,0.000572,-0.004005,-0.058175,-0.005913
9.101216,0.003624,0.012016,0.023079,0.000572,-0.004005,-0.058175,-0.005913
9.111332,0.003624,0.012016,0.023079,0.000572,-0.004005,-0.058175,-0.005913
9.121441,0.003624,0.012016,0.023079,0.000572,-0.004005,-0.058175,-0.005913
9.131553,0.003624,0.012016,0.023079,0.000572,-0.004005,-0.058175,-0.005913
9.141663,0.003624,0.012016,0.023079,0.000572,-0.004005,-0.058175,-0.005913
9.151772,0.003624,0.012016,0.023079,0.000572,-0.004005,-0.058175,-0.005913
9.161912,0.003624,0.012016,0.023079,0.000572,-0.004005,-0.058175,-0.005913
9.172026,0.003624,0.012016,0.023079,0.000572,-0.004005,-0.058175,-0.005913
9.182139,0.003624,0.012016,0.023079,0.000572,-0.004005,-0.058175,-0.005913
9.192224,0.003624,0.012016,0.023079,0.000572,-0.004005,-0.058175,-0.005913
9.202339,0.003624,0.012016,0.023079,0.000572,-0.004005,-0.058175,-0.005913
9.212412,0.003624,0.012016,0.023079,0.000572,-0.004005,-0.058175,-0.005913
9.222524,0.003624,0.012016,0.023079,0.000572,-0.004005,-0.058175,-0.005913
9.232610,0.003624,0.012016,0.023079,0.000572,-0.004005,-0.058175,-0.005913
9.242695,0.003624,0.012016,0.023079,0.000572,-0.004005,-0.058175,-0.005913
9.252809,0.003624,0.012016,0.023079,0.000572,-0.004005,-0.058175,-0.005913
9.262902,0.003624,0.012016,0.023079,0.000572,-0.004005,-0.058175,-0.005913
9.273012,0.003624,0.012016,0.023079,0.000572,-0.004005,-0.058175,-0.005913
9.283119,0.003624,0.012016,0.023079,0.000572,-0.004005,-0.058175,-0.005913
9.293267,0.003624,0.012016,0.023079,0.000572,-0.004005,-0.058175,-0.005913
9.303376,0.003624,0.012016,0.023079,0.000572,-0.004005,-0.058175,-0.005913
9.313526,0.003624,0.012016,0.023079,0.000572,-0.004005,-0.058175,-0.005913
9.323634,0.003624,0.012016,0.023079,0.000572,-0.004005,-0.058175,-0.005913
9.333747,0.003624,0.012016,0.023079,0.000572,-0.004005,-0.058175,-0.005913
9.343860,0.003624,0.012016,0.023079,0.000572,-0.004005,-0.058175,-0.005913
9.353940,0.003624,0.012016,0.023079,0.000572,-0.004005,-0.058175,-0.005913
9.364011,0.003624,0.012016,0.023079,0.000572,-0.004005,-0.058175,-0.005913
9.374081,0.003624,0.012016,0.023079,0.000572,-0.004005,-0.058175,-0.005913
9.384146,0.003624,0.012016,0.023079,0.000572,-0.004005,-0.058175,-0.005913
9.394210,0.003624,0.012016,0.023079,0.000572,-0.004005,-0.058175,-0.005913
9.404277,0.003624,0.012016,0.023079,0.000572,-0.004005,-0.058175,-0.005913
9.414346,0.003624,0.012016,0.023079,0.000572,-0.004005,-0.058175,-0.005913
9.424409,0.003624,0.012016,0.023079,0.000572,-0.004005,-0.058175,-0.005913
9.434476,0.003624,0.012016,0.023079,0.000572,-0.004005,-0.058175,-0.005913
9.444544,0.003624,0.012016,0.023079,0.000572,-0.004005,-0.058175,-0.005913
9.454611,0.003624,0.012016,0.023079,0.000572,-0.004005,-0.058175,-0.005913
9.464679,0.003624,0.012016,0.023079,0.000572,-0.004005,-0.058175,-0.005913
9.474742,0.003624,0.012016,0.023079,0.000572,-0.004005,-0.058175,-0.005913
9.484809,0.003624,0.012016,0.023079,0.000572,-0.004005,-0.058175,-0.005913
9.494904,0.003624,0.012016,0.023079,0.000572,-0.004005,-0.058175,-0.005913
9.505017,0.003624,0.012016,0.023079,0.000572,-0.004005,-0.058175,-0.005913
9.515133,0.003624,0.012016,0.023079,0.000572,-0.004005,-0.058175,-0.005913
9.525251,0.003624,0.012016,0.023079,0.000572,-0.004005,-0.058175,-0.005913
9.535370,0.003624,0.012016,0.023079,0.000572,-0.004005,-0.058175,-0.005913
9.545476,0.003624,0.012016,0.023079,0.000572,-0.004005,-0.058175,-0.005913
9.555590,0.003624,0.012016,0.023079,0.000572,-0.004005,-0.058175,-0.005913
9.565664,0.003624,0.012016,0.023079,0.000572,-0.004005,-0.058175,-0.005913
9.575732,0.003624,0.012016,0.023079,0.000572,-0.004005,-0.058175,-0.005913
9.585798,0.003624,0.012016,0.023079,0.000572,-0.004005,-0.058175,-0.005913
9.595878,0.003624,0.012016,0.023079,0.000572,-0.004005,-0.058175,-0.005913
9.605942,0.003624,0.012016,0.023079,0.000572,-0.004005,-0.058175,-0.005913
9.616009,0.003624,0.012016,0.023079,0.000572,-0.004005,-0.058175,-0.005913
9.626082,0.003624,0.012016,0.023079,0.000572,-0.004005,-0.058175,-0.005913
9.636153,0.003624,0.012016,0.023079,0.000572,-0.004005,-0.058175,-0.005913
9.646241,0.003624,0.012016,0.023079,0.000572,-0.004005,-0.058175,-0.005913
9.656576,0.003624,0.012016,0.023079,0.000572,-0.004005,-0.058175,-0.005913
9.666638,0.003624,0.012016,0.023079,0.000572,-0.004005,-0.058175,-0.005913
9.676704,0.003624,0.012016,0.023079,0.000572,-0.004005,-0.058175,-0.005913
9.686771,0.003624,0.012016,0.023079,0.000572,-0.004005,-0.058175,-0.005913
9.696838,0.003624,0.012016,0.023079,0.000572,-0.004005,-0.058175,-0.005913
9.706946,0.003624,0.012016,0.023079,0.000572,-0.004005,-0.058175,-0.005913
9.717069,0.003624,0.012016,0.023079,0.000572,-0.004005,-0.058175,-0.005913
9.727298,0.003624,0.012016,0.023079,0.000572,-0.004005,-0.058175,-0.005913
9.737409,0.003624,0.012016,0.023079,0.000572,-0.004005,-0.058175,-0.005913
9.747471,0.003624,0.012016,0.023079,0.000572,-0.004005,-0.058175,-0.005913
9.757629,0.003624,0.012016,0.023079,0.000572,-0.004005,-0.058175,-0.005913
9.767693,0.003624,0.012016,0.023079,0.000572,-0.004005,-0.058175,-0.005913
9.777761,0.003624,0.012016,0.023079,0.000572,-0.004005,-0.058175,-0.005913
9.787826,0.003624,0.012016,0.023079,0.000572,-0.004005,-0.058175,-0.005913
9.797915,0.003624,0.012016,0.023079,0.000572,-0.004005,-0.058175,-0.005913
9.807987,0.003624,0.012016,0.023079,0.000572,-0.004005,-0.058175,-0.005913
9.818054,0.003624,0.012016,0.023079,0.000572,-0.004005,-0.058175,-0.005913
9.828118,0.003624,0.012016,0.023079,0.000572,-0.004005,-0.058175,-0.005913
9.838181,0.003624,0.012016,0.023079,0.000572,-0.004005,-0.058175,-0.005913
9.848249,0.003624,0.012016,0.023079,0.000572,-0.004005,-0.058175,-0.005913
9.858313,0.003624,0.012016,0.023079,0.000572,-0.004005,-0.058175,-0.005913
9.868380,0.003624,0.012016,0.023079,0.000572,-0.004005,-0.058175,-0.005913
9.878447,0.003624,0.012016,0.023079,0.000572,-0.004005,-0.058175,-0.005913
9.888516,0.003624,0.012016,0.023079,0.000572,-0.004005,-0.058175,-0.005913
9.898582,0.003624,0.012016,0.023079,0.000572,-0.004005,-0.058175,-0.005913
9.908758,0.003624,0.012016,0.023079,0.000572,-0.004005,-0.058175,-0.005913
9.918892,0.003624,0.012016,0.023079,0.000572,-0.004005,-0.058175,-0.005913
9.928970,0.003624,0.012016,0.023079,0.000572,-0.004005,-0.058175,-0.005913
9.939085,0.003624,0.012016,0.023079,0.000572,-0.004005,-0.058175,-0.005913
9.949174,0.003624,0.012016,0.023079,0.000572,-0.004005,-0.058175,-0.005913
9.959320,0.003624,0.012016,0.023079,0.000572,-0.004005,-0.058175,-0.005913
9.969393,0.003624,0.012016,0.023079,0.000572,-0.004005,-0.058175,-0.005913
9.979504,0.003624,0.012016,0.023079,0.000572,-0.004005,-0.058175,-0.005913
9.989613,0.003624,0.012016,0.023079,0.000572,-0.004005,-0.058175,-0.005913
9.999696,0.003624,0.012016,0.023079,0.000572,-0.004005,-0.058175,-0.005913
10.009791,0.003624,0.012016,0.023079,0.000572,-0.004005,-0.058175,-0.005913
10.019874,0.003624,0.012016,0.023079,0.000572,-0.004005,-0.058175,-0.005913
10.029943,0.003624,0.012016,0.023079,0.000572,-0.004005,-0.058175,-0.005913
10.040055,0.003624,0.012016,0.023079,0.000572,-0.004005,-0.058175,-0.005913
10.050171,0.003624,0.012016,0.023079,0.000572,-0.004005,-0.058175,-0.005913
10.060281,0.003624,0.012016,0.023079,0.000572,-0.004005,-0.058175,-0.005913
10.070394,0.003624,0.012016,0.023079,0.000572,-0.004005,-0.058175,-0.005913
10.080484,0.003624,0.012016,0.023079,0.000572,-0.004005,-0.058175,-0.005913
10.090593,0.003624,0.012016,0.023079,0.000572,-0.004005,-0.058175,-0.005913
10.100710,0.003624,0.012016,0.023079,0.000572,-0.004005,-0.058175,-0.005913
10.110822,0.003624,0.012016,0.023079,0.000572,-0.004005,-0.058175,-0.005913
10.120935,0.003624,0.012016,0.023079,0.000572,-0.004005,-0.058175,-0.005913
10.131047,0.003624,0.012016,0.023079,0.000572,-0.004005,-0.058175,-0.005913
10.141133,0.003624,0.012016,0.023079,0.000572,-0.004005,-0.058175,-0.005913
10.151246,0.003624,0.012016,0.023079,0.000572,-0.004005,-0.058175,-0.005913
10.161336,0.003624,0.012016,0.023079,0.000572,-0.004005,-0.058175,-0.005913
10.171400,0.003624,0.012016,0.023079,0.000572,-0.004005,-0.058175,-0.005913
10.181465,0.003624,0.012016,0.023079,0.000572,-0.004005,-0.058175,-0.005913
10.191527,0.003624,0.012016,0.023079,0.000572,-0.004005,-0.058175,-0.005913
10.201608,0.003624,0.012016,0.023079,0.000572,-0.004005,-0.058175,-0.005913
10.211675,0.003624,0.012016,0.023079,0.000572,-0.004005,-0.058175,-0.005913
10.221787,0.003624,0.012016,0.023079,0.000572,-0.004005,-0.058175,-0.005913
10.231855,0.003624,0.012016,0.023079,0.000572,-0.004005,-0.058175,-0.005913
10.241895,0.003624,0.012016,0.023079,0.000572,-0.004005,-0.058175,-0.005913
10.251975,0.003624,0.012016,0.023079,0.000572,-0.004005,-0.058175,-0.005913
10.262088,0.003624,0.012016,0.023079,0.000572,-0.004005,-0.058175,-0.005913
10.272197,0.003624,0.012016,0.023079,0.000572,-0.004005,-0.058175,-0.005913
10.282308,0.003624,0.012016,0.023079,0.000572,-0.004005,-0.058175,-0.005913
10.292396,0.003624,0.012016,0.023079,0.000572,-0.004005,-0.058175,-0.005913
10.302510,0.003624,0.012016,0.023079,0.000572,-0.004005,-0.058175,-0.005913
10.312596,0.003624,0.012016,0.023079,0.000572,-0.004005,-0.058175,-0.005913
10.322712,0.003624,0.012016,0.023079,0.000572,-0.004005,-0.058175,-0.005913
10.332793,0.003624,0.012016,0.023079,0.000572,-0.004005,-0.058175,-0.005913
10.342910,0.003624,0.012016,0.023079,0.000572,-0.004005,-0.058175,-0.005913
10.352997,0.003624,0.012016,0.023079,0.000572,-0.004005,-0.058175,-0.005913
10.363067,0.003624,0.012016,0.023079,0.000572,-0.004005,-0.058175,-0.005913
10.373131,0.003624,0.012016,0.023079,0.000572,-0.004005,-0.058175,-0.005913
10.383209,0.003624,0.012016,0.023079,0.000572,-0.004005,-0.058175,-0.005913
10.393274,0.003624,0.012016,0.023079,0.000572,-0.004005,-0.058175,-0.005913
10.403387,0.003624,0.012016,0.023079,0.000572,-0.004005,-0.058175,-0.005913
10.413457,0.003624,0.012016,0.023079,0.000572,-0.004005,-0.058175,-0.005913
10.423575,0.003624,0.012016,0.023079,0.000572,-0.004005,-0.058175,-0.005913
10.433638,0.003624,0.012016,0.023079,0.000572,-0.004005,-0.058175,-0.005913
10.443740,0.003624,0.012016,0.023079,0.000572,-0.004005,-0.058175,-0.005913
10.453830,0.003624,0.012016,0.023079,0.000572,-0.004005,-0.058175,-0.005913
10.464004,0.003624,0.012016,0.023079,0.000572,-0.004005,-0.058175,-0.005913
10.474116,0.003624,0.012016,0.023079,0.000572,-0.004005,-0.058175,-0.005913
10.484203,0.003624,0.012016,0.023079,0.000572,-0.004005,-0.058175,-0.005913
10.494318,0.003624,0.012016,0.023079,0.000572,-0.004005,-0.058175,-0.005913
10.504429,0.003624,0.012016,0.023079,0.000572,-0.004005,-0.058175,-0.005913
10.514494,0.003624,0.012016,0.023079,0.000572,-0.004005,-0.058175,-0.005913
10.524613,0.003624,0.012016,0.023079,0.000572,-0.004005,-0.058175,-0.005913
10.534698,0.003624,0.012016,0.023079,0.000572,-0.004005,-0.058175,-0.005913
10.544764,0.003624,0.012016,0.023079,0.000572,-0.004005,-0.058175,-0.005913
10.554907,0.003624,0.012016,0.023079,0.000572,-0.004005,-0.058175,-0.005913
10.564984,0.003624,0.012016,0.023079,0.000572,-0.004005,-0.058175,-0.005913
10.575095,0.003624,0.012016,0.023079,0.000572,-0.004005,-0.058175,-0.005913
10.585208,0.003624,0.012016,0.023079,0.000572,-0.004005,-0.058175,-0.005913
10.595280,0.003624,0.012016,0.023079,0.000572,-0.004005,-0.058175,-0.005913
10.605390,0.003624,0.012016,0.023079,0.000572,-0.004005,-0.058175,-0.005913
10.615504,0.003624,0.012016,0.023079,0.000572,-0.004005,-0.058175,-0.005913
10.626106,0.003624,0.012016,0.023079,0.000572,-0.004005,-0.058175,-0.005913
10.636198,0.003624,0.012016,0.023079,0.000572,-0.004005,-0.058175,-0.005913
10.646284,0.003624,0.012016,0.023079,0.000572,-0.004005,-0.058175,-0.005913
10.656389,0.003624,0.012016,0.023079,0.000572,-0.004005,-0.058175,-0.005913
10.666503,0.003624,0.012016,0.023079,0.000572,-0.004005,-0.058175,-0.005913
10.676668,0.003624,0.012016,0.023079,0.000572,-0.004005,-0.058175,-0.005913
10.686773,0.003624,0.012016,0.023079,0.000572,-0.004005,-0.058175,-0.005913
10.696839,0.003624,0.012016,0.023079,0.000572,-0.004005,-0.058175,-0.005913
10.706950,0.003624,0.012016,0.023079,0.000572,-0.004005,-0.058175,-0.005913
10.717020,0.003624,0.012016,0.023079,0.000572,-0.004005,-0.058175,-0.005913
10.727104,0.003624,0.012016,0.023079,0.000572,-0.004005,-0.058175,-0.005913
10.737218,0.003624,0.012016,0.023079,0.000572,-0.004005,-0.058175,-0.005913
10.747397,0.003624,0.012016,0.023079,0.000572,-0.004005,-0.058175,-0.005913
10.757557,0.003624,0.012016,0.023079,0.000572,-0.004005,-0.058175,-0.005913
10.767628,0.003624,0.012016,0.023079,0.000572,-0.004005,-0.058175,-0.005913
10.777696,0.003624,0.012016,0.023079,0.000572,-0.004005,-0.058175,-0.005913
10.787763,0.003624,0.012016,0.023079,0.000572,-0.004005,-0.058175,-0.005913
10.797830,0.003624,0.012016,0.023079,0.000572,-0.004005,-0.058175,-0.005913
10.807897,0.003624,0.012016,0.023079,0.000572,-0.004005,-0.058175,-0.005913
10.817971,0.003624,0.012016,0.023079,0.000572,-0.004005,-0.058175,-0.005913
10.828056,0.003624,0.012016,0.023079,0.000572,-0.004005,-0.058175,-0.005913
10.838125,0.003624,0.012016,0.023079,0.000572,-0.004005,-0.058175,-0.005913
10.848196,0.003624,0.012016,0.023079,0.000572,-0.004005,-0.058175,-0.005913
10.858305,0.003624,0.012016,0.023079,0.000572,-0.004005,-0.058175,-0.005913
10.868420,0.003624,0.012016,0.023079,0.000572,-0.004005,-0.058175,-0.005913
10.878531,0.003624,0.012016,0.023079,0.000572,-0.004005,-0.058175,-0.005913
10.888896,0.003624,0.012016,0.023079,0.000572,-0.004005,-0.058175,-0.005913
10.899010,0.003624,0.012016,0.023079,0.000572,-0.004005,-0.058175,-0.005913
10.909119,0.003624,0.012016,0.023079,0.000572,-0.004005,-0.058175,-0.005913
10.919231,0.003624,0.012016,0.023079,0.000572,-0.004005,-0.058175,-0.005913
10.929324,0.003624,0.012016,0.023079,0.000572,-0.004005,-0.058175,-0.005913
10.939432,0.003624,0.012016,0.023079,0.000572,-0.004005,-0.058175,-0.005913
10.949544,0.003624,0.012016,0.023079,0.000572,-0.004005,-0.058175,-0.005913
10.959625,0.003624,0.012016,0.023079,0.000572,-0.004005,-0.058175,-0.005913
10.969750,0.003624,0.012016,0.023079,0.000572,-0.004005,-0.058175,-0.005913
10.979837,0.003624,0.012016,0.023079,0.000572,-0.004005,-0.058175,-0.005913
10.989921,0.003624,0.012016,0.023079,0.000572,-0.004005,-0.058175,-0.005913
10.999990,0.003624,0.012016,0.023079,0.000572,-0.004005,-0.058175,-0.005913
11.010056,0.003624,0.012016,0.023079,0.000572,-0.004005,-0.058175,-0.005913
11.020134,0.003624,0.012016,0.023079,0.000572,-0.004005,-0.058175,-0.005913
11.030200,0.003624,0.012016,0.023079,0.000572,-0.004005,-0.058175,-0.005913
11.040275,0.003624,0.012016,0.023079,0.000572,-0.004005,-0.058175,-0.005913
11.050349,0.003624,0.012016,0.023079,0.000572,-0.004005,-0.058175,-0.005913
11.060456,0.003624,0.012016,0.023079,0.000572,-0.004005,-0.058175,-0.005913
11.070521,0.003624,0.012016,0.023079,0.000572,-0.004005,-0.058175,-0.005913
11.080586,0.003624,0.012016,0.023079,0.000572,-0.004005,-0.058175,-0.005913
11.090648,0.003624,0.012016,0.023079,0.000572,-0.004005,-0.058175,-0.005913
11.100711,0.003624,0.012016,0.023079,0.000572,-0.004005,-0.058175,-0.005913
11.110778,0.003624,0.012016,0.023079,0.000572,-0.004005,-0.058175,-0.005913
11.120842,0.003624,0.012016,0.023079,0.000572,-0.004005,-0.058175,-0.005913
11.130881,0.003624,0.012016,0.023079,0.000572,-0.004005,-0.058175,-0.005913
11.140947,0.003624,0.012016,0.023079,0.000572,-0.004005,-0.058175,-0.005913
11.151016,0.003624,0.012016,0.023079,0.000572,-0.004005,-0.058175,-0.005913
11.161086,0.003624,0.012016,0.023079,0.000572,-0.004005,-0.058175,-0.005913
11.171156,0.003624,0.012016,0.023079,0.000572,-0.004005,-0.058175,-0.005913
11.181224,0.003624,0.012016,0.023079,0.000572,-0.004005,-0.058175,-0.005913
11.191343,0.003624,0.012016,0.023079,0.000572,-0.004005,-0.058175,-0.005913
11.201456,0.003624,0.012016,0.023079,0.000572,-0.004005,-0.058175,-0.005913
11.211529,0.003624,0.012016,0.023079,0.000572,-0.004005,-0.058175,-0.005913
11.221591,0.003624,0.012016,0.023079,0.000572,-0.004005,-0.058175,-0.005913
11.231666,0.003624,0.012016,0.023079,0.000572,-0.004005,-0.058175,-0.005913
11.241730,0.003624,0.012016,0.023079,0.000572,-0.004005,-0.058175,-0.005913
11.251838,0.003624,0.012016,0.023079,0.000572,-0.004005,-0.058175,-0.005913
11.261913,0.003624,0.012016,0.023079,0.000572,-0.004005,-0.058175,-0.005913
11.272026,0.003624,0.012016,0.023079,0.000572,-0.004005,-0.058175,-0.005913
11.282137,0.003624,0.012016,0.023079,0.000572,-0.004005,-0.058175,-0.005913
11.292247,0.003624,0.012016,0.023079,0.000572,-0.004005,-0.058175,-0.005913
11.302361,0.003624,0.012016,0.023079,0.000572,-0.004005,-0.058175,-0.005913
11.312447,0.003624,0.012016,0.023079,0.000572,-0.004005,-0.058175,-0.005913
11.322558,0.003624,0.012016,0.023079,0.000572,-0.004005,-0.058175,-0.005913
11.332738,0.003624,0.012016,0.023079,0.000572,-0.004005,-0.058175,-0.005913
11.342848,0.003624,0.012016,0.023079,0.000572,-0.004005,-0.058175,-0.005913
11.352964,0.003624,0.012016,0.023079,0.000572,-0.004005,-0.058175,-0.005913
11.363033,0.003624,0.012016,0.023079,0.000572,-0.004005,-0.058175,-0.005913
11.373102,0.003624,0.012016,0.023079,0.000572,-0.004005,-0.058175,-0.005913
11.383216,0.003624,0.012016,0.023079,0.000572,-0.004005,-0.058175,-0.005913
11.393326,0.003624,0.012016,0.023079,0.000572,-0.004005,-0.058175,-0.005913
11.403439,0.003624,0.012016,0.023079,0.000572,-0.004005,-0.058175,-0.005913
11.413552,0.003624,0.012016,0.023079,0.000572,-0.004005,-0.058175,-0.005913
11.423662,0.003624,0.012016,0.023079,0.000572,-0.004005,-0.058175,-0.005913
11.433781,0.003624,0.012016,0.023079,0.000572,-0.004005,-0.058175,-0.005913
11.443883,0.003624,0.012016,0.023079,0.000572,-0.004005,-0.058175,-0.005913
11.453958,0.003624,0.012016,0.023079,0.000572,-0.004005,-0.058175,-0.005913
11.464027,0.003624,0.012016,0.023079,0.000572,-0.004005,-0.058175,-0.005913
11.474090,0.003624,0.012016,0.023079,0.000572,-0.004005,-0.058175,-0.005913
11.484156,0.003624,0.012016,0.023079,0.000572,-0.004005,-0.058175,-0.005913
11.494262,0.003624,0.012016,0.023079,0.000572,-0.004005,-0.058175,-0.005913
11.504372,0.003624,0.012016,0.023079,0.000572,-0.004005,-0.058175,-0.005913
11.514438,0.003624,0.012016,0.023079,0.000572,-0.004005,-0.058175,-0.005913
11.524502,0.003624,0.012016,0.023079,0.000572,-0.004005,-0.058175,-0.005913
11.534569,0.003624,0.012016,0.023079,0.000572,-0.004005,-0.058175,-0.005913
11.544668,0.003624,0.012016,0.023079,0.000572,-0.004005,-0.058175,-0.005913
11.554783,0.003624,0.012016,0.023079,0.000572,-0.004005,-0.058175,-0.005913
11.564853,0.003624,0.012016,0.023079,0.000572,-0.004005,-0.058175,-0.005913
11.574962,0.003624,0.012016,0.023079,0.000572,-0.004005,-0.058175,-0.005913
11.585029,0.003624,0.012016,0.023079,0.000572,-0.004005,-0.058175,-0.005913
11.595138,0.003624,0.012016,0.023079,0.000572,-0.004005,-0.058175,-0.005913
11.605251,0.003624,0.012016,0.023079,0.000572,-0.004005,-0.058175,-0.005913
11.615321,0.003624,0.012016,0.023079,0.000572,-0.004005,-0.058175,-0.005913
11.625385,0.003624,0.012016,0.023079,0.000572,-0.004005,-0.058175,-0.005913
11.635453,0.003624,0.012016,0.023079,0.000572,-0.004005,-0.058175,-0.005913
11.645545,0.003624,0.012016,0.023079,0.000572,-0.004005,-0.058175,-0.005913
11.655666,0.003624,0.012016,0.023079,0.000572,-0.004005,-0.058175,-0.005913
11.665780,0.003624,0.012016,0.023079,0.000572,-0.004005,-0.058175,-0.005913
11.675923,0.003624,0.012016,0.023079,0.000572,-0.004005,-0.058175,-0.005913
11.686037,0.003624,0.012016,0.023079,0.000572,-0.004005,-0.058175,-0.005913
11.696150,0.003624,0.012016,0.023079,0.000572,-0.004005,-0.058175,-0.005913
11.706262,0.003624,0.012016,0.023079,0.000572,-0.004005,-0.058175,-0.005913
11.716373,0.003624,0.012016,0.023079,0.000572,-0.004005,-0.058175,-0.005913
11.726483,0.003624,0.012016,0.023079,0.000572,-0.004005,-0.058175,-0.005913
11.736592,0.003624,0.012016,0.023079,0.000572,-0.004005,-0.058175,-0.005913
11.746680,0.003624,0.012016,0.023079,0.000572,-0.004005,-0.058175,-0.005913
11.756787,0.003624,0.012016,0.023079,0.000572,-0.004005,-0.058175,-0.005913
11.766881,0.003624,0.012016,0.023079,0.000572,-0.004005,-0.058175,-0.005913
11.776990,0.003624,0.012016,0.023079,0.000572,-0.004005,-0.058175,-0.005913
11.787100,0.003624,0.012016,0.023079,0.000572,-0.004005,-0.058175,-0.005913
11.797186,0.003624,0.012016,0.023079,0.000572,-0.004005,-0.058175,-0.005913
11.807296,0.003624,0.012016,0.023079,0.000572,-0.004005,-0.058175,-0.005913
11.817471,0.003624,0.012016,0.023079,0.000572,-0.004005,-0.058175,-0.005913
11.827583,0.003624,0.012016,0.023079,0.000572,-0.004005,-0.058175,-0.005913
11.837693,0.003624,0.012016,0.023079,0.000572,-0.004005,-0.058175,-0.005913
11.847808,0.003624,0.012016,0.023079,0.000572,-0.004005,-0.058175,-0.005913
11.857919,0.003624,0.012016,0.023079,0.000572,-0.004005,-0.058175,-0.005913
11.868033,0.003624,0.012016,0.023079,0.000572,-0.004005,-0.058175,-0.005913
11.878146,0.003624,0.012016,0.023079,0.000572,-0.004005,-0.058175,-0.005913
11.888259,0.003624,0.012016,0.023079,0.000572,-0.004005,-0.058175,-0.005913
11.898347,0.003624,0.012016,0.023079,0.000572,-0.004005,-0.058175,-0.005913
11.908455,0.003624,0.012016,0.023079,0.000572,-0.004005,-0.058175,-0.005913
11.918570,0.003624,0.012016,0.023079,0.000572,-0.004005,-0.058175,-0.005913
11.928656,0.003624,0.012016,0.023079,0.000572,-0.004005,-0.058175,-0.005913
11.938723,0.003624,0.012016,0.023079,0.000572,-0.004005,-0.058175,-0.005913
11.948786,0.003624,0.012016,0.023079,0.000572,-0.004005,-0.058175,-0.005913
11.958853,0.003624,0.012016,0.023079,0.000572,-0.004005,-0.058175,-0.005913
11.968876,0.003624,0.012016,0.023079,0.000572,-0.004005,-0.058175,-0.005913
11.978946,0.003624,0.012016,0.023079,0.000572,-0.004005,-0.058175,-0.005913
11.989011,0.003624,0.012016,0.023079,0.000572,-0.004005,-0.058175,-0.005913
11.999099,0.003624,0.012016,0.023079,0.000572,-0.004005,-0.058175,-0.005913
12.009208,0.003624,0.012016,0.023079,0.000572,-0.004005,-0.058175,-0.005913
12.019321,0.003624,0.012016,0.023079,0.000572,-0.004005,-0.058175,-0.005913
12.029397,0.003624,0.012016,0.023079,0.000572,-0.004005,-0.058175,-0.005913
12.039508,0.003624,0.012016,0.023079,0.000572,-0.004005,-0.058175,-0.005913
12.049580,0.003624,0.012016,0.023079,0.000572,-0.004005,-0.058175,-0.005913
12.059645,0.003624,0.012016,0.023079,0.000572,-0.004005,-0.058175,-0.005913
12.069760,0.003624,0.012016,0.023079,0.000572,-0.004005,-0.058175,-0.005913
12.079828,0.003624,0.012016,0.023079,0.000572,-0.004005,-0.058175,-0.005913
12.089928,0.003624,0.012016,0.023079,0.000572,-0.004005,-0.058175,-0.005913
12.100040,0.003624,0.012016,0.023079,0.000572,-0.004005,-0.058175,-0.005913
12.110150,0.003624,0.012016,0.023079,0.000572,-0.004005,-0.058175,-0.005913
12.120217,0.003624,0.012016,0.023079,0.000572,-0.004005,-0.058175,-0.005913
12.130285,0.003624,0.012016,0.023079,0.000572,-0.004005,-0.058175,-0.005913
12.140347,0.003624,0.012016,0.023079,0.000572,-0.004005,-0.058175,-0.005913
12.150418,0.003624,0.012016,0.023079,0.000572,-0.004005,-0.058175,-0.005913
12.160485,0.003624,0.012016,0.023079,0.000572,-0.004005,-0.058175,-0.005913
12.170552,0.003624,0.012016,0.023079,0.000572,-0.004005,-0.058175,-0.005913
12.180615,0.003624,0.012016,0.023079,0.000572,-0.004005,-0.058175,-0.005913
12.190678,0.003624,0.012016,0.023079,0.000572,-0.004005,-0.058175,-0.005913
12.200741,0.003624,0.012016,0.023079,0.000572,-0.004005,-0.058175,-0.005913
12.210806,0.003624,0.012016,0.023079,0.000572,-0.004005,-0.058175,-0.005913
12.220876,0.003624,0.012016,0.023079,0.000572,-0.004005,-0.058175,-0.005913
12.230966,0.003624,0.012016,0.023079,0.000572,-0.004005,-0.058175,-0.005913
12.241075,0.003624,0.012016,0.023079,0.000572,-0.004005,-0.058175,-0.005913
12.251188,0.003624,0.012016,0.023079,0.000572,-0.004005,-0.058175,-0.005913
12.261296,0.003624,0.012016,0.023079,0.000572,-0.004005,-0.058175,-0.005913
12.271407,0.003624,0.012016,0.023079,0.000572,-0.004005,-0.058175,-0.005913
12.281493,0.003624,0.012016,0.023079,0.000572,-0.004005,-0.058175,-0.005913
12.291602,0.003624,0.012016,0.023079,0.000572,-0.004005,-0.058175,-0.005913
12.301684,0.003624,0.012016,0.023079,0.000572,-0.004005,-0.058175,-0.005913
12.311763,0.003624,0.012016,0.023079,0.000572,-0.004005,-0.058175,-0.005913
12.321888,0.003624,0.012016,0.023079,0.000572,-0.004005,-0.058175,-0.005913
12.331979,0.003624,0.012016,0.023079,0.000572,-0.004005,-0.058175,-0.005913
12.342086,0.003624,0.012016,0.023079,0.000572,-0.004005,-0.058175,-0.005913
12.352200,0.003624,0.012016,0.023079,0.000572,-0.004005,-0.058175,-0.005913
12.362286,0.003624,0.012016,0.023079,0.000572,-0.004005,-0.058175,-0.005913
12.372354,0.003624,0.012016,0.023079,0.000572,-0.004005,-0.058175,-0.005913
12.382464,0.003624,0.012016,0.023079,0.000572,-0.004005,-0.058175,-0.005913
12.392573,0.003624,0.012016,0.023079,0.000572,-0.004005,-0.058175,-0.005913
12.402683,0.003624,0.012016,0.023079,0.000572,-0.004005,-0.058175,-0.005913
12.412778,0.003624,0.012016,0.023079,0.000572,-0.004005,-0.058175,-0.005913
12.422839,0.003624,0.012016,0.023079,0.000572,-0.004005,-0.058175,-0.005913
12.432874,0.003624,0.012016,0.023079,0.000572,-0.004005,-0.058175,-0.005913
12.442936,0.003624,0.012016,0.023079,0.000572,-0.004005,-0.058175,-0.005913
12.453003,0.003624,0.012016,0.023079,0.000572,-0.004005,-0.058175,-0.005913
12.463111,0.003624,0.012016,0.023079,0.000572,-0.004005,-0.058175,-0.005913
12.473219,0.003624,0.012016,0.023079,0.000572,-0.004005,-0.058175,-0.005913
12.483284,0.003624,0.012016,0.023079,0.000572,-0.004005,-0.058175,-0.005913
12.493345,0.003624,0.012016,0.023079,0.000572,-0.004005,-0.058175,-0.005913
12.503412,0.003624,0.012016,0.023079,0.000572,-0.004005,-0.058175,-0.005913
12.513483,0.003624,0.012016,0.023079,0.000572,-0.004005,-0.058175,-0.005913
12.523597,0.003624,0.012016,0.023079,0.000572,-0.004005,-0.058175,-0.005913
12.533664,0.003624,0.012016,0.023079,0.000572,-0.004005,-0.058175,-0.005913
12.543774,0.003624,0.012016,0.023079,0.000572,-0.004005,-0.058175,-0.005913
12.553900,0.003624,0.012016,0.023079,0.000572,-0.004005,-0.058175,-0.005913
12.563969,0.003624,0.012016,0.023079,0.000572,-0.004005,-0.058175,-0.005913
12.574077,0.003624,0.012016,0.023079,0.000572,-0.004005,-0.058175,-0.005913
12.584144,0.003624,0.012016,0.023079,0.000572,-0.004005,-0.058175,-0.005913
12.594261,0.003624,0.012016,0.023079,0.000572,-0.004005,-0.058175,-0.005913
12.604373,0.003624,0.012016,0.023079,0.000572,-0.004005,-0.058175,-0.005913
12.614458,0.003624,0.012016,0.023079,0.000572,-0.004005,-0.058175,-0.005913
12.624564,0.003624,0.012016,0.023079,0.000572,-0.004005,-0.058175,-0.005913
12.634678,0.003624,0.012016,0.023079,0.000572,-0.004005,-0.058175,-0.005913
12.644746,0.003624,0.012016,0.023079,0.000572,-0.004005,-0.058175,-0.005913
12.654809,0.003624,0.012016,0.023079,0.000572,-0.004005,-0.058175,-0.005913
12.664875,0.003624,0.012016,0.023079,0.000572,-0.004005,-0.058175,-0.005913
12.674944,0.003624,0.012016,0.023079,0.000572,-0.004005,-0.058175,-0.005913
12.685010,0.003624,0.012016,0.023079,0.000572,-0.004005,-0.058175,-0.005913
12.695073,0.003624,0.012016,0.023079,0.000572,-0.004005,-0.058175,-0.005913
12.705141,0.003624,0.012016,0.023079,0.000572,-0.004005,-0.058175,-0.005913
12.715204,0.003624,0.012016,0.023079,0.000572,-0.004005,-0.058175,-0.005913
12.725269,0.003624,0.012016,0.023079,0.000572,-0.004005,-0.058175,-0.005913
12.735331,0.003624,0.012016,0.023079,0.000572,-0.004005,-0.058175,-0.005913
12.745399,0.003624,0.012016,0.023079,0.000572,-0.004005,-0.058175,-0.005913
12.755469,0.003624,0.012016,0.023079,0.000572,-0.004005,-0.058175,-0.005913
12.765537,0.003624,0.012016,0.023079,0.000572,-0.004005,-0.058175,-0.005913
12.775609,0.003624,0.012016,0.023079,0.000572,-0.004005,-0.058175,-0.005913
12.785673,0.003624,0.012016,0.023079,0.000572,-0.004005,-0.058175,-0.005913
12.795734,0.003624,0.012016,0.023079,0.000572,-0.004005,-0.058175,-0.005913
12.805799,0.003624,0.012016,0.023079,0.000572,-0.004005,-0.058175,-0.005913
12.815874,0.003624,0.012016,0.023079,0.000572,-0.004005,-0.058175,-0.005913
12.825984,0.003624,0.012016,0.023079,0.000572,-0.004005,-0.058175,-0.005913
12.836098,0.003624,0.012016,0.023079,0.000572,-0.004005,-0.058175,-0.005913
12.846159,0.003624,0.012016,0.023079,0.000572,-0.004005,-0.058175,-0.005913
12.856220,0.003624,0.012016,0.023079,0.000572,-0.004005,-0.058175,-0.005913
12.866301,0.003624,0.012016,0.023079,0.000572,-0.004005,-0.058175,-0.005913
12.876410,0.003624,0.012016,0.023079,0.000572,-0.004005,-0.058175,-0.005913
12.886521,0.003624,0.012016,0.023079,0.000572,-0.004005,-0.058175,-0.005913
12.896636,0.003624,0.012016,0.023079,0.000572,-0.004005,-0.058175,-0.005913
12.906747,0.003624,0.012016,0.023079,0.000572,-0.004005,-0.058175,-0.005913
12.916832,0.003624,0.012016,0.023079,0.000572,-0.004005,-0.058175,-0.005913
12.926942,0.003624,0.012016,0.023079,0.000572,-0.004005,-0.058175,-0.005913
12.937050,0.003624,0.012016,0.023079,0.000572,-0.004005,-0.058175,-0.005913
12.947136,0.003624,0.012016,0.023079,0.000572,-0.004005,-0.058175,-0.005913
12.957222,0.003624,0.012016,0.023079,0.000572,-0.004005,-0.058175,-0.005913
12.967299,0.003624,0.012016,0.023079,0.000572,-0.004005,-0.058175,-0.005913
12.977410,0.003624,0.012016,0.023079,0.000572,-0.004005,-0.058175,-0.005913
12.987524,0.003624,0.012016,0.023079,0.000572,-0.004005,-0.058175,-0.005913
12.997623,0.003624,0.012016,0.023079,0.000572,-0.004005,-0.058175,-0.005913
13.007690,0.003624,0.012016,0.023079,0.000572,-0.004005,-0.058175,-0.005913
13.017757,0.003624,0.012016,0.023079,0.000572,-0.004005,-0.058175,-0.005913
13.027879,0.003624,0.012016,0.023079,0.000572,-0.004005,-0.058175,-0.005913
13.037930,0.003624,0.012016,0.023079,0.000572,-0.004005,-0.058175,-0.005913
13.048047,0.003624,0.012016,0.023079,0.000572,-0.004005,-0.058175,-0.005913
13.058155,0.003624,0.012016,0.023079,0.000572,-0.004005,-0.058175,-0.005913
13.068242,0.003624,0.012016,0.023079,0.000572,-0.004005,-0.058175,-0.005913
13.078310,0.003624,0.012016,0.023079,0.000572,-0.004005,-0.058175,-0.005913
13.088375,0.003624,0.012016,0.023079,0.000572,-0.004005,-0.058175,-0.005913
13.098438,0.003624,0.012016,0.023079,0.000572,-0.004005,-0.058175,-0.005913
13.108521,0.003624,0.012016,0.023079,0.000572,-0.004005,-0.058175,-0.005913
