meetsitaram/go2-rebot/recordings/test_20260423_100734.csv
t,joint1,joint2,joint3,joint4,joint5,joint6
0.002525,0.049783,0.016594,-0.001335,-0.001335,0.001717,0.069619
0.012590,0.049783,0.016594,-0.001335,-0.001335,0.001717,0.070764
0.022663,0.049401,0.016594,-0.001335,-0.001335,0.002098,0.074197
0.032731,0.049020,0.016594,-0.001335,-0.001335,0.002098,0.076867
0.042793,0.049020,0.016594,-0.001335,-0.001335,0.001717,0.083734
0.052855,0.049020,0.016594,-0.001335,-0.000954,0.001717,0.086785
0.062921,0.049020,0.016594,-0.001335,-0.000954,0.001717,0.093652
0.072984,0.049020,0.016594,-0.001335,-0.000954,0.001717,0.100138
0.083055,0.049020,0.016594,-0.001335,-0.000954,0.001717,0.103189
0.093102,0.049020,0.016594,-0.001335,-0.000954,0.001717,0.105860
0.103451,0.049020,0.016594,-0.001335,-0.000954,0.001717,0.110819
0.113567,0.049020,0.016594,-0.001335,-0.000954,0.001717,0.114252
0.123676,0.049020,0.016594,-0.001335,-0.000954,0.001717,0.115396
0.133795,0.049020,0.016594,-0.001335,-0.000954,0.002098,0.117304
0.143902,0.049020,0.016594,-0.001335,-0.000954,0.002098,0.117685
0.154017,0.049020,0.016594,-0.001335,-0.000954,0.002098,0.118067
0.164130,0.049020,0.016594,-0.001335,-0.000954,0.002098,0.118067
0.174248,0.049020,0.016594,-0.001335,-0.000954,0.002098,0.117685
0.184363,0.049020,0.016594,-0.001335,-0.000572,0.002480,0.117304
0.194552,0.049020,0.016594,-0.001335,-0.000191,0.002480,0.116541
0.204664,0.049020,0.016594,-0.001335,-0.000191,0.002480,0.115396
0.214783,0.049020,0.016594,-0.001335,-0.000191,0.002480,0.113108
0.224893,0.049020,0.016594,-0.001335,-0.000191,0.002480,0.111963
0.235005,0.049020,0.016594,-0.001335,-0.000191,0.002480,0.109674
0.245118,0.049020,0.016594,-0.001335,-0.000191,0.002098,0.108912
0.255456,0.049020,0.016594,-0.001335,-0.000191,0.001717,0.106623
0.265543,0.049020,0.016594,-0.001335,-0.000191,0.001717,0.105478
0.275612,0.049020,0.016594,-0.001335,-0.000191,0.001717,0.103952
0.285699,0.049020,0.016594,-0.001335,-0.000191,0.001717,0.102808
0.295813,0.049020,0.016594,-0.001335,-0.000191,0.001717,0.100138
0.305930,0.049020,0.016594,-0.001335,-0.000191,0.001717,0.098230
0.316017,0.049020,0.016594,-0.001335,-0.000191,0.001717,0.095179
0.326138,0.049020,0.016594,-0.001335,-0.000191,0.001717,0.093270
0.336250,0.049020,0.016594,-0.001335,-0.000191,0.001717,0.089837
0.346365,0.049020,0.016594,-0.001335,-0.000191,0.001717,0.087930
0.356500,0.049020,0.016594,-0.001335,-0.000191,0.001717,0.084496
0.366999,0.049020,0.016594,-0.001335,-0.000191,0.001717,0.082589
0.377130,0.049020,0.016594,-0.001335,-0.000191,0.001717,0.079156
0.387244,0.049020,0.016594,-0.001335,-0.000191,0.001717,0.077249
0.397356,0.049020,0.016594,-0.001335,-0.000191,0.001717,0.073434
0.407542,0.049020,0.016594,-0.001335,-0.000191,0.001717,0.071145
0.417655,0.049020,0.016594,-0.001335,-0.000191,0.001717,0.066949
0.427779,0.049020,0.016594,-0.001335,-0.000191,0.001717,0.064660
0.438125,0.049020,0.016594,-0.001335,-0.000191,0.001717,0.060082
0.448238,0.049020,0.016594,-0.001335,-0.000191,0.001717,0.057412
0.458417,0.049020,0.016594,-0.001335,-0.000191,0.002098,0.052453
0.469003,0.049020,0.016594,-0.001335,-0.000191,0.002098,0.049783
0.479117,0.049020,0.016594,-0.001335,-0.000191,0.002098,0.044061
0.489190,0.049020,0.016594,-0.001335,-0.000191,0.002098,0.041390
0.499262,0.049020,0.016594,-0.001335,-0.000191,0.002098,0.036050
0.509370,0.049020,0.016594,-0.001335,-0.000191,0.002098,0.033380
0.519483,0.049020,0.016594,-0.001335,-0.000191,0.002098,0.028419
0.529595,0.049020,0.016594,-0.001335,-0.000191,0.001717,0.025749
0.539712,0.049020,0.016594,-0.001335,-0.000191,0.001717,0.020790
0.549828,0.049020,0.016594,-0.001335,-0.000191,0.001717,0.018120
0.559941,0.049020,0.016594,-0.001335,-0.000191,0.001717,0.012779
0.570055,0.049020,0.016594,-0.001335,-0.000191,0.001717,0.010490
0.580168,0.049020,0.016594,-0.001335,-0.000191,0.001717,0.005150
0.590280,0.049020,0.016594,-0.001335,-0.000191,0.001717,0.002861
0.600391,0.049020,0.016594,-0.001335,-0.000191,0.001717,-0.001717
0.610576,0.049020,0.016594,-0.001335,-0.000191,0.001717,-0.003624
0.620695,0.049020,0.016594,-0.001335,-0.000191,0.001717,-0.007820
0.630809,0.049020,0.016594,-0.001335,-0.000191,0.001717,-0.009727
0.640923,0.049020,0.016594,-0.001335,-0.000191,0.001717,-0.013924
0.651042,0.049020,0.016594,-0.001335,-0.000191,0.001717,-0.015450
0.661119,0.049020,0.016594,-0.001335,-0.000191,0.001717,-0.019264
0.671232,0.049020,0.016594,-0.001335,-0.000191,0.001717,-0.021172
0.681320,0.049020,0.016594,-0.001335,-0.000191,0.001717,-0.024605
0.691395,0.049020,0.016594,-0.001335,-0.000191,0.001717,-0.026512
0.701507,0.049020,0.016594,-0.001335,-0.000191,0.001717,-0.029564
0.711663,0.049020,0.016594,-0.001335,-0.000191,0.001717,-0.031090
0.721778,0.049020,0.016594,-0.001335,-0.000191,0.001717,-0.034142
0.731891,0.049020,0.016594,-0.001335,-0.000191,0.001717,-0.035287
0.742012,0.049020,0.016594,-0.001335,-0.000191,0.001717,-0.037194
0.752126,0.049020,0.016594,-0.001335,-0.000191,0.001717,-0.037957
0.762247,0.049020,0.016594,-0.001335,-0.000191,0.001717,-0.038720
0.772325,0.049020,0.016594,-0.001335,-0.000191,0.001717,-0.039102
0.782439,0.049020,0.016594,-0.001335,-0.000191,0.001717,-0.039102
0.792551,0.049020,0.016594,-0.001335,-0.000191,0.001717,-0.039102
0.802664,0.049020,0.016594,-0.001335,-0.000191,0.001717,-0.039102
0.812780,0.049020,0.016594,-0.001335,-0.000191,0.001717,-0.039102
0.822894,0.049020,0.016594,-0.001335,-0.000191,0.001717,-0.039102
0.833006,0.049020,0.016594,-0.001335,-0.000191,0.001717,-0.038720
0.843185,0.049020,0.016594,-0.001335,-0.000191,0.001717,-0.038720
0.853298,0.049020,0.016594,-0.001335,-0.000191,0.001717,-0.038720
0.863416,0.049020,0.016594,-0.001335,-0.000191,0.001717,-0.038720
0.873530,0.049020,0.016594,-0.001335,-0.000191,0.001717,-0.038720
0.883643,0.049020,0.016594,-0.001335,-0.000191,0.001335,-0.038720
0.893827,0.049020,0.016594,-0.001335,-0.000191,0.001335,-0.038720
0.903942,0.049020,0.016594,-0.001335,-0.000191,0.001335,-0.038720
0.914029,0.049020,0.016594,-0.001335,-0.000191,0.001335,-0.038720
0.924141,0.049020,0.016594,-0.001335,-0.000191,0.000954,-0.038720
0.934257,0.049020,0.016594,-0.001335,-0.000191,0.000954,-0.038720
0.944433,0.049020,0.016594,-0.001335,-0.000572,0.000572,-0.038720
0.954546,0.049020,0.016594,-0.001335,-0.000572,0.000572,-0.038720
0.964623,0.049020,0.016594,-0.001335,-0.000572,0.000572,-0.038720
0.974686,0.049020,0.016594,-0.001335,-0.000572,0.000572,-0.038720
0.984749,0.049020,0.016594,-0.001335,-0.000572,0.000572,-0.038720
0.994819,0.049020,0.016594,-0.001335,-0.000572,0.000572,-0.038720
1.004929,0.049020,0.016594,-0.001335,-0.000572,0.000572,-0.038720
1.015016,0.049020,0.016594,-0.001335,-0.000572,0.000572,-0.038720
1.025136,0.049020,0.016594,-0.001335,-0.000572,0.000954,-0.038720
1.035249,0.049020,0.016594,-0.001335,-0.000572,0.000954,-0.038720
1.045361,0.049020,0.016594,-0.001335,-0.000572,0.000954,-0.038720
1.055474,0.049020,0.016594,-0.001335,-0.000572,0.000954,-0.039102
1.065572,0.049020,0.016594,-0.001335,-0.000572,0.000954,-0.039102
1.075688,0.049020,0.016594,-0.001335,-0.000572,0.000954,-0.039483
1.085780,0.049020,0.016594,-0.001335,-0.000191,0.000954,-0.040246
1.095868,0.049020,0.016594,-0.001335,-0.000191,0.000954,-0.040627
1.105981,0.049020,0.016594,-0.001335,-0.000191,0.000954,-0.041772
1.116103,0.049020,0.016594,-0.001335,-0.000191,0.000954,-0.042153
1.126185,0.049020,0.016594,-0.001335,-0.000191,0.000572,-0.042916
1.136267,0.049020,0.016594,-0.001335,-0.000191,0.000572,-0.043679
1.146380,0.049020,0.016594,-0.001335,-0.000191,0.000572,-0.044061
1.156514,0.049020,0.016594,-0.001335,-0.000191,0.000572,-0.044442
1.166630,0.049020,0.016594,-0.001335,-0.000191,0.000572,-0.044824
1.176741,0.049020,0.016594,-0.001335,-0.000191,0.000572,-0.045205
1.186858,0.049020,0.016594,-0.001335,-0.000191,0.000572,-0.045205
1.196972,0.049020,0.016594,-0.001335,-0.000191,0.000572,-0.045205
1.207104,0.049020,0.016594,-0.001335,-0.000191,0.000572,-0.045205
1.217216,0.049020,0.016594,-0.001335,-0.000191,0.000572,-0.045205
1.227329,0.049020,0.016594,-0.001335,-0.000191,0.000572,-0.045205
1.237443,0.049020,0.016594,-0.001335,-0.000191,0.000572,-0.045205
1.247553,0.049020,0.016594,-0.001335,-0.000191,0.000572,-0.045205
1.257670,0.049020,0.016594,-0.001335,-0.000191,0.000572,-0.045205
1.267791,0.049020,0.016594,-0.001335,-0.000191,0.000572,-0.045205
1.277907,0.049020,0.016594,-0.001335,-0.000191,0.000572,-0.045205
1.287976,0.049020,0.016594,-0.001335,-0.000191,0.000572,-0.045205
1.298062,0.049020,0.016594,-0.001335,-0.000191,0.000572,-0.045205
1.308129,0.049020,0.016594,-0.001335,-0.000191,0.000572,-0.045205
1.318245,0.049020,0.016594,-0.001335,-0.000191,0.000572,-0.045205
1.328346,0.049020,0.016594,-0.001335,-0.000191,0.000954,-0.045205
1.338940,0.049020,0.016594,-0.001335,-0.000191,0.001335,-0.045205
1.349027,0.049020,0.016594,-0.001335,-0.000191,0.001717,-0.045205
1.359142,0.049020,0.016594,-0.001335,-0.000191,0.001717,-0.045205
1.369206,0.048638,0.016594,-0.001335,-0.000191,0.001717,-0.045205
1.379278,0.047875,0.016594,-0.001335,-0.000191,0.001717,-0.045205
1.389392,0.047112,0.016594,-0.001335,-0.000191,0.001717,-0.045205
1.399471,0.047112,0.016594,-0.001335,-0.000191,0.001717,-0.045205
1.409534,0.047112,0.016594,-0.001335,-0.000191,0.001717,-0.045205
1.419598,0.047112,0.016594,-0.001335,-0.000191,0.001717,-0.045205
1.429663,0.047112,0.016594,-0.001335,-0.000191,0.001335,-0.045205
1.439725,0.047112,0.016594,-0.001335,-0.000191,0.001335,-0.045205
1.449787,0.047112,0.016594,-0.001335,-0.000191,0.001335,-0.045205
1.459866,0.047112,0.016594,-0.001335,-0.000191,0.001335,-0.045205
1.469979,0.047112,0.016594,-0.001335,-0.000191,0.001335,-0.045205
1.480045,0.047112,0.016594,-0.001335,-0.000191,0.001335,-0.045205
1.490084,0.047112,0.016594,-0.001335,-0.000191,0.001335,-0.045205
1.500157,0.047112,0.016594,-0.001335,-0.000191,0.001335,-0.045205
1.510243,0.047112,0.016594,-0.001335,-0.000191,0.001335,-0.045205
1.520311,0.047112,0.016594,-0.001335,-0.000191,0.001335,-0.045205
1.530381,0.047112,0.016594,-0.001335,-0.000191,0.001335,-0.045205
1.540493,0.047112,0.016594,-0.001335,-0.000191,0.001335,-0.045205
1.550580,0.047112,0.016594,-0.001335,-0.000191,0.001335,-0.045205
1.560746,0.047112,0.016594,-0.001335,-0.000191,0.001335,-0.045205
1.570895,0.047112,0.016594,-0.001335,-0.000191,0.001335,-0.045205
1.581009,0.047112,0.016594,-0.001335,-0.000191,0.001335,-0.045205
1.591123,0.047112,0.016594,-0.001335,-0.000191,0.001335,-0.045205
1.601238,0.047112,0.016594,-0.001335,-0.000191,0.001335,-0.045205
1.611351,0.047112,0.016594,-0.001335,-0.000191,0.001717,-0.045205
1.621465,0.047112,0.016594,-0.001335,-0.000191,0.001717,-0.045205
1.631579,0.047112,0.016594,-0.001335,-0.000191,0.001717,-0.045205
1.641690,0.047112,0.016594,-0.001335,-0.000191,0.001717,-0.045205
1.651807,0.047112,0.016594,-0.001335,-0.000191,0.001717,-0.045205
1.661917,0.047112,0.016594,-0.001335,-0.000191,0.001717,-0.045205
1.672034,0.047112,0.016594,-0.001335,-0.000191,0.001717,-0.045205
1.682157,0.047112,0.016594,-0.001335,-0.000191,0.001717,-0.045205
1.692271,0.047112,0.016594,-0.001335,-0.000191,0.001717,-0.045205
1.702388,0.047112,0.016594,-0.001335,-0.000191,0.001717,-0.045205
1.712497,0.047112,0.016594,-0.001335,-0.000191,0.001717,-0.045205
1.722610,0.047112,0.016594,-0.001335,-0.000191,0.001717,-0.045205
1.732723,0.047112,0.016594,-0.001335,-0.000191,0.001335,-0.045205
1.742833,0.047112,0.016594,-0.001335,-0.000191,0.001335,-0.045205
1.752943,0.047112,0.016594,-0.001335,-0.000191,0.001335,-0.045205
1.763055,0.047112,0.016594,-0.001335,-0.000191,0.001335,-0.045205
1.773164,0.047112,0.016594,-0.001335,-0.000191,0.001335,-0.045205
1.783285,0.047112,0.016594,-0.001335,-0.000191,0.001335,-0.045205
1.793371,0.047112,0.016594,-0.001335,-0.000191,0.001335,-0.045205
1.803719,0.047112,0.016594,-0.001335,-0.000191,0.001335,-0.045205
1.813798,0.047112,0.016594,-0.001335,-0.000191,0.001335,-0.045205
1.823909,0.047112,0.016594,-0.001335,-0.000191,0.001335,-0.045205
1.833979,0.047112,0.016594,-0.001335,-0.000191,0.001335,-0.045205
1.844045,0.047112,0.016594,-0.001335,-0.000191,0.001335,-0.045205
1.854128,0.047112,0.016594,-0.001335,-0.000191,0.001335,-0.045205
1.864194,0.047112,0.016594,-0.001335,-0.000191,0.001335,-0.045205
1.874306,0.047112,0.016594,-0.001335,-0.000191,0.001335,-0.045205
1.884420,0.047112,0.016594,-0.001335,-0.000191,0.001335,-0.045205
1.894484,0.047112,0.016594,-0.001335,-0.000191,0.001335,-0.045205
1.904549,0.047112,0.016594,-0.001335,-0.000191,0.001335,-0.045205
1.914608,0.047112,0.016594,-0.001335,-0.000191,0.001335,-0.045205
1.924669,0.047112,0.016594,-0.001335,-0.000191,0.001335,-0.045205
1.934737,0.047112,0.016594,-0.001335,-0.000191,0.001335,-0.045205
1.944843,0.047112,0.016594,-0.001335,-0.000191,0.001335,-0.045205
1.954906,0.047112,0.016594,-0.001335,-0.000191,0.001335,-0.045205
1.964980,0.047112,0.016594,-0.001335,-0.000191,0.001335,-0.045205
1.975043,0.047112,0.016594,-0.001335,-0.000191,0.001335,-0.045205
1.985108,0.047112,0.016594,-0.001335,-0.000191,0.001335,-0.045205
1.995173,0.047112,0.016594,-0.001335,-0.000191,0.001335,-0.045205
2.005256,0.047112,0.016594,-0.001335,-0.000191,0.001335,-0.045205
2.015338,0.047112,0.016594,-0.001335,-0.000191,0.001335,-0.045205
2.025418,0.047112,0.016594,-0.001335,-0.000191,0.001335,-0.045205
2.035531,0.047112,0.016594,-0.001335,-0.000191,0.001335,-0.045205
2.045643,0.047112,0.016594,-0.001335,-0.000191,0.001335,-0.045205
2.055756,0.047112,0.016594,-0.001335,-0.000191,0.001335,-0.045205
2.065870,0.047112,0.016594,-0.001335,-0.000191,0.001335,-0.045205
2.075981,0.047112,0.016594,-0.001335,-0.000191,0.001335,-0.045205
2.086102,0.047112,0.016594,-0.001335,-0.000191,0.001335,-0.045205
2.096219,0.047112,0.016594,-0.001335,-0.000191,0.001335,-0.045205
2.106330,0.047112,0.016594,-0.001335,-0.000191,0.001335,-0.045205
2.116444,0.047112,0.016594,-0.001335,-0.000191,0.001335,-0.045205
2.126527,0.047112,0.016594,-0.001335,-0.000191,0.001335,-0.045205
2.136592,0.047112,0.016594,-0.001335,-0.000191,0.001335,-0.045205
2.146654,0.047112,0.016594,-0.001335,-0.000191,0.001335,-0.045205
2.156714,0.047112,0.016594,-0.001335,-0.000191,0.001335,-0.045205
2.166777,0.047112,0.016594,-0.001335,-0.000191,0.001335,-0.045205
2.176846,0.047112,0.016594,-0.001335,-0.000191,0.001335,-0.045205
2.186914,0.047112,0.016594,-0.001335,-0.000191,0.001335,-0.045205
2.196990,0.047112,0.016594,-0.001335,-0.000191,0.001717,-0.045205
2.207110,0.047112,0.016594,-0.001335,-0.000191,0.001717,-0.045205
2.217171,0.047112,0.016594,-0.001335,-0.000191,0.001717,-0.045205
2.227238,0.047112,0.016594,-0.001335,-0.000191,0.001717,-0.045205
2.237301,0.047112,0.016594,-0.001335,-0.000191,0.001717,-0.045205
2.247367,0.047112,0.016594,-0.001335,-0.000191,0.001717,-0.045205
2.257438,0.047112,0.016594,-0.001335,-0.000191,0.001717,-0.045205
2.267519,0.047112,0.016594,-0.001335,-0.000191,0.001717,-0.045205
2.277590,0.047112,0.016594,-0.001335,-0.000191,0.001717,-0.045205
2.287660,0.047112,0.016594,-0.001335,-0.000191,0.001717,-0.045205
2.297729,0.047112,0.016594,-0.001335,-0.000191,0.001717,-0.045205
2.307843,0.047112,0.016594,-0.001335,-0.000191,0.001717,-0.045205
2.317909,0.047112,0.016594,-0.001335,-0.000191,0.001335,-0.045205
2.328023,0.047112,0.016594,-0.001335,-0.000191,0.001335,-0.045205
2.338146,0.047112,0.016594,-0.001335,-0.000191,0.001335,-0.045205
2.348217,0.047112,0.016594,-0.001335,-0.000191,0.001335,-0.045205
2.358327,0.047112,0.016594,-0.001335,-0.000191,0.001335,-0.045205
2.368402,0.047112,0.016594,-0.001335,-0.000191,0.001335,-0.045205
2.378467,0.047112,0.016594,-0.001335,-0.000191,0.001335,-0.045205
2.388576,0.047112,0.016594,-0.001335,-0.000191,0.001335,-0.045205
2.398687,0.047112,0.016594,-0.001335,-0.000191,0.001335,-0.045205
2.408796,0.047112,0.016594,-0.001335,-0.000191,0.001335,-0.045205
2.418916,0.047112,0.016594,-0.001335,-0.000191,0.001335,-0.045205
2.428986,0.047112,0.016594,-0.001335,-0.000191,0.001335,-0.045205
2.439061,0.047112,0.016594,-0.001335,-0.000191,0.001335,-0.045205
2.449091,0.047112,0.016594,-0.001335,-0.000191,0.001335,-0.045205
2.459171,0.047112,0.016594,-0.001335,-0.000191,0.001335,-0.045205
2.469258,0.047112,0.016594,-0.001335,-0.000191,0.001335,-0.045205
2.479325,0.047112,0.016594,-0.001335,-0.000191,0.001335,-0.045205
2.489434,0.047112,0.016594,-0.001335,-0.000191,0.001335,-0.045205
2.499536,0.047112,0.016594,-0.001335,-0.000191,0.001335,-0.045205
2.509647,0.047112,0.016594,-0.001335,-0.000191,0.001335,-0.045205
2.519771,0.047112,0.016594,-0.001335,-0.000191,0.001335,-0.045205
2.529862,0.047112,0.016594,-0.001335,-0.000191,0.001335,-0.045205
2.540200,0.047112,0.016594,-0.001335,-0.000191,0.001335,-0.045205
2.550287,0.047112,0.016594,-0.001335,-0.000191,0.001335,-0.045205
2.560378,0.047112,0.016594,-0.001335,-0.000191,0.001335,-0.045205
2.570453,0.047112,0.016594,-0.001335,-0.000191,0.001335,-0.045205
2.580517,0.047112,0.016594,-0.001335,-0.000191,0.001335,-0.045205
2.590580,0.047112,0.016594,-0.001335,-0.000191,0.001335,-0.045205
2.600647,0.047112,0.016594,-0.001335,-0.000191,0.001335,-0.045205
2.610758,0.047112,0.016594,-0.001335,-0.000191,0.001335,-0.045205
2.620876,0.047112,0.016594,-0.001335,-0.000191,0.001335,-0.045205
2.630962,0.047112,0.016594,-0.001335,-0.000191,0.001335,-0.045205
2.641091,0.047112,0.016594,-0.001335,-0.000191,0.001335,-0.045205
2.651203,0.047112,0.016594,-0.001335,-0.000191,0.001335,-0.045205
2.661288,0.047112,0.016594,-0.001335,-0.000191,0.001335,-0.045205
2.671350,0.047112,0.016594,-0.001335,-0.000191,0.001335,-0.045205
2.681415,0.047112,0.016594,-0.001335,-0.000191,0.001335,-0.045205
2.691478,0.047112,0.016594,-0.001335,-0.000191,0.001335,-0.045205
2.701590,0.047112,0.016594,-0.001335,-0.000191,0.001335,-0.045205
2.711658,0.047112,0.016594,-0.001335,-0.000191,0.001335,-0.045205
2.721770,0.047112,0.016594,-0.001335,-0.000191,0.001335,-0.045205
2.731848,0.047112,0.016594,-0.001335,-0.000191,0.001335,-0.045205
2.741966,0.047112,0.016594,-0.001335,-0.000191,0.001335,-0.045205
2.752033,0.047112,0.016594,-0.001335,-0.000191,0.001335,-0.045205
2.762393,0.047112,0.016594,-0.001335,-0.000191,0.001335,-0.045205
2.772507,0.047112,0.016594,-0.001335,-0.000191,0.001335,-0.045205
2.782684,0.047112,0.016594,-0.001335,-0.000191,0.001335,-0.045205
2.792801,0.047112,0.016594,-0.001335,-0.000191,0.001335,-0.045205
2.802915,0.047112,0.016594,-0.001335,-0.000191,0.001335,-0.045205
2.813026,0.047112,0.016594,-0.001335,-0.000191,0.001335,-0.045205
2.823142,0.047112,0.016594,-0.001335,-0.000191,0.001335,-0.045205
2.833252,0.047112,0.016594,-0.001335,-0.000191,0.001335,-0.045205
2.843368,0.047112,0.016594,-0.001335,-0.000191,0.001717,-0.045205
2.853483,0.047112,0.016594,-0.001335,-0.000191,0.001717,-0.045205
2.863569,0.047112,0.016594,-0.001335,-0.000191,0.001717,-0.045205
2.873680,0.047112,0.016594,-0.001335,-0.000191,0.001717,-0.045205
2.883771,0.047112,0.016594,-0.001335,-0.000191,0.001717,-0.045205
2.893884,0.047112,0.016594,-0.001335,-0.000191,0.001717,-0.045205
2.904000,0.047112,0.016594,-0.001335,-0.000191,0.001717,-0.045205
2.914115,0.047112,0.016594,-0.001335,-0.000191,0.001717,-0.045205
2.924229,0.047112,0.016594,-0.001335,-0.000191,0.001717,-0.045205
2.934348,0.047112,0.016594,-0.001335,-0.000191,0.001717,-0.045205
2.944461,0.047112,0.016594,-0.001335,-0.000191,0.001717,-0.045205
2.954583,0.047112,0.016594,-0.001335,-0.000191,0.001717,-0.045205
2.964757,0.047112,0.016594,-0.001335,-0.000191,0.001717,-0.045205
2.974869,0.047112,0.016594,-0.001335,-0.000191,0.001717,-0.045205
2.984985,0.047112,0.016594,-0.001335,-0.000191,0.001717,-0.045205
2.995161,0.047112,0.016594,-0.001335,-0.000191,0.001717,-0.045205
3.005227,0.047112,0.016594,-0.001335,-0.000191,0.001717,-0.045205
3.015296,0.047112,0.016594,-0.001335,-0.000191,0.001717,-0.045205
3.025402,0.047112,0.016594,-0.001335,-0.000191,0.001717,-0.045205
3.035516,0.047112,0.016594,-0.001335,-0.000572,0.001335,-0.045205
3.045599,0.047112,0.016594,-0.001335,-0.000572,0.001335,-0.044824
3.055719,0.047112,0.016594,-0.001335,-0.000572,0.001335,-0.044442
3.065891,0.047112,0.016594,-0.001335,-0.000572,0.001335,-0.044061
3.076007,0.047112,0.016594,-0.001335,-0.000572,0.001335,-0.043298
3.086102,0.047112,0.016594,-0.001335,-0.000572,0.001335,-0.042916
3.096179,0.047112,0.016594,-0.001335,-0.000572,0.001335,-0.042916
3.106290,0.047112,0.016594,-0.001335,-0.000572,0.001335,-0.042916
3.116407,0.047112,0.016594,-0.001335,-0.000572,0.001335,-0.043298
3.126516,0.047112,0.016594,-0.001335,-0.000572,0.001335,-0.043298
3.136628,0.047112,0.016594,-0.001335,-0.000572,0.001335,-0.043298
3.146698,0.047112,0.016594,-0.001335,-0.000572,0.001335,-0.043298
3.156765,0.047112,0.016594,-0.001335,-0.000572,0.001335,-0.043298
3.166841,0.047112,0.016594,-0.001335,-0.000572,0.001335,-0.043298
3.176951,0.047112,0.016594,-0.001335,-0.000572,0.001335,-0.043298
3.187064,0.047112,0.016594,-0.001335,-0.000572,0.001335,-0.043298
3.197151,0.047112,0.016594,-0.001335,-0.000572,0.001335,-0.043298
3.207235,0.047112,0.016594,-0.001335,-0.000572,0.001335,-0.043298
3.217343,0.047112,0.016594,-0.001335,-0.000572,0.001717,-0.043298
3.227452,0.047112,0.016594,-0.001335,-0.000572,0.001717,-0.043298
3.237563,0.047112,0.016594,-0.001335,-0.000572,0.001717,-0.043298
3.247654,0.047112,0.016594,-0.001335,-0.000572,0.001717,-0.043298
3.257764,0.047112,0.016594,-0.001335,-0.000572,0.001717,-0.043298
3.267849,0.047112,0.016594,-0.001335,-0.000572,0.001717,-0.043298
3.278022,0.047112,0.016594,-0.001335,-0.000572,0.001717,-0.043298
3.288090,0.047112,0.016594,-0.001335,-0.000572,0.001717,-0.043298
3.298207,0.047112,0.016594,-0.001335,-0.000572,0.001717,-0.043298
3.308316,0.047112,0.016594,-0.001335,-0.000572,0.001717,-0.043298
3.318431,0.047112,0.016594,-0.001335,-0.000572,0.001717,-0.043298
3.328552,0.047112,0.016594,-0.001335,-0.000572,0.001717,-0.043298
3.338680,0.047112,0.016594,-0.001335,-0.000572,0.001717,-0.043298
3.348795,0.047112,0.016594,-0.001335,-0.000572,0.001717,-0.043298
3.358931,0.047112,0.016594,-0.001335,-0.000572,0.001717,-0.043298
3.369019,0.047112,0.016594,-0.001335,-0.000572,0.001717,-0.043298
3.379132,0.047112,0.016594,-0.001335,-0.000572,0.001717,-0.043298
3.389244,0.047112,0.016594,-0.001335,-0.000572,0.001717,-0.043298
3.399360,0.047112,0.016594,-0.001335,-0.000572,0.001717,-0.043298
3.409471,0.047112,0.016594,-0.001335,-0.000572,0.001717,-0.043298
3.419585,0.047112,0.016594,-0.001335,-0.000572,0.001717,-0.043298
3.429682,0.047112,0.016594,-0.001335,-0.000572,0.001717,-0.043298
3.439797,0.047112,0.016594,-0.001335,-0.000572,0.001717,-0.043298
3.449971,0.047112,0.016594,-0.001335,-0.000572,0.001717,-0.043298
3.460096,0.047112,0.016594,-0.001335,-0.000572,0.001717,-0.043298
3.470209,0.047112,0.016594,-0.001335,-0.000572,0.001717,-0.043298
3.480296,0.047112,0.016594,-0.001335,-0.000191,0.001717,-0.043298
3.490387,0.047112,0.016594,-0.001335,-0.000191,0.001717,-0.043298
3.500462,0.047112,0.016594,-0.001335,-0.000191,0.001717,-0.043298
3.510540,0.047112,0.016594,-0.001335,-0.000191,0.001717,-0.043298
3.520655,0.047112,0.016594,-0.001335,-0.000191,0.001717,-0.043298
3.530785,0.047112,0.016594,-0.001335,-0.000191,0.001717,-0.043298
3.540896,0.047112,0.016594,-0.001335,-0.000191,0.001717,-0.043298
3.551010,0.047112,0.016594,-0.001335,-0.000191,0.001717,-0.043298
3.561207,0.047112,0.016594,-0.001335,-0.000191,0.001717,-0.043298
3.571320,0.047112,0.016594,-0.001335,-0.000191,0.001717,-0.043298
3.581410,0.047112,0.016594,-0.001335,-0.000191,0.001717,-0.043298
3.591519,0.047112,0.016594,-0.001335,-0.000191,0.001717,-0.043298
3.602030,0.047112,0.016594,-0.001335,-0.000191,0.001717,-0.043298
3.612132,0.047112,0.016594,-0.001335,-0.000191,0.001717,-0.043298
3.622200,0.047112,0.016594,-0.001335,-0.000191,0.001717,-0.043298
3.632315,0.047112,0.016594,-0.001335,-0.000191,0.001717,-0.043298
3.642800,0.047112,0.016594,-0.001335,-0.000191,0.001717,-0.043298
3.652880,0.047112,0.016594,-0.001335,-0.000572,0.001717,-0.043298
3.662965,0.047112,0.016594,-0.001335,-0.000572,0.001717,-0.043298
3.673044,0.047112,0.016594,-0.001335,-0.000572,0.001717,-0.043298
3.683083,0.047112,0.016594,-0.001335,-0.000572,0.001717,-0.042916
3.693196,0.047112,0.016594,-0.001335,-0.000572,0.001717,-0.042916
3.703310,0.047112,0.016594,-0.001335,-0.000954,0.001717,-0.042153
3.713377,0.047112,0.016594,-0.001335,-0.000954,0.001717,-0.041772
3.723439,0.047112,0.016594,-0.001335,-0.000954,0.001717,-0.039865
3.733500,0.047112,0.016594,-0.001335,-0.000954,0.001717,-0.038720
3.743562,0.047112,0.016594,-0.001335,-0.000954,0.001717,-0.036813
3.753630,0.047112,0.016594,-0.001335,-0.000954,0.001717,-0.036050
3.763696,0.047112,0.016594,-0.001335,-0.000954,0.001717,-0.035287
3.773756,0.047112,0.016594,-0.001335,-0.000954,0.001717,-0.034905
3.783824,0.047112,0.016594,-0.001335,-0.000954,0.001717,-0.034142
3.793884,0.047112,0.016594,-0.001335,-0.000954,0.001717,-0.033761
3.803946,0.047112,0.016594,-0.001335,-0.000954,0.001717,-0.033380
3.814012,0.047112,0.016594,-0.001335,-0.000954,0.001717,-0.032998
3.824078,0.047112,0.016594,-0.001335,-0.000954,0.001717,-0.031854
3.834414,0.047112,0.016594,-0.001335,-0.000954,0.001717,-0.031472
3.844753,0.047112,0.016594,-0.001335,-0.000954,0.001717,-0.030708
3.854822,0.047112,0.016594,-0.001335,-0.000954,0.001717,-0.030327
3.864949,0.047112,0.016594,-0.001335,-0.000954,0.001717,-0.029945
3.875044,0.047112,0.016594,-0.001335,-0.000954,0.001717,-0.029945
3.885159,0.047112,0.016594,-0.001335,-0.000954,0.001717,-0.029945
3.895240,0.047112,0.016594,-0.001335,-0.000954,0.001717,-0.029945
3.905319,0.047112,0.016594,-0.001335,-0.000954,0.001717,-0.029945
3.915387,0.047112,0.016594,-0.001335,-0.000954,0.001717,-0.029945
3.925465,0.047112,0.016594,-0.001335,-0.000954,0.001717,-0.029945
3.935549,0.047112,0.016594,-0.001335,-0.000954,0.001717,-0.029945
3.945672,0.047112,0.016594,-0.001335,-0.000954,0.001717,-0.029945
3.955786,0.047112,0.016594,-0.001335,-0.000954,0.001717,-0.029945
3.965903,0.047112,0.016594,-0.001335,-0.000954,0.001717,-0.029945
3.975974,0.047112,0.016594,-0.001335,-0.000954,0.001717,-0.029945
3.986038,0.047112,0.016594,-0.001335,-0.000954,0.001717,-0.029945
3.996124,0.047112,0.016594,-0.001335,-0.000954,0.001717,-0.029945
4.006243,0.047112,0.016594,-0.001335,-0.000954,0.001717,-0.029945
4.016306,0.047112,0.016594,-0.001335,-0.000954,0.001717,-0.029945
4.026374,0.047112,0.016594,-0.001335,-0.000954,0.001717,-0.029945
4.036456,0.047112,0.016594,-0.001335,-0.000954,0.001717,-0.029945
4.046564,0.047112,0.016594,-0.001335,-0.000954,0.001717,-0.029945
4.056682,0.047112,0.016594,-0.001335,-0.000954,0.001717,-0.029945
4.066770,0.047112,0.016594,-0.001335,-0.000954,0.001717,-0.029945
4.076883,0.047112,0.016594,-0.001335,-0.000954,0.001717,-0.029945
4.086955,0.047112,0.016594,-0.001335,-0.000954,0.001717,-0.029945
4.097032,0.047112,0.016594,-0.001335,-0.000954,0.001717,-0.029945
4.107082,0.047112,0.016594,-0.001335,-0.000954,0.001717,-0.029945
4.117200,0.047112,0.016594,-0.001335,-0.000954,0.001717,-0.029945
4.127315,0.047112,0.016594,-0.001335,-0.000954,0.001717,-0.029945
4.137428,0.047112,0.016594,-0.001335,-0.000954,0.001717,-0.029945
4.147547,0.047112,0.016594,-0.001335,-0.000954,0.001717,-0.029945
4.157661,0.047112,0.016594,-0.001335,-0.000954,0.001717,-0.029945
4.167749,0.047112,0.016594,-0.001335,-0.000954,0.001717,-0.029945
4.177859,0.047112,0.016594,-0.001335,-0.000954,0.001717,-0.030327
4.187970,0.047112,0.016594,-0.001335,-0.000954,0.001717,-0.030327
4.198038,0.047112,0.016594,-0.001335,-0.000954,0.001717,-0.030327
4.208127,0.047112,0.016594,-0.001335,-0.000572,0.001717,-0.030327
4.218191,0.047112,0.016594,-0.001335,-0.000572,0.001717,-0.030327
4.228259,0.047112,0.016594,-0.001335,-0.000572,0.001717,-0.030708
4.238333,0.047112,0.016594,-0.001335,-0.000572,0.001717,-0.031090
4.248397,0.047112,0.016594,-0.001335,-0.000572,0.001717,-0.032235
4.258464,0.047112,0.016594,-0.001335,-0.000572,0.001717,-0.032998
4.268529,0.047112,0.016594,-0.001335,-0.000572,0.001717,-0.033761
4.278640,0.047112,0.016594,-0.001335,-0.000572,0.001717,-0.034524
4.288729,0.047112,0.016594,-0.001335,-0.000572,0.001717,-0.035668
4.298840,0.047112,0.016594,-0.001335,-0.000572,0.001717,-0.036431
4.308904,0.047112,0.016594,-0.001335,-0.000572,0.001717,-0.037576
4.318965,0.047112,0.016594,-0.001335,-0.000572,0.001717,-0.037957
4.329025,0.047112,0.016594,-0.001335,-0.000572,0.001717,-0.039102
4.339099,0.047112,0.016594,-0.001335,-0.000572,0.001717,-0.039102
4.349214,0.047112,0.016594,-0.001335,-0.000572,0.001717,-0.039483
4.359286,0.047112,0.016594,-0.001335,-0.000572,0.001717,-0.039483
4.369348,0.047112,0.016594,-0.001335,-0.000572,0.001717,-0.039483
4.379421,0.047112,0.016594,-0.001335,-0.000572,0.001717,-0.039483
4.389532,0.047112,0.016594,-0.001335,-0.000572,0.001717,-0.039483
4.399648,0.047112,0.016594,-0.001335,-0.000572,0.001717,-0.039865
4.409759,0.047112,0.016594,-0.001335,-0.000572,0.001717,-0.039865
4.419854,0.047112,0.016594,-0.001335,-0.000572,0.001717,-0.039865
4.429896,0.047112,0.016594,-0.001335,-0.000572,0.001717,-0.040627
4.439964,0.047112,0.016594,-0.001335,-0.000572,0.001717,-0.041390
4.450032,0.047112,0.016594,-0.001335,-0.000572,0.001717,-0.041772
4.460146,0.047112,0.016594,-0.001335,-0.000572,0.001717,-0.042153
4.470258,0.047112,0.016594,-0.001335,-0.000572,0.001717,-0.042535
4.480335,0.047112,0.016594,-0.001335,-0.000572,0.001717,-0.043679
4.490400,0.047112,0.016594,-0.001335,-0.000572,0.001717,-0.043679
4.500473,0.047112,0.016594,-0.001335,-0.000572,0.001717,-0.043679
4.510542,0.047112,0.016594,-0.001335,-0.000572,0.001717,-0.043679
4.520609,0.047112,0.016594,-0.001335,-0.000572,0.001717,-0.043679
4.530686,0.047112,0.016594,-0.001335,-0.000572,0.001717,-0.043679
4.540802,0.047112,0.016594,-0.001335,-0.000572,0.001717,-0.043679
4.550874,0.047112,0.016594,-0.001335,-0.000572,0.001717,-0.043679
4.560984,0.047112,0.016594,-0.001335,-0.000572,0.001717,-0.043679
4.571102,0.047112,0.016594,-0.001335,-0.000572,0.001717,-0.043679
4.581188,0.047112,0.016594,-0.001335,-0.000572,0.001717,-0.043679
4.591251,0.047112,0.016594,-0.001335,-0.000572,0.001717,-0.043679
4.601322,0.047112,0.016594,-0.001335,-0.000572,0.001717,-0.043679
4.611466,0.047112,0.016594,-0.001335,-0.000572,0.001717,-0.043298
4.621581,0.047112,0.016594,-0.001335,-0.000572,0.001717,-0.043298
4.631670,0.047112,0.016594,-0.001335,-0.000572,0.001717,-0.043298
4.641783,0.047112,0.016594,-0.001335,-0.000572,0.001717,-0.043298
4.651897,0.047112,0.016594,-0.001335,-0.000572,0.001717,-0.043298
4.662245,0.047112,0.016594,-0.001335,-0.000572,0.001335,-0.043298
4.672361,0.047112,0.016594,-0.001335,-0.000572,0.001335,-0.043298
4.682449,0.047112,0.016594,-0.001335,-0.000572,0.001335,-0.043298
4.692563,0.047112,0.016594,-0.001335,-0.000572,0.000954,-0.043298
4.702686,0.047112,0.016594,-0.001335,-0.000572,0.000572,-0.043298
4.712799,0.047112,0.016594,-0.001335,-0.000572,0.000572,-0.043298
4.722934,0.047112,0.016594,-0.001335,-0.000572,0.000572,-0.043298
4.733006,0.047112,0.016594,-0.001335,-0.000572,0.000572,-0.043298
4.743348,0.047112,0.016594,-0.001335,-0.000572,0.000572,-0.043298
4.753439,0.047112,0.016594,-0.001335,-0.000572,0.000572,-0.043298
4.763616,0.047112,0.016594,-0.001335,-0.000572,0.000572,-0.043298
4.773730,0.047112,0.016594,-0.001335,-0.000572,0.000572,-0.043298
4.783842,0.047112,0.016594,-0.001335,-0.000572,0.000572,-0.043298
4.794176,0.047112,0.016594,-0.001335,-0.000572,0.000572,-0.043298
4.804247,0.047112,0.016594,-0.001335,-0.000572,0.000572,-0.043298
4.814307,0.047112,0.016594,-0.001335,-0.000572,0.000572,-0.043298
4.824373,0.047112,0.016594,-0.001335,-0.000572,0.000572,-0.043298
4.834441,0.047112,0.016594,-0.001335,-0.000572,0.000572,-0.043298
4.844552,0.047112,0.016594,-0.001335,-0.000572,0.000572,-0.043298
4.854667,0.047112,0.016594,-0.001335,-0.000572,0.000572,-0.043298
4.864777,0.047112,0.016594,-0.001335,-0.000572,0.000572,-0.043298
4.874891,0.047112,0.016594,-0.001335,-0.000572,0.000572,-0.043298
4.885005,0.047112,0.016594,-0.001335,-0.000572,0.000572,-0.043298
4.895128,0.047112,0.016594,-0.001335,-0.000572,0.000572,-0.043298
4.905243,0.047112,0.016594,-0.001335,-0.000572,0.000572,-0.043298
4.915334,0.047112,0.016594,-0.001335,-0.000572,0.000572,-0.043298
4.925405,0.047112,0.016594,-0.001335,-0.000572,0.000572,-0.043298
4.935466,0.047112,0.016594,-0.001335,-0.000572,0.000572,-0.043298
4.945536,0.047112,0.016594,-0.001335,-0.000572,0.000572,-0.043298
4.955639,0.047112,0.016594,-0.001335,-0.000572,0.000572,-0.043298
4.965751,0.047112,0.016594,-0.001335,-0.000572,0.000572,-0.043298
4.975863,0.047112,0.016594,-0.001335,-0.000572,0.000572,-0.043298
4.985979,0.047112,0.016594,-0.001335,-0.000572,0.000572,-0.043298
4.996113,0.047112,0.016594,-0.001335,-0.000572,0.000954,-0.043298
5.006232,0.047112,0.016594,-0.001335,-0.000572,0.000954,-0.043298
5.016347,0.047112,0.016594,-0.001335,-0.000572,0.001335,-0.043298
5.026461,0.047112,0.016594,-0.001335,-0.000572,0.001335,-0.043298
5.036572,0.047112,0.016594,-0.001335,-0.000572,0.001717,-0.043298
5.046682,0.047112,0.016594,-0.001335,-0.000572,0.001717,-0.043298
5.056761,0.047112,0.016594,-0.001335,-0.000572,0.001335,-0.043298
5.066848,0.047112,0.016594,-0.001335,-0.000572,0.000954,-0.043298
5.076960,0.047112,0.016594,-0.001335,-0.000572,0.000572,-0.043298
5.087046,0.047112,0.016594,-0.001335,-0.000572,0.000191,-0.043298
5.097130,0.047112,0.016594,-0.001335,-0.001335,-0.000572,-0.043298
5.107245,0.047112,0.016594,-0.001335,-0.001335,-0.000572,-0.043298
5.117310,0.047112,0.016594,-0.001335,-0.001335,-0.000572,-0.043298
5.127374,0.047112,0.016594,-0.001335,-0.001335,-0.000572,-0.043298
5.137438,0.047112,0.016594,-0.001335,-0.001335,-0.000572,-0.043298
5.147515,0.047112,0.016594,-0.001335,-0.001335,-0.000191,-0.043298
5.157596,0.047112,0.016594,-0.001335,-0.001335,-0.000191,-0.043298
5.167708,0.047112,0.016594,-0.001335,-0.001335,-0.000191,-0.043298
5.177821,0.047112,0.016594,-0.001335,-0.001335,-0.000191,-0.043298
5.187934,0.047112,0.016594,-0.001335,-0.001335,0.000191,-0.043298
5.198049,0.047112,0.016594,-0.001335,-0.001335,0.000191,-0.043298
5.208171,0.047112,0.016594,-0.001335,-0.001335,0.000572,-0.043298
5.218286,0.047112,0.016594,-0.001335,-0.001335,0.000954,-0.043298
5.228399,0.047112,0.016594,-0.001335,-0.001335,0.000954,-0.043298
5.238512,0.047112,0.016594,-0.001335,-0.001335,0.000954,-0.043298
5.248613,0.047112,0.016594,-0.001335,-0.001335,0.000954,-0.043298
5.258677,0.047112,0.016594,-0.001335,-0.001335,0.000954,-0.043298
5.268744,0.047112,0.016594,-0.001335,-0.001335,0.000954,-0.043298
5.278842,0.047112,0.016594,-0.001335,-0.001335,0.000572,-0.043298
5.288961,0.047112,0.016594,-0.001335,-0.001335,0.000572,-0.043298
5.299042,0.047112,0.016594,-0.001335,-0.001335,0.000572,-0.043298
5.309112,0.047112,0.016594,-0.001335,-0.001335,0.000572,-0.043298
5.319177,0.047112,0.016594,-0.001335,-0.001335,0.000572,-0.043298
5.329245,0.047112,0.016594,-0.001335,-0.001335,0.000572,-0.043298
5.339312,0.047112,0.016594,-0.001335,-0.001335,0.000572,-0.043298
5.349395,0.047112,0.016594,-0.001335,-0.001335,0.000572,-0.043298
5.359467,0.047112,0.016594,-0.001335,-0.001335,0.000572,-0.043298
5.369535,0.047112,0.016594,-0.001335,-0.001717,0.000572,-0.043298
5.379607,0.047112,0.016594,-0.001335,-0.001717,0.000572,-0.043298
5.389672,0.047112,0.016594,-0.001335,-0.002098,0.000572,-0.043298
5.399741,0.047112,0.016594,-0.001335,-0.001717,0.000572,-0.043298
5.409809,0.047112,0.016594,-0.001335,-0.001717,0.000572,-0.043298
5.419877,0.047112,0.015831,-0.001335,-0.001335,0.000572,-0.043298
5.429947,0.047112,0.015450,-0.002098,-0.000954,0.000572,-0.043298
5.440018,0.047112,0.015068,-0.002480,-0.001335,0.000572,-0.043298
5.450086,0.047112,0.014305,-0.003242,-0.001335,0.000572,-0.043298
5.460197,0.047112,0.013161,-0.003624,-0.000954,0.000572,-0.043298
5.470370,0.047112,0.012779,-0.005150,-0.000954,0.000572,-0.043298
5.480490,0.047112,0.011253,-0.005913,-0.000954,0.000572,-0.043298
5.490558,0.047112,0.010490,-0.007820,-0.000954,0.000572,-0.043298
5.500624,0.047112,0.008965,-0.008583,-0.000954,0.000572,-0.043298
5.510735,0.047112,0.007820,-0.010490,-0.000954,0.000954,-0.043298
5.520847,0.047112,0.005913,-0.011635,-0.000954,0.000954,-0.043298
5.530960,0.047112,0.004768,-0.013924,-0.000954,0.000954,-0.043298
5.541099,0.047112,0.004005,-0.015068,-0.000954,0.001335,-0.043298
5.551166,0.047112,0.001717,-0.017738,-0.000954,0.002098,-0.043298
5.561277,0.047112,0.000572,-0.019264,-0.000954,0.002861,-0.043298
5.571388,0.047112,-0.001717,-0.021935,-0.000954,0.003242,-0.043298
5.581500,0.047112,-0.002861,-0.023079,-0.000954,0.003624,-0.043298
5.591614,0.047112,-0.005913,-0.025749,-0.000954,0.004005,-0.043679
5.601718,0.047112,-0.007439,-0.027275,-0.000954,0.004387,-0.043679
5.611832,0.047112,-0.010109,-0.029945,-0.000954,0.004768,-0.043679
5.621945,0.047112,-0.012016,-0.031090,-0.000572,0.004768,-0.043679
5.632060,0.047112,-0.015068,-0.034142,-0.000191,0.004768,-0.043679
5.642172,0.047112,-0.016594,-0.035668,-0.000191,0.004768,-0.044061
5.652283,0.047112,-0.020409,-0.038339,-0.000191,0.004768,-0.044442
5.662422,0.047112,-0.022316,-0.040246,-0.000191,0.004768,-0.044442
5.672538,0.047112,-0.026894,-0.042916,-0.000191,0.004387,-0.044442
5.682658,0.047112,-0.029564,-0.044442,-0.000191,0.004387,-0.044442
5.692777,0.047112,-0.034524,-0.047494,-0.000191,0.004387,-0.044442
5.702890,0.047112,-0.037194,-0.049020,-0.000191,0.004387,-0.044442
5.713004,0.047112,-0.042916,-0.052453,-0.000191,0.004387,-0.044442
5.723119,0.047112,-0.045968,-0.054360,-0.000191,0.004387,-0.044442
5.733276,0.047112,-0.052072,-0.058557,-0.000191,0.004387,-0.044442
5.743391,0.047112,-0.055123,-0.060464,-0.000191,0.004005,-0.044442
5.753466,0.047112,-0.061608,-0.065042,-0.000191,0.004005,-0.044442
5.763512,0.047112,-0.065042,-0.067712,-0.000572,0.004005,-0.044442
5.773644,0.047112,-0.071527,-0.072671,-0.000572,0.003624,-0.044442
5.783763,0.047112,-0.074578,-0.075341,-0.000572,0.003242,-0.044442
5.793876,0.047112,-0.081445,-0.081063,-0.000572,0.003242,-0.044442
5.803989,0.047112,-0.084496,-0.084115,-0.000572,0.003242,-0.044442
5.814103,0.047112,-0.091363,-0.090600,-0.000572,0.003242,-0.044442
5.824211,0.047112,-0.094416,-0.093652,-0.000572,0.003242,-0.044442
5.834325,0.047112,-0.100901,-0.100138,-0.000572,0.003242,-0.044442
5.844439,0.047112,-0.103952,-0.103571,-0.000572,0.003242,-0.044442
5.854551,0.047112,-0.110437,-0.110437,-0.000572,0.003242,-0.044442
5.864664,0.047112,-0.113871,-0.113871,-0.000572,0.003242,-0.044442
5.874779,0.047112,-0.120356,-0.120737,-0.000572,0.003242,-0.044442
5.884877,0.047112,-0.123789,-0.124170,-0.000572,0.003242,-0.044442
5.894969,0.047112,-0.128366,-0.128748,-0.000572,0.003242,-0.044442
5.905055,0.047112,-0.136377,-0.136759,-0.000572,0.003242,-0.044442
5.915100,0.047112,-0.140574,-0.140955,-0.000572,0.003242,-0.044442
5.925186,0.047112,-0.147821,-0.147821,-0.000572,0.003242,-0.044442
5.935265,0.047112,-0.151255,-0.151636,-0.000572,0.003242,-0.044442
5.945339,0.047112,-0.158885,-0.159266,-0.000572,0.003242,-0.044442
5.955426,0.047112,-0.162318,-0.162700,-0.000572,0.003242,-0.044442
5.965502,0.047112,-0.169566,-0.170329,-0.000572,0.003242,-0.044442
5.975583,0.047112,-0.173381,-0.174144,-0.000572,0.003242,-0.044442
5.985654,0.047112,-0.180629,-0.181392,-0.000572,0.003242,-0.044442
5.995731,0.047112,-0.184062,-0.185206,-0.000572,0.003242,-0.044442
6.005808,0.047112,-0.191310,-0.192836,-0.000572,0.003242,-0.044442
6.015881,0.047112,-0.195125,-0.197032,-0.000572,0.003242,-0.044442
6.025957,0.047112,-0.199321,-0.200847,-0.000954,0.003242,-0.044442
6.036031,0.047112,-0.207332,-0.208476,-0.001335,0.003242,-0.044442
6.046095,0.047112,-0.211528,-0.212291,-0.001335,0.003242,-0.044442
6.056180,0.047112,-0.219540,-0.220303,-0.001717,0.003242,-0.044442
6.066257,0.047112,-0.223354,-0.225643,-0.001717,0.003242,-0.044442
6.076373,0.047112,-0.232891,-0.234417,-0.002098,0.003242,-0.044442
6.086496,0.047112,-0.237087,-0.238995,-0.002098,0.003242,-0.044442
6.096562,0.047112,-0.246243,-0.248150,-0.002098,0.003242,-0.044442
6.106628,0.047112,-0.250820,-0.253109,-0.002098,0.003242,-0.044442
6.116707,0.047112,-0.260357,-0.263027,-0.002098,0.003242,-0.044442
6.126776,0.047112,-0.265697,-0.267986,-0.002098,0.003242,-0.044442
6.136840,0.047112,-0.275616,-0.278667,-0.002098,0.003242,-0.044442
6.146903,0.047112,-0.280956,-0.284390,-0.002098,0.003242,-0.044442
6.156971,0.047112,-0.291257,-0.295453,-0.002098,0.003242,-0.044442
6.167041,0.047112,-0.296597,-0.301175,-0.002098,0.003242,-0.044442
6.177083,0.047112,-0.307279,-0.306897,-0.002098,0.003242,-0.044442
6.187151,0.047112,-0.313001,-0.318723,-0.002098,0.003242,-0.044442
6.197219,0.047112,-0.324063,-0.324445,-0.002098,0.003242,-0.044442
6.207289,0.047112,-0.329404,-0.336652,-0.002098,0.003242,-0.044442
6.217369,0.047112,-0.341229,-0.342755,-0.002098,0.003242,-0.044442
6.227435,0.047112,-0.347334,-0.356108,-0.002098,0.003242,-0.044442
6.237508,0.047112,-0.359922,-0.362593,-0.002098,0.003242,-0.044442
6.247579,0.047112,-0.366407,-0.376326,-0.002098,0.003242,-0.044442
6.257656,0.047112,-0.380522,-0.383574,-0.002098,0.003242,-0.044442
6.267726,0.047112,-0.387770,-0.398451,-0.002098,0.003242,-0.044442
6.277790,0.047112,-0.402647,-0.406463,-0.002098,0.003242,-0.044442
6.287853,0.047112,-0.410277,-0.422484,-0.002098,0.003242,-0.044442
6.297915,0.047494,-0.426681,-0.430495,-0.002098,0.003242,-0.044442
6.307983,0.047494,-0.435073,-0.447280,-0.002098,0.003242,-0.044442
6.318050,0.047494,-0.452621,-0.465590,-0.002098,0.003242,-0.044442
6.328116,0.047494,-0.462157,-0.475128,-0.002098,0.003242,-0.044442
6.338199,0.047494,-0.481613,-0.485046,-0.002098,0.003242,-0.044442
6.348268,0.047494,-0.491913,-0.505264,-0.002098,0.003242,-0.044442
6.358349,0.047494,-0.512512,-0.515564,-0.002098,0.002861,-0.044442
6.368417,0.047494,-0.523193,-0.536927,-0.002098,0.002480,-0.044442
6.378484,0.047494,-0.544938,-0.547990,-0.002098,0.002480,-0.044442
6.388549,0.047494,-0.556382,-0.570878,-0.002098,0.002480,-0.044824
6.398621,0.047494,-0.580033,-0.582322,-0.002098,0.002480,-0.045205
6.408685,0.047494,-0.591859,-0.605974,-0.001717,0.002480,-0.045587
6.418757,0.047494,-0.615892,-0.618181,-0.001717,0.002480,-0.045587
6.428820,0.047494,-0.628099,-0.643358,-0.001717,0.002480,-0.045587
6.438895,0.047494,-0.652514,-0.655947,-0.001717,0.002480,-0.045587
6.448961,0.047494,-0.665103,-0.681506,-0.001717,0.002480,-0.045587
6.459031,0.047494,-0.677691,-0.694476,-0.001335,0.002480,-0.045968
6.469094,0.047494,-0.702487,-0.720417,-0.001335,0.002480,-0.046350
6.479206,0.047494,-0.715075,-0.733768,-0.000954,0.002480,-0.046350
6.489318,0.047494,-0.739491,-0.758945,-0.000572,0.002480,-0.046350
6.499430,0.047494,-0.763905,-0.771534,-0.000191,0.002480,-0.046350
6.509548,0.047494,-0.775730,-0.796712,0.000572,0.002480,-0.046350
6.519658,0.047494,-0.799382,-0.809300,0.000954,0.002480,-0.046350
6.529770,0.047494,-0.811208,-0.833714,0.001335,0.002480,-0.046350
6.539885,0.047494,-0.834477,-0.845541,0.002098,0.002480,-0.046350
6.549993,0.047494,-0.845541,-0.868811,0.003242,0.002480,-0.046350
6.560124,0.047494,-0.867285,-0.880255,0.003624,0.002480,-0.046350
6.570241,0.047494,-0.877966,-0.902761,0.005150,0.002480,-0.046350
6.580355,0.047494,-0.898947,-0.913825,0.005531,0.002480,-0.046350
6.590469,0.047494,-0.909247,-0.934806,0.006676,0.002480,-0.046350
6.600582,0.047494,-0.928702,-0.945106,0.007439,0.002480,-0.046350
6.610692,0.047494,-0.937858,-0.964561,0.008202,0.002480,-0.046350
6.620778,0.047494,-0.955787,-0.974098,0.008965,0.002480,-0.046350
6.630885,0.047494,-0.964561,-0.992027,0.010872,0.002480,-0.046350
6.641000,0.047494,-0.980965,-1.000420,0.012016,0.002480,-0.046350
6.651130,0.047494,-0.988976,-1.016441,0.013542,0.002480,-0.046350
6.661244,0.047494,-1.003853,-1.030937,0.014305,0.002480,-0.046350
6.671418,0.047494,-1.011101,-1.038186,0.015450,0.002480,-0.046350
6.681532,0.047494,-1.025215,-1.051538,0.016594,0.002480,-0.046350
6.691656,0.047494,-1.032083,-1.057260,0.017357,0.002480,-0.046350
6.701738,0.047494,-1.044671,-1.068704,0.018883,0.002480,-0.045968
6.711807,0.047494,-1.050393,-1.074044,0.019264,0.002480,-0.045968
6.721875,0.047494,-1.061837,-1.083962,0.019646,0.002480,-0.045968
6.731987,0.047494,-1.067178,-1.088159,0.019646,0.002480,-0.045968
6.742122,0.047494,-1.077096,-1.096552,0.019264,0.002480,-0.045968
6.752208,0.047494,-1.082055,-1.099985,0.019264,0.002480,-0.045968
6.762315,0.047494,-1.090829,-1.106852,0.019264,0.002480,-0.045587
6.772429,0.047494,-1.095026,-1.109522,0.019264,0.002480,-0.045205
6.782549,0.047494,-1.102274,-1.114862,0.018883,0.002480,-0.045205
6.792625,0.047494,-1.106089,-1.117533,0.018883,0.002480,-0.045205
6.802690,0.047494,-1.112955,-1.121729,0.018501,0.002480,-0.045205
6.812753,0.047494,-1.116388,-1.123636,0.018120,0.002480,-0.045205
6.822816,0.047494,-1.122492,-1.127451,0.017738,0.002480,-0.045205
6.832878,0.047494,-1.125162,-1.128977,0.017357,0.002480,-0.045205
6.842991,0.047494,-1.130503,-1.131647,0.017357,0.002480,-0.045205
6.853110,0.047494,-1.133173,-1.132792,0.016975,0.002480,-0.045205
6.863225,0.047494,-1.138132,-1.134699,0.015831,0.002480,-0.045205
6.873336,0.047494,-1.140421,-1.135462,0.015068,0.002480,-0.045205
6.883447,0.047494,-1.144999,-1.135843,0.013924,0.002480,-0.045205
6.893559,0.047494,-1.146906,-1.135462,0.011253,0.002480,-0.045205
6.903671,0.047494,-1.150339,-1.135080,0.010109,0.002480,-0.045205
6.913749,0.047494,-1.151865,-1.133554,0.008202,0.002480,-0.044824
6.923864,0.047494,-1.154535,-1.132410,0.007439,0.002480,-0.044442
6.933978,0.047494,-1.155680,-1.131647,0.005913,0.002480,-0.043298
6.944095,0.047494,-1.157969,-1.130503,0.005150,0.002480,-0.042916
6.954216,0.047494,-1.159114,-1.129740,0.004768,0.002480,-0.042153
6.964329,0.047494,-1.161021,-1.128977,0.004768,0.002480,-0.041772
6.974440,0.047494,-1.162166,-1.127832,0.004387,0.002480,-0.041390
6.984552,0.047494,-1.163692,-1.127451,0.004387,0.002480,-0.041009
6.994664,0.047494,-1.164454,-1.127451,0.004387,0.002480,-0.040246
7.004788,0.047494,-1.165980,-1.127069,0.004387,0.002480,-0.039865
7.014899,0.047494,-1.166743,-1.126307,0.004768,0.002480,-0.038720
7.025012,0.047494,-1.168269,-1.125925,0.005150,0.002480,-0.038339
7.035145,0.047494,-1.169032,-1.125544,0.005150,0.002480,-0.038339
7.045257,0.047494,-1.171321,-1.123636,0.005150,0.002480,-0.038720
7.055337,0.047494,-1.172465,-1.122492,0.005150,0.002480,-0.038720
7.065401,0.047494,-1.173991,-1.120203,0.005150,0.002480,-0.038720
7.075465,0.047494,-1.174754,-1.119059,0.005150,0.002480,-0.038720
7.085534,0.047494,-1.177043,-1.116388,0.005150,0.002480,-0.038720
7.095647,0.047494,-1.178569,-1.115244,0.005150,0.002480,-0.038720
7.105735,0.047494,-1.180858,-1.112955,0.004768,0.002480,-0.038720
7.115847,0.047494,-1.182384,-1.111811,0.004768,0.002480,-0.038720
7.125941,0.047494,-1.185054,-1.109522,0.004768,0.002480,-0.038720
7.136029,0.047494,-1.185817,-1.108377,0.004768,0.002480,-0.038720
7.146132,0.047494,-1.188106,-1.106089,0.004768,0.002480,-0.038720
7.156246,0.047494,-1.189250,-1.105326,0.004768,0.002480,-0.038720
7.166339,0.047494,-1.191539,-1.104181,0.004768,0.002480,-0.038720
7.176450,0.047494,-1.192683,-1.103800,0.005150,0.002480,-0.038720
7.186519,0.047494,-1.195735,-1.103800,0.005150,0.002480,-0.038720
7.196630,0.047494,-1.197261,-1.103800,0.005150,0.002480,-0.038720
7.206716,0.047494,-1.200694,-1.103800,0.005150,0.002480,-0.038720
7.216835,0.047494,-1.202601,-1.103800,0.005150,0.002480,-0.038720
7.226945,0.047494,-1.206798,-1.103800,0.005150,0.002480,-0.038720
7.237033,0.047494,-1.209086,-1.103800,0.005150,0.002480,-0.038720
7.247150,0.047494,-1.213664,-1.103800,0.005150,0.002480,-0.038720
7.257261,0.047494,-1.215953,-1.103800,0.005150,0.002480,-0.038720
7.267375,0.047494,-1.220913,-1.103800,0.005150,0.002480,-0.038720
7.277486,0.047494,-1.223202,-1.103800,0.005150,0.002480,-0.038720
7.287579,0.047875,-1.228542,-1.103800,0.005150,0.002480,-0.038720
7.297690,0.047875,-1.230831,-1.103800,0.005150,0.002480,-0.038720
7.307809,0.048638,-1.235790,-1.103800,0.005150,0.002480,-0.038720
7.317881,0.049020,-1.238461,-1.103800,0.005150,0.002480,-0.038720
7.327942,0.050546,-1.244183,-1.103800,0.005150,0.002480,-0.038720
7.338007,0.050927,-1.246853,-1.103800,0.005150,0.002480,-0.038720
7.348081,0.052072,-1.252575,-1.103800,0.005150,0.002480,-0.038720
7.358149,0.052453,-1.255245,-1.103800,0.005150,0.002480,-0.038720
7.368232,0.054360,-1.261349,-1.104181,0.005150,0.002480,-0.038720
7.378323,0.055123,-1.264019,-1.104563,0.005150,0.002480,-0.038720
7.388444,0.056649,-1.269741,-1.105326,0.005150,0.002480,-0.038720
7.398557,0.057412,-1.272411,-1.105326,0.005150,0.002480,-0.038720
7.408668,0.058938,-1.277752,-1.105707,0.005150,0.002480,-0.038720
7.418780,0.059701,-1.280804,-1.105707,0.005150,0.002480,-0.038720
7.428890,0.061227,-1.286145,-1.105707,0.005150,0.002480,-0.038720
7.438978,0.061990,-1.288815,-1.105707,0.005150,0.002480,-0.038720
7.449090,0.063516,-1.294156,-1.105707,0.005150,0.002480,-0.038720
7.459203,0.064279,-1.296826,-1.105707,0.005150,0.002480,-0.038720
7.469280,0.064660,-1.299497,-1.105707,0.005150,0.002480,-0.038720
7.479391,0.066949,-1.306745,-1.105707,0.005531,0.002480,-0.038720
7.489507,0.067712,-1.309415,-1.105707,0.005531,0.002480,-0.038720
7.499618,0.069238,-1.314755,-1.105707,0.005150,0.002480,-0.038720
7.509734,0.070001,-1.317426,-1.105707,0.005150,0.002480,-0.038720
7.519845,0.071145,-1.322766,-1.105707,0.005150,0.002480,-0.038720
7.529955,0.071527,-1.325437,-1.106089,0.005150,0.002480,-0.038720
7.540089,0.072289,-1.330777,-1.106852,0.005150,0.002480,-0.038720
7.550202,0.072671,-1.333447,-1.107233,0.005150,0.002480,-0.038720
7.560317,0.073434,-1.338788,-1.107996,0.005150,0.002480,-0.038720
7.570430,0.074197,-1.341458,-1.108377,0.005150,0.002480,-0.038720
7.580553,0.074578,-1.346800,-1.109903,0.005150,0.002480,-0.038720
7.590673,0.074960,-1.349470,-1.110285,0.005150,0.002480,-0.038720
7.600787,0.074960,-1.354811,-1.111811,0.005531,0.002480,-0.038720
7.610901,0.074960,-1.357481,-1.112574,0.005531,0.002480,-0.038720
7.620987,0.074960,-1.362822,-1.114100,0.006294,0.002480,-0.038339
7.631100,0.074960,-1.365492,-1.115244,0.006676,0.002480,-0.038339
7.641213,0.074960,-1.370451,-1.117914,0.007439,0.002480,-0.038339
7.651332,0.074960,-1.373121,-1.119440,0.007439,0.002480,-0.038339
7.661439,0.074960,-1.378462,-1.122110,0.008202,0.002480,-0.038339
7.671506,0.074960,-1.381132,-1.123255,0.008583,0.002480,-0.038339
7.681618,0.074960,-1.386473,-1.126307,0.010109,0.002480,-0.038339
7.691736,0.074960,-1.389143,-1.128595,0.010872,0.002480,-0.038339
7.701847,0.074960,-1.394102,-1.132792,0.012398,0.002480,-0.038339
7.711964,0.074960,-1.396772,-1.135462,0.013161,0.002480,-0.038339
7.722093,0.074578,-1.402876,-1.140421,0.015068,0.002480,-0.038339
7.732180,0.074578,-1.405546,-1.143091,0.016212,0.002480,-0.038339
7.742293,0.074578,-1.411651,-1.148432,0.018883,0.002861,-0.038339
7.752440,0.074578,-1.414702,-1.151484,0.020409,0.002861,-0.038339
7.762558,0.074578,-1.420424,-1.157588,0.023079,0.002861,-0.038720
7.772652,0.074578,-1.423476,-1.161021,0.024605,0.002861,-0.038720
7.782761,0.074578,-1.429961,-1.167506,0.027657,0.002861,-0.038720
7.792839,0.074578,-1.433013,-1.170939,0.029182,0.002861,-0.038720
7.802905,0.074578,-1.439498,-1.177424,0.032998,0.002861,-0.038720
7.813015,0.074578,-1.442931,-1.180858,0.034142,0.002861,-0.038720
7.823080,0.074578,-1.449416,-1.188106,0.037576,0.002861,-0.038720
7.833150,0.074578,-1.452849,-1.191539,0.039483,0.002861,-0.038720
7.843215,0.074578,-1.459334,-1.198405,0.042153,0.002861,-0.038720
7.853338,0.074578,-1.462768,-1.201838,0.044061,0.002861,-0.038720
7.863453,0.074578,-1.469635,-1.209086,0.047112,0.002861,-0.038720
7.873567,0.074578,-1.473068,-1.212520,0.048257,0.002861,-0.038720
7.883681,0.074578,-1.480316,-1.219006,0.050927,0.002861,-0.038720
7.894018,0.074578,-1.483749,-1.222057,0.052072,0.002861,-0.038720
7.904103,0.074578,-1.490997,-1.228924,0.053979,0.002861,-0.038720
7.914217,0.074578,-1.494431,-1.231976,0.054742,0.002861,-0.038720
7.924391,0.074578,-1.501297,-1.237698,0.057031,0.002861,-0.038720
7.934504,0.074578,-1.505112,-1.240749,0.057794,0.002861,-0.038720
7.944616,0.074578,-1.512360,-1.247234,0.058938,0.002861,-0.038720
7.954701,0.074578,-1.515793,-1.250286,0.059319,0.002861,-0.038720
7.965124,0.074578,-1.523422,-1.256008,0.059701,0.002861,-0.038720
7.975280,0.074578,-1.527237,-1.258678,0.059701,0.002480,-0.038720
7.985460,0.074578,-1.534486,-1.263638,0.059701,0.002480,-0.038720
7.995581,0.074578,-1.538301,-1.265926,0.059701,0.002480,-0.038720
8.005666,0.074578,-1.545548,-1.270885,0.059701,0.002480,-0.038720
8.015778,0.074578,-1.548982,-1.273556,0.059319,0.002480,-0.038720
8.025892,0.074578,-1.556230,-1.279278,0.059319,0.002480,-0.038720
8.036065,0.074578,-1.560044,-1.281949,0.059319,0.002480,-0.038720
8.046180,0.074578,-1.568055,-1.288053,0.059319,0.002480,-0.038720
8.056362,0.074578,-1.571870,-1.291486,0.059319,0.002480,-0.038720
8.066475,0.074578,-1.579881,-1.297589,0.059701,0.002480,-0.038720
8.076589,0.074578,-1.583695,-1.300641,0.059701,0.002480,-0.038720
8.086714,0.074578,-1.591706,-1.306363,0.059701,0.002480,-0.038720
8.096826,0.074578,-1.595140,-1.309415,0.059701,0.002480,-0.038720
8.106945,0.074578,-1.602770,-1.314755,0.059701,0.002480,-0.038720
8.117055,0.074578,-1.606585,-1.317807,0.059701,0.002480,-0.038720
8.127129,0.074578,-1.613832,-1.323148,0.059701,0.002480,-0.038720
8.137239,0.074578,-1.617647,-1.326200,0.059701,0.002480,-0.038720
8.147358,0.074578,-1.624895,-1.331540,0.059701,0.002480,-0.038720
8.157445,0.074578,-1.628710,-1.334210,0.059701,0.002480,-0.038720
8.167557,0.074578,-1.635958,-1.339551,0.059701,0.002480,-0.038339
8.177670,0.074578,-1.639772,-1.342603,0.059701,0.002480,-0.038339
8.187785,0.074578,-1.647402,-1.347944,0.059701,0.002480,-0.038339
8.198124,0.074578,-1.650835,-1.350996,0.059701,0.002480,-0.038339
8.208237,0.074578,-1.658465,-1.356718,0.059701,0.002480,-0.038339
8.218574,0.074578,-1.666095,-1.359388,0.059701,0.002480,-0.038339
8.228683,0.074578,-1.669528,-1.365110,0.059701,0.002480,-0.038339
8.238768,0.074578,-1.677157,-1.367781,0.059701,0.002480,-0.038339
8.248876,0.074578,-1.680972,-1.373503,0.059701,0.002480,-0.038339
8.258986,0.074578,-1.688220,-1.376554,0.059701,0.002480,-0.038339
8.269114,0.074578,-1.692035,-1.382658,0.059701,0.002480,-0.038339
8.279182,0.074578,-1.699664,-1.385710,0.059701,0.002480,-0.038339
8.289251,0.074578,-1.703479,-1.391432,0.059701,0.002480,-0.038339
8.299588,0.074578,-1.710727,-1.397535,0.059701,0.002480,-0.038339
8.309700,0.074578,-1.714541,-1.400587,0.059701,0.002480,-0.038339
8.319782,0.074578,-1.722553,-1.406692,0.059701,0.002480,-0.038339
8.329868,0.074578,-1.726368,-1.410125,0.059701,0.002480,-0.038339
8.339956,0.074578,-1.734379,-1.416228,0.059701,0.002480,-0.038720
8.350066,0.074578,-1.738194,-1.419280,0.059701,0.002480,-0.038720
8.360133,0.074578,-1.746204,-1.425765,0.059701,0.002480,-0.038720
8.370214,0.074578,-1.750401,-1.429198,0.059701,0.002480,-0.038720
8.380278,0.074578,-1.758411,-1.435683,0.059701,0.002480,-0.038720
8.390363,0.074578,-1.763752,-1.440261,0.060464,0.002480,-0.038720
8.400476,0.074578,-1.767948,-1.443694,0.060845,0.002480,-0.038720
8.410586,0.074578,-1.775959,-1.450942,0.061990,0.002480,-0.038720
8.420704,0.074578,-1.780155,-1.454757,0.062753,0.002480,-0.038720
8.430817,0.074578,-1.788930,-1.462768,0.065042,0.002480,-0.038720
8.440934,0.074578,-1.793126,-1.467345,0.065804,0.002480,-0.038720
8.451046,0.074578,-1.801900,-1.475739,0.068475,0.002480,-0.038720
8.461199,0.074578,-1.806478,-1.480316,0.070382,0.002480,-0.038720
8.471261,0.074578,-1.815251,-1.489471,0.073434,0.002480,-0.038720
8.481342,0.074578,-1.819829,-1.494431,0.075341,0.002480,-0.038720
8.491410,0.074578,-1.828603,-1.504349,0.079537,0.002480,-0.038720
8.501520,0.074578,-1.832799,-1.509308,0.081063,0.002480,-0.038720
8.511590,0.074578,-1.841573,-1.519226,0.085259,0.002480,-0.038720
8.521661,0.074578,-1.846151,-1.524185,0.087167,0.002480,-0.038720
8.531725,0.074578,-1.854544,-1.534104,0.090981,0.002480,-0.038720
8.541792,0.074578,-1.859121,-1.539445,0.092889,0.002480,-0.038720
8.551852,0.074578,-1.867514,-1.548982,0.096323,0.002480,-0.038720
8.561936,0.074578,-1.871710,-1.553941,0.098230,0.002480,-0.038720
8.572006,0.074578,-1.880102,-1.563859,0.101282,0.002480,-0.038720
8.582119,0.074578,-1.884298,-1.568437,0.103189,0.002480,-0.038720
8.592189,0.074578,-1.892691,-1.577973,0.105860,0.002480,-0.038720
8.602311,0.074578,-1.896505,-1.582551,0.107004,0.002480,-0.038720
8.612421,0.074578,-1.904516,-1.591325,0.109674,0.002480,-0.038720
8.622533,0.074578,-1.908713,-1.595903,0.110819,0.002480,-0.038720
8.632647,0.074578,-1.916343,-1.604296,0.111963,0.002480,-0.038720
8.643116,0.074578,-1.920539,-1.608492,0.112345,0.002480,-0.038720
8.653225,0.074578,-1.928168,-1.616503,0.113108,0.002480,-0.038720
8.663335,0.074578,-1.932364,-1.619936,0.113871,0.002480,-0.038720
8.673422,0.074578,-1.939994,-1.627565,0.114634,0.002480,-0.038720
8.683533,0.074578,-1.943809,-1.631380,0.115015,0.002480,-0.038720
8.693647,0.074578,-1.952201,-1.639391,0.116159,0.002480,-0.038720
8.703758,0.074578,-1.956016,-1.643587,0.116541,0.002480,-0.038720
8.713833,0.074578,-1.964408,-1.651979,0.116922,0.002480,-0.038720
8.723904,0.074578,-1.968223,-1.655794,0.116922,0.002480,-0.038720
8.733990,0.074578,-1.976234,-1.663806,0.118067,0.002480,-0.038720
8.744113,0.074578,-1.980049,-1.667621,0.118448,0.002480,-0.038720
8.754186,0.074578,-1.987297,-1.675632,0.118830,0.002480,-0.038720
8.764268,0.074578,-1.991112,-1.679446,0.119211,0.002480,-0.038720
8.774329,0.074578,-1.998360,-1.687076,0.120356,0.002480,-0.038720
8.784409,0.074578,-2.002174,-1.690890,0.121119,0.002480,-0.038720
8.794522,0.074578,-2.009804,-1.699283,0.122644,0.002480,-0.038720
8.804591,0.074578,-2.013618,-1.703479,0.123407,0.002480,-0.038720
8.814702,0.074578,-2.021248,-1.712253,0.124552,0.002480,-0.038720
8.824816,0.074578,-2.025063,-1.716830,0.125315,0.002480,-0.038720
8.834929,0.074578,-2.032693,-1.725224,0.127222,0.002480,-0.038720
8.845041,0.074578,-2.036508,-1.729801,0.128366,0.002480,-0.038720
8.855114,0.074578,-2.043756,-1.738956,0.130655,0.002480,-0.038720
8.865184,0.074578,-2.047189,-1.743534,0.131800,0.002480,-0.038720
8.875246,0.074578,-2.054437,-1.752689,0.134470,0.002480,-0.038720
8.885315,0.074578,-2.057870,-1.757267,0.135996,0.002480,-0.038720
8.895385,0.074578,-2.064736,-1.766804,0.138666,0.002480,-0.038720
8.905456,0.074578,-2.068170,-1.771381,0.139429,0.002480,-0.038720
8.915521,0.074578,-2.075036,-1.780155,0.142481,0.002480,-0.038720
8.925583,0.074578,-2.078469,-1.784734,0.143625,0.002480,-0.038720
8.935645,0.074578,-2.085336,-1.793889,0.145533,0.002480,-0.038720
8.945707,0.074578,-2.088387,-1.798085,0.146677,0.002480,-0.038720
8.955766,0.074578,-2.094492,-1.806096,0.149347,0.002480,-0.038720
8.965835,0.074578,-2.097544,-1.810292,0.150110,0.002480,-0.038720
8.975896,0.074578,-2.103647,-1.818685,0.151636,0.002480,-0.038720
8.986284,0.074578,-2.106699,-1.822499,0.152018,0.002480,-0.038720
8.996394,0.074578,-2.112803,-1.829747,0.153543,0.002480,-0.038720
9.006488,0.074578,-2.115854,-1.833180,0.154306,0.002480,-0.038720
9.016597,0.074578,-2.121576,-1.840047,0.155451,0.002480,-0.038720
9.026710,0.074578,-2.124247,-1.843863,0.155832,0.002480,-0.038720
9.036820,0.074578,-2.129587,-1.850729,0.156214,0.002480,-0.038720
9.046929,0.074578,-2.132639,-1.853781,0.156596,0.002480,-0.038720
9.057016,0.074578,-2.137980,-1.860266,0.157359,0.002480,-0.038720
9.067087,0.074578,-2.141031,-1.863317,0.157741,0.002480,-0.038720
9.077187,0.074578,-2.146372,-1.869421,0.157741,0.002480,-0.038720
9.087305,0.074578,-2.149042,-1.872091,0.157741,0.002480,-0.038720
9.097428,0.074578,-2.154383,-1.877813,0.158122,0.002480,-0.038720
9.107551,0.074578,-2.156672,-1.880484,0.158122,0.002480,-0.038720
9.117666,0.074578,-2.162013,-1.885443,0.158122,0.002480,-0.038720
9.127776,0.074578,-2.164683,-1.887732,0.158122,0.002480,-0.038720
9.137890,0.074578,-2.169261,-1.892691,0.158122,0.002480,-0.038720
9.148003,0.074578,-2.171931,-1.894979,0.158122,0.002480,-0.038720
9.158116,0.074578,-2.176509,-1.899557,0.158122,0.002480,-0.038720
9.168227,0.074578,-2.178798,-1.901846,0.158122,0.002480,-0.038720
9.178341,0.074578,-2.183375,-1.906425,0.158122,0.002480,-0.038720
9.188439,0.074578,-2.185664,-1.908713,0.158122,0.002480,-0.038720
9.198505,0.074578,-2.190242,-1.913291,0.159266,0.002480,-0.038720
9.208569,0.074578,-2.192531,-1.915580,0.159648,0.002480,-0.038720
9.218632,0.074578,-2.197108,-1.921302,0.161174,0.002480,-0.038720
9.228696,0.074578,-2.199779,-1.923972,0.162318,0.002480,-0.038720
9.238760,0.074578,-2.204356,-1.930076,0.164226,0.002480,-0.038720
9.248822,0.074578,-2.207026,-1.933127,0.165370,0.002480,-0.038720
9.258884,0.074578,-2.211986,-1.939231,0.168422,0.002480,-0.038720
9.268951,0.074578,-2.214274,-1.942283,0.170329,0.002480,-0.038720
9.279017,0.074578,-2.219234,-1.949149,0.173381,0.002480,-0.038720
9.289143,0.074578,-2.221905,-1.952582,0.175288,0.002480,-0.038720
9.299255,0.074578,-2.226864,-1.959449,0.178340,0.002480,-0.038720
9.309367,0.074578,-2.229534,-1.962882,0.180247,0.002480,-0.038720
9.319483,0.074578,-2.234112,-1.969749,0.184062,0.002480,-0.038720
9.329803,0.074578,-2.236782,-1.973183,0.185588,0.002480,-0.038720
9.339919,0.074578,-2.241360,-1.980049,0.189403,0.002480,-0.038720
9.350047,0.074578,-2.243649,-1.983101,0.190928,0.002480,-0.038720
9.360162,0.074578,-2.248226,-1.989967,0.193980,0.002480,-0.038720
9.370276,0.074578,-2.250515,-1.993019,0.195888,0.002480,-0.038720
9.380394,0.074578,-2.255093,-1.999123,0.198176,0.002480,-0.038720
9.390508,0.074578,-2.257381,-2.002174,0.199321,0.002480,-0.038720
9.400624,0.074578,-2.261578,-2.007515,0.201991,0.002480,-0.039102
9.410736,0.074578,-2.263866,-2.010185,0.202754,0.002480,-0.039102
9.420855,0.074578,-2.268063,-2.015526,0.203898,0.002480,-0.039865
9.430968,0.074578,-2.269970,-2.017815,0.204280,0.002480,-0.039865
9.441094,0.074578,-2.274166,-2.022392,0.205424,0.002480,-0.040627
9.451205,0.074578,-2.276073,-2.024300,0.206187,0.002480,-0.041009
9.461314,0.074578,-2.279888,-2.028877,0.207332,0.002480,-0.041390
9.471427,0.074578,-2.281796,-2.031549,0.207713,0.002480,-0.041390
9.481513,0.074578,-2.285993,-2.036126,0.208095,0.002480,-0.041390
9.491621,0.074578,-2.287900,-2.038796,0.208476,0.002480,-0.041390
9.501736,0.074578,-2.292096,-2.042993,0.208858,0.002480,-0.041390
9.511823,0.074578,-2.296292,-2.044900,0.209239,0.002480,-0.041390
9.521889,0.074578,-2.298200,-2.049478,0.209620,0.002480,-0.041390
9.531954,0.074578,-2.302014,-2.051766,0.209620,0.002480,-0.041390
9.542020,0.074578,-2.303922,-2.055963,0.210383,0.002480,-0.041390
9.552134,0.074578,-2.307736,-2.058251,0.210383,0.002480,-0.041390
9.562244,0.074578,-2.309644,-2.062829,0.210765,0.002098,-0.041390
9.572358,0.074578,-2.313458,-2.065118,0.211146,0.002098,-0.041390
9.582474,0.074578,-2.315747,-2.070077,0.212291,0.001335,-0.041009
9.592588,0.074578,-2.319562,-2.072747,0.213054,0.001335,-0.041009
9.602699,0.074578,-2.321469,-2.078088,0.214580,0.001335,-0.041009
9.612816,0.074578,-2.325284,-2.080758,0.215343,0.001335,-0.041390
9.622934,0.074578,-2.327191,-2.086862,0.216868,0.001335,-0.041390
9.633029,0.074578,-2.331006,-2.092584,0.219540,0.001335,-0.041390
9.643142,0.074578,-2.332913,-2.095636,0.220684,0.001335,-0.041390
9.653255,0.074578,-2.336728,-2.101740,0.223354,0.001335,-0.041390
9.663365,0.074578,-2.338635,-2.104792,0.224117,0.001335,-0.041390
9.673479,0.074578,-2.342450,-2.110514,0.227169,0.001335,-0.041390
9.683828,0.074578,-2.344358,-2.113565,0.228695,0.001717,-0.041390
9.693941,0.074578,-2.347792,-2.119287,0.230602,0.001717,-0.041390
9.704052,0.074578,-2.349699,-2.122339,0.231747,0.001717,-0.041390
9.714090,0.074578,-2.352751,-2.127298,0.234798,0.001717,-0.041772
9.724205,0.074578,-2.354658,-2.129587,0.235561,0.001717,-0.042535
9.734324,0.074578,-2.357328,-2.134546,0.237469,0.001717,-0.044061
9.744401,0.074578,-2.358473,-2.136454,0.238232,0.001717,-0.044824
9.754488,0.074578,-2.361906,-2.140650,0.240520,0.001717,-0.045587
9.764601,0.074578,-2.363050,-2.142557,0.241283,0.001717,-0.046350
9.774769,0.074578,-2.365339,-2.145990,0.241665,0.001717,-0.046350
9.785117,0.074578,-2.366484,-2.147516,0.242428,0.001717,-0.046350
9.795227,0.074578,-2.368773,-2.150187,0.242809,0.001717,-0.046350
9.805340,0.074578,-2.369535,-2.151331,0.242809,0.001717,-0.045968
9.815453,0.074578,-2.371061,-2.152857,0.242809,0.001717,-0.045968
9.825522,0.074578,-2.371824,-2.153620,0.242809,0.001717,-0.045968
9.835635,0.074578,-2.373732,-2.154764,0.242809,0.001717,-0.045968
9.845754,0.074578,-2.374495,-2.155527,0.242809,0.001717,-0.045968
9.855879,0.074578,-2.375257,-2.156291,0.242428,0.001717,-0.045968
9.866228,0.074578,-2.375639,-2.156291,0.242046,0.001717,-0.045968
9.876341,0.074578,-2.376020,-2.157054,0.241665,0.001717,-0.045968
9.886454,0.074578,-2.376783,-2.157054,0.241665,0.001717,-0.045968
9.896568,0.074578,-2.377928,-2.157054,0.241283,0.001717,-0.045968
9.906677,0.074578,-2.378691,-2.157054,0.240902,0.001717,-0.045968
9.916765,0.074578,-2.379835,-2.157054,0.240902,0.001717,-0.045968
9.926938,0.074578,-2.380217,-2.157054,0.240902,0.001717,-0.045968
9.937052,0.074578,-2.381361,-2.157054,0.240902,0.001717,-0.045968
9.947088,0.074578,-2.381742,-2.157054,0.240902,0.001717,-0.045968
9.957153,0.074578,-2.382505,-2.157054,0.241283,0.001717,-0.045968
9.967219,0.074578,-2.382505,-2.156672,0.241283,0.001717,-0.045968
9.977283,0.074578,-2.382887,-2.156672,0.241665,0.001717,-0.045968
9.987346,0.074578,-2.383268,-2.156672,0.242046,0.001717,-0.045968
9.997428,0.074578,-2.384413,-2.156672,0.242046,0.001717,-0.045968
10.007503,0.074578,-2.384794,-2.156672,0.242046,0.001717,-0.045968
10.017615,0.074578,-2.385939,-2.156672,0.242428,0.001717,-0.045968
10.027726,0.074578,-2.386320,-2.156672,0.242428,0.001717,-0.045968
10.038185,0.074578,-2.387083,-2.156672,0.242809,0.001717,-0.045968
10.048295,0.074578,-2.387465,-2.156672,0.242809,0.001717,-0.045968
10.058406,0.074578,-2.388227,-2.156672,0.242809,0.001717,-0.045968
10.068518,0.074578,-2.388609,-2.156672,0.242809,0.001717,-0.045968
10.078595,0.074578,-2.388990,-2.156672,0.242809,0.001717,-0.045968
10.088718,0.074578,-2.389372,-2.156672,0.242809,0.001717,-0.045968
10.098803,0.074578,-2.390135,-2.156672,0.242809,0.001717,-0.045968
10.108915,0.074578,-2.390516,-2.156672,0.242809,0.001717,-0.045968
10.118984,0.074578,-2.391661,-2.156672,0.242809,0.001717,-0.045968
10.129052,0.074578,-2.392424,-2.156672,0.242809,0.001717,-0.045968
10.139094,0.074578,-2.394331,-2.157054,0.242428,0.001717,-0.045968
10.149160,0.074578,-2.394712,-2.157054,0.242428,0.001717,-0.045968
10.159220,0.074578,-2.395475,-2.157054,0.242046,0.001717,-0.045968
10.169290,0.074578,-2.395475,-2.157054,0.242046,0.001717,-0.045968
10.179358,0.074578,-2.395475,-2.157054,0.242046,0.001717,-0.045968
10.189469,0.074578,-2.395857,-2.157054,0.242046,0.001717,-0.045968
10.199582,0.074578,-2.397383,-2.157054,0.242046,0.001717,-0.045968
10.209694,0.074578,-2.398527,-2.157054,0.242046,0.001717,-0.045968
10.219802,0.074578,-2.400816,-2.157054,0.241665,0.001717,-0.045968
10.229892,0.074578,-2.401960,-2.157054,0.241665,0.001717,-0.045968
10.239955,0.074578,-2.402723,-2.157054,0.241665,0.001717,-0.045968
10.250095,0.074578,-2.403105,-2.157054,0.241665,0.001717,-0.045968
10.260182,0.074578,-2.403868,-2.157054,0.241665,0.001717,-0.045968
10.270295,0.074578,-2.404631,-2.157054,0.241665,0.001717,-0.045968
10.280362,0.074578,-2.406539,-2.157054,0.241665,0.001717,-0.045968
10.290474,0.074578,-2.407683,-2.157054,0.241665,0.001717,-0.045968
10.300589,0.074578,-2.408446,-2.157054,0.241665,0.001717,-0.045968
10.310703,0.074578,-2.408828,-2.157435,0.241665,0.001717,-0.045968
10.320799,0.074578,-2.409972,-2.158580,0.242046,0.001717,-0.045968
10.330834,0.074578,-2.411117,-2.159724,0.242046,0.001717,-0.045968
10.340907,0.074197,-2.413787,-2.162013,0.242046,0.001717,-0.045968
10.350970,0.074197,-2.415313,-2.163157,0.242046,0.001717,-0.045968
10.361097,0.074197,-2.417983,-2.165828,0.242046,0.001717,-0.045968
10.371194,0.073815,-2.419509,-2.167735,0.242046,0.001717,-0.045968
10.381261,0.073815,-2.421798,-2.171168,0.242046,0.001335,-0.045968
10.391326,0.073815,-2.422942,-2.173457,0.242046,0.001335,-0.045968
10.401395,0.073815,-2.425612,-2.178035,0.242046,0.001335,-0.045968
10.411468,0.073815,-2.427520,-2.180324,0.242046,0.001335,-0.045968
10.421577,0.073815,-2.430953,-2.185664,0.242046,0.001335,-0.045968
10.431644,0.073815,-2.432479,-2.188716,0.242046,0.001335,-0.045968
10.441704,0.073815,-2.436294,-2.194819,0.242046,0.001335,-0.045968
10.451768,0.073815,-2.438201,-2.197871,0.242046,0.001335,-0.045968
10.461829,0.073815,-2.442016,-2.204738,0.242046,0.001335,-0.045968
10.471901,0.073815,-2.443923,-2.208552,0.242046,0.001335,-0.045968
10.481963,0.073815,-2.448119,-2.215800,0.242046,0.001335,-0.045968
10.492034,0.073815,-2.450408,-2.219234,0.242046,0.001335,-0.045968
10.502077,0.073815,-2.454604,-2.226864,0.242046,0.001335,-0.045968
10.512141,0.073815,-2.456893,-2.230297,0.242046,0.001335,-0.045968
10.522202,0.073815,-2.461089,-2.237926,0.242428,0.001335,-0.045968
10.532273,0.073815,-2.463378,-2.241360,0.242809,0.001335,-0.045968
10.542336,0.073815,-2.467574,-2.248989,0.242809,0.001717,-0.045968
10.552417,0.073815,-2.469482,-2.252804,0.242809,0.001717,-0.045968
10.562490,0.073815,-2.473679,-2.259670,0.242809,0.001717,-0.045968
10.572604,0.073815,-2.475967,-2.263103,0.243191,0.001717,-0.045968
10.582673,0.073815,-2.479782,-2.269588,0.243191,0.001717,-0.045968
10.592777,0.073815,-2.481689,-2.272640,0.243191,0.001717,-0.045968
10.602888,0.073815,-2.485886,-2.278362,0.243191,0.001717,-0.045968
10.612980,0.073815,-2.487793,-2.281415,0.243191,0.001717,-0.045968
10.623063,0.073815,-2.491608,-2.286756,0.243191,0.001717,-0.045968
10.633081,0.073815,-2.493515,-2.289426,0.243191,0.001717,-0.045968
10.643147,0.073815,-2.497330,-2.294385,0.243191,0.001717,-0.045968
10.653261,0.073815,-2.499237,-2.297055,0.243191,0.001717,-0.045968
10.663340,0.073815,-2.502670,-2.301633,0.243191,0.001717,-0.045968
10.673406,0.073815,-2.504578,-2.303540,0.243191,0.001717,-0.045968
10.683469,0.073815,-2.508011,-2.308118,0.243191,0.001717,-0.045968
10.693537,0.073815,-2.509537,-2.310025,0.243191,0.001717,-0.045968
10.703611,0.073815,-2.512970,-2.314221,0.243191,0.001717,-0.045968
10.713682,0.073815,-2.514114,-2.316129,0.243572,0.001717,-0.045968
10.723748,0.073815,-2.517166,-2.319943,0.243572,0.001717,-0.045968
10.733818,0.073815,-2.518692,-2.321851,0.244335,0.001717,-0.045968
10.743880,0.073815,-2.521744,-2.325284,0.244717,0.001717,-0.045968
10.753943,0.073815,-2.522888,-2.327191,0.245098,0.001717,-0.045968
10.764011,0.073815,-2.525940,-2.329099,0.245861,0.001717,-0.045968
10.774076,0.073815,-2.527084,-2.332150,0.247387,0.001717,-0.045968
10.784137,0.073815,-2.530136,-2.334058,0.247768,0.001717,-0.045968
10.794199,0.073815,-2.531281,-2.336728,0.248531,0.001717,-0.045968
10.804310,0.073815,-2.532426,-2.337873,0.249294,0.001717,-0.045968
10.814380,0.073815,-2.534715,-2.340543,0.250439,0.001717,-0.046350
10.824446,0.073815,-2.535478,-2.341306,0.250820,0.001717,-0.046350
10.834540,0.073815,-2.537385,-2.342832,0.252346,0.001717,-0.046350
10.844651,0.073815,-2.538529,-2.343213,0.253109,0.001717,-0.046350
10.854720,0.073815,-2.540055,-2.345121,0.254253,0.001717,-0.046350
10.864790,0.073815,-2.540818,-2.345503,0.254253,0.001717,-0.046350
10.874854,0.073815,-2.542344,-2.345884,0.255398,0.001717,-0.046350
10.884923,0.073815,-2.542726,-2.345503,0.255398,0.001717,-0.046350
10.895005,0.073815,-2.543870,-2.345503,0.255779,0.001717,-0.047112
10.905352,0.073815,-2.544633,-2.345503,0.255779,0.001717,-0.047875
10.915422,0.073815,-2.545396,-2.345503,0.255779,0.001717,-0.049401
10.925507,0.073815,-2.545777,-2.345503,0.255779,0.001717,-0.050164
10.935639,0.073815,-2.546159,-2.345503,0.255779,0.001717,-0.052072
10.945733,0.073815,-2.546159,-2.345503,0.255779,0.001717,-0.052835
10.955847,0.073815,-2.546922,-2.345503,0.255779,0.001717,-0.052835
10.965960,0.073815,-2.547303,-2.345503,0.255779,0.001717,-0.052835
10.976130,0.073815,-2.548448,-2.345503,0.255779,0.001717,-0.052835
10.986253,0.073815,-2.549211,-2.345503,0.255779,0.001717,-0.052835
10.996364,0.073815,-2.550736,-2.345503,0.255779,0.001717,-0.052835
11.006478,0.073815,-2.552262,-2.345503,0.255398,0.001717,-0.052835
11.016547,0.073815,-2.552262,-2.345503,0.255016,0.001717,-0.052835
11.026607,0.073815,-2.552262,-2.345503,0.254635,0.001717,-0.052835
11.036669,0.073815,-2.552262,-2.345503,0.254253,0.001717,-0.052835
11.046732,0.073815,-2.552262,-2.345503,0.253872,0.001717,-0.052835
11.056794,0.073815,-2.552262,-2.344740,0.253872,0.001717,-0.052835
11.066853,0.073815,-2.552262,-2.344358,0.253490,0.001717,-0.052835
11.076916,0.073815,-2.552262,-2.343213,0.253109,0.001717,-0.052835
11.086979,0.073815,-2.552262,-2.343213,0.252728,0.002098,-0.052835
11.097066,0.073815,-2.552262,-2.341687,0.251965,0.002098,-0.052835
11.107134,0.073815,-2.552262,-2.340924,0.251583,0.002480,-0.052835
11.117205,0.073815,-2.552262,-2.338254,0.250439,0.002861,-0.052835
11.127272,0.073815,-2.552262,-2.336728,0.250057,0.002861,-0.052835
11.137353,0.073815,-2.552262,-2.333295,0.248150,0.002861,-0.052835
11.147466,0.073815,-2.552262,-2.331006,0.247768,0.002861,-0.052835
11.157587,0.073815,-2.552262,-2.326428,0.245861,0.002861,-0.052835
11.167700,0.073815,-2.552262,-2.324140,0.245098,0.002480,-0.052453
11.177809,0.073815,-2.552262,-2.319180,0.242809,0.002480,-0.052453
11.187921,0.073815,-2.552262,-2.313840,0.241665,0.002480,-0.052453
11.198036,0.073815,-2.552262,-2.310788,0.239758,0.002480,-0.052453
11.208144,0.073815,-2.551881,-2.305066,0.238995,0.002480,-0.052453
11.218260,0.073815,-2.551881,-2.302396,0.237087,0.002480,-0.052453
11.228371,0.073815,-2.551881,-2.296674,0.235180,0.002480,-0.052453
11.238483,0.073815,-2.551881,-2.294003,0.234798,0.002480,-0.052453
11.248569,0.073815,-2.551881,-2.288663,0.234035,0.002480,-0.052453
11.258677,0.073815,-2.551881,-2.286374,0.234035,0.002480,-0.052453
11.268791,0.073815,-2.551881,-2.281796,0.233654,0.002480,-0.052072
11.278910,0.073815,-2.551881,-2.279507,0.233654,0.002480,-0.051690
11.289018,0.073815,-2.551881,-2.275311,0.233654,0.002480,-0.051690
11.299124,0.073815,-2.551881,-2.273403,0.233654,0.002480,-0.051690
11.309237,0.073815,-2.551881,-2.269207,0.233654,0.002480,-0.051690
11.319309,0.073815,-2.551881,-2.267681,0.233654,0.002480,-0.051690
11.329376,0.073815,-2.551881,-2.263866,0.233654,0.002480,-0.051690
11.339488,0.073815,-2.551881,-2.261959,0.233654,0.002480,-0.051690
11.349603,0.073815,-2.551881,-2.258144,0.234035,0.002480,-0.051690
11.359777,0.073815,-2.551881,-2.256237,0.234035,0.002480,-0.051690
11.369890,0.073815,-2.551881,-2.252422,0.233654,0.002480,-0.051690
11.379999,0.073815,-2.551881,-2.250515,0.233654,0.002480,-0.051690
11.390113,0.073815,-2.551881,-2.247082,0.233273,0.002480,-0.051690
11.400561,0.073815,-2.551881,-2.245556,0.233273,0.002480,-0.052072
11.410670,0.073815,-2.551881,-2.242504,0.233273,0.002480,-0.052072
11.420778,0.073815,-2.551881,-2.240978,0.232891,0.002480,-0.052072
11.430889,0.073815,-2.551881,-2.238308,0.232128,0.002480,-0.052072
11.440999,0.073815,-2.551881,-2.237164,0.231747,0.002480,-0.052072
11.451074,0.073815,-2.551881,-2.234875,0.230984,0.002480,-0.052072
11.461139,0.073815,-2.551881,-2.233349,0.230602,0.002480,-0.052072
11.471221,0.073815,-2.551881,-2.230679,0.229076,0.002480,-0.052072
11.481287,0.073815,-2.551881,-2.229153,0.228313,0.002480,-0.052072
11.491401,0.073815,-2.551881,-2.226101,0.226788,0.002480,-0.052453
11.501516,0.073815,-2.551881,-2.224957,0.226025,0.002480,-0.052453
11.511630,0.073815,-2.551881,-2.223049,0.224117,0.002480,-0.052453
11.521703,0.073815,-2.551881,-2.221905,0.222973,0.002480,-0.052453
11.531775,0.073815,-2.551881,-2.219234,0.221066,0.002480,-0.052453
11.541868,0.073815,-2.551881,-2.218471,0.219921,0.002480,-0.052453
11.551935,0.073815,-2.551881,-2.216182,0.218394,0.002480,-0.052453
11.562002,0.073815,-2.551881,-2.215419,0.217250,0.002480,-0.052453
11.572067,0.073815,-2.551881,-2.214274,0.215343,0.002480,-0.052453
11.582088,0.073815,-2.551881,-2.214274,0.214580,0.002480,-0.052453
11.592163,0.073815,-2.551881,-2.214274,0.214198,0.002480,-0.052453
11.602235,0.073815,-2.551881,-2.214656,0.214198,0.002480,-0.052453
11.612309,0.073815,-2.552262,-2.214656,0.213817,0.002480,-0.052453
11.622373,0.073815,-2.552262,-2.214656,0.213817,0.002480,-0.052453
11.632443,0.073815,-2.552262,-2.214656,0.213817,0.002480,-0.052453
11.642512,0.073815,-2.552262,-2.214656,0.213817,0.002861,-0.052453
11.652576,0.073815,-2.552262,-2.214656,0.213817,0.002861,-0.052453
11.662690,0.073815,-2.552644,-2.214656,0.213817,0.002861,-0.052453
11.672801,0.073815,-2.553407,-2.214274,0.213817,0.002861,-0.052453
11.682915,0.073815,-2.554170,-2.214274,0.213817,0.002861,-0.052453
11.693036,0.073815,-2.556077,-2.214274,0.214198,0.002861,-0.052453
11.703383,0.073815,-2.556840,-2.214274,0.214580,0.002861,-0.052453
11.713452,0.073815,-2.558366,-2.214274,0.214580,0.002861,-0.052453
11.723529,0.073815,-2.559129,-2.214274,0.214580,0.002861,-0.052453
11.733604,0.073815,-2.559510,-2.214274,0.214580,0.002861,-0.052453
11.743763,0.073815,-2.560273,-2.214274,0.214580,0.002861,-0.052453
11.753874,0.073815,-2.561799,-2.214274,0.214580,0.002861,-0.052453
11.763987,0.073815,-2.562943,-2.214274,0.214580,0.002861,-0.052453
11.774101,0.073815,-2.565232,-2.214656,0.214198,0.002861,-0.052453
11.784216,0.073815,-2.566377,-2.214656,0.214198,0.002480,-0.052453
11.794340,0.073815,-2.567903,-2.214656,0.213435,0.002480,-0.052453
11.804455,0.073815,-2.569047,-2.214656,0.213435,0.002480,-0.052453
11.814567,0.073815,-2.570954,-2.214656,0.213435,0.002480,-0.052453
11.824679,0.073815,-2.572099,-2.214656,0.213435,0.002480,-0.052453
11.834791,0.073815,-2.574388,-2.214656,0.213435,0.002480,-0.052453
11.844901,0.073815,-2.575532,-2.214656,0.213435,0.002480,-0.052453
11.855050,0.073815,-2.577821,-2.214656,0.213435,0.002480,-0.052453
11.865230,0.073815,-2.578584,-2.214656,0.213435,0.002480,-0.052453
11.875343,0.073815,-2.580491,-2.214656,0.213435,0.002480,-0.052453
11.885683,0.073815,-2.581254,-2.214656,0.213435,0.002480,-0.052453
11.895782,0.073815,-2.583543,-2.214656,0.213435,0.002480,-0.052453
11.905894,0.073815,-2.584687,-2.214656,0.213435,0.002480,-0.052453
11.916009,0.073815,-2.586595,-2.214656,0.213435,0.002480,-0.052453
11.926089,0.073815,-2.587358,-2.214656,0.213435,0.002480,-0.052453
11.936157,0.073815,-2.589265,-2.214656,0.213435,0.002480,-0.052453
11.946230,0.073815,-2.590409,-2.214656,0.213435,0.002480,-0.052453
11.956290,0.073815,-2.592317,-2.214656,0.213435,0.002480,-0.052453
11.966372,0.073815,-2.593461,-2.214656,0.213435,0.002480,-0.052453
11.976440,0.073815,-2.595751,-2.214656,0.213435,0.002480,-0.052453
11.986505,0.073815,-2.597277,-2.214656,0.213435,0.002480,-0.052453
11.996571,0.073815,-2.599566,-2.214656,0.213435,0.002480,-0.052453
12.006685,0.073815,-2.600710,-2.214656,0.213435,0.002480,-0.052453
12.016798,0.073815,-2.602999,-2.214656,0.213435,0.002480,-0.052453
12.026908,0.073815,-2.604143,-2.214656,0.213435,0.002480,-0.052453
12.037116,0.073815,-2.606432,-2.214656,0.213435,0.002480,-0.052453
12.047187,0.073815,-2.607576,-2.214656,0.213435,0.002480,-0.052453
12.057295,0.073815,-2.610247,-2.214656,0.213435,0.002480,-0.052453
12.067409,0.073815,-2.611391,-2.214656,0.213435,0.002480,-0.052453
12.077582,0.073815,-2.613680,-2.214656,0.213435,0.002480,-0.052453
12.087697,0.073815,-2.614824,-2.214656,0.213435,0.002480,-0.052453
12.097772,0.073815,-2.617113,-2.214656,0.213435,0.002480,-0.052453
12.107885,0.073815,-2.618258,-2.214656,0.213054,0.002480,-0.052453
12.117970,0.073815,-2.620165,-2.214656,0.213054,0.002480,-0.052453
12.128041,0.073815,-2.621309,-2.214656,0.212672,0.002480,-0.052453
12.138086,0.073815,-2.623217,-2.214656,0.212291,0.002480,-0.052453
12.148164,0.073815,-2.624361,-2.214656,0.212291,0.002480,-0.052453
12.158272,0.073815,-2.626268,-2.214656,0.211909,0.002480,-0.052453
12.168381,0.073815,-2.627031,-2.214656,0.211528,0.002480,-0.052453
12.178498,0.073815,-2.629702,-2.214656,0.210765,0.002480,-0.052453
12.188606,0.073815,-2.630846,-2.214656,0.210383,0.002480,-0.052453
12.198702,0.073815,-2.632753,-2.214656,0.209239,0.002480,-0.052453
12.208814,0.073815,-2.633516,-2.214656,0.208858,0.002480,-0.052453
12.218884,0.073815,-2.635805,-2.214656,0.208476,0.002480,-0.052453
12.228958,0.073815,-2.636568,-2.214656,0.208095,0.002480,-0.052453
12.239033,0.073815,-2.638475,-2.214656,0.207332,0.002480,-0.052453
12.249102,0.073815,-2.639620,-2.214656,0.206950,0.002480,-0.052453
12.259167,0.073815,-2.641909,-2.214656,0.206569,0.002480,-0.052453
12.269279,0.073815,-2.643053,-2.215037,0.206187,0.002480,-0.052453
12.279405,0.073815,-2.644960,-2.215419,0.205424,0.002480,-0.052453
12.289517,0.073815,-2.645723,-2.215800,0.205043,0.002480,-0.052453
12.299630,0.073815,-2.647631,-2.215419,0.205043,0.002480,-0.052453
12.309728,0.073815,-2.648394,-2.215419,0.204661,0.002480,-0.052453
12.319806,0.073815,-2.650301,-2.215419,0.204661,0.002480,-0.052072
12.329876,0.073815,-2.651064,-2.215419,0.204280,0.002480,-0.052072
12.340003,0.073815,-2.652590,-2.215419,0.203898,0.002480,-0.051690
12.350092,0.073815,-2.653353,-2.215419,0.203898,0.002480,-0.051690
12.360157,0.073815,-2.654879,-2.215419,0.203517,0.002480,-0.051690
12.370271,0.073815,-2.655642,-2.215419,0.203517,0.002480,-0.051690
12.380384,0.073815,-2.657168,-2.215419,0.203135,0.002480,-0.051690
12.390493,0.073815,-2.657550,-2.215419,0.203135,0.002480,-0.051690
12.400608,0.073815,-2.659076,-2.215419,0.203135,0.002480,-0.051690
12.410720,0.073815,-2.659457,-2.215419,0.203135,0.002480,-0.051690
12.420831,0.073815,-2.661365,-2.215419,0.203135,0.002480,-0.051690
12.430946,0.073815,-2.662127,-2.215419,0.203135,0.002480,-0.051690
12.441059,0.073815,-2.664035,-2.215419,0.203135,0.002480,-0.051690
12.451172,0.073815,-2.664798,-2.215419,0.203135,0.002480,-0.051690
12.461284,0.073815,-2.665561,-2.215419,0.203135,0.002480,-0.051690
12.471398,0.073815,-2.665942,-2.215419,0.203135,0.002480,-0.051690
12.481484,0.073815,-2.666705,-2.215419,0.203135,0.002480,-0.051690
12.491594,0.073815,-2.667468,-2.215419,0.203135,0.002480,-0.051690
12.501657,0.073815,-2.668994,-2.215419,0.203135,0.002480,-0.051690
12.511769,0.073815,-2.669757,-2.215419,0.203135,0.002480,-0.051690
12.521844,0.073815,-2.670901,-2.215419,0.203135,0.002480,-0.051690
12.531918,0.073815,-2.671283,-2.215419,0.203135,0.002480,-0.052072
12.541983,0.073815,-2.671664,-2.215419,0.203135,0.002480,-0.052072
12.552053,0.073815,-2.672046,-2.215419,0.203135,0.002480,-0.052072
12.562085,0.073815,-2.673190,-2.215419,0.203135,0.002480,-0.052072
12.572149,0.073815,-2.674335,-2.215419,0.203135,0.002480,-0.052072
12.582212,0.073815,-2.675860,-2.215419,0.203135,0.002480,-0.052072
12.592281,0.073815,-2.676242,-2.215419,0.203135,0.002480,-0.052072
12.602343,0.073815,-2.676623,-2.215419,0.203135,0.002480,-0.052072
12.612415,0.073815,-2.676623,-2.215419,0.203135,0.002480,-0.052072
12.622476,0.073815,-2.676623,-2.215419,0.203135,0.002480,-0.052072
12.632549,0.073815,-2.677386,-2.215419,0.203135,0.002480,-0.052072
12.642609,0.073815,-2.678912,-2.215419,0.203135,0.002480,-0.052072
12.652672,0.073815,-2.680057,-2.215419,0.203135,0.002480,-0.052072
12.662735,0.073815,-2.682345,-2.215419,0.203135,0.002480,-0.052072
12.672845,0.073815,-2.683490,-2.215419,0.203135,0.002480,-0.052072
12.682956,0.073815,-2.684634,-2.215419,0.203135,0.002480,-0.052072
12.693067,0.073815,-2.685397,-2.215419,0.202754,0.002480,-0.052072
12.703130,0.073815,-2.686542,-2.215419,0.202754,0.002480,-0.052072
12.713221,0.073815,-2.687304,-2.215419,0.202373,0.002098,-0.052072
12.723294,0.073815,-2.688830,-2.215419,0.202373,0.001717,-0.052072
12.733364,0.073815,-2.689593,-2.215419,0.202373,0.001717,-0.052072
12.743425,0.073815,-2.691119,-2.215419,0.201991,0.001335,-0.052072
12.753492,0.073815,-2.691882,-2.215419,0.201610,0.001335,-0.052072
12.763559,0.073815,-2.694171,-2.215419,0.201228,0.001335,-0.052072
12.773637,0.073815,-2.695315,-2.215419,0.201228,0.001335,-0.052072
12.783747,0.073815,-2.697604,-2.215800,0.200847,0.001335,-0.052072
12.793833,0.073815,-2.698367,-2.215800,0.200847,0.001335,-0.052072
12.803945,0.073815,-2.700274,-2.215800,0.200465,0.001335,-0.052072
12.814032,0.073815,-2.700656,-2.215800,0.200465,0.001335,-0.052072
12.824108,0.073815,-2.702563,-2.215800,0.200465,0.001335,-0.052072
12.834178,0.073815,-2.703326,-2.215800,0.200465,0.001335,-0.052072
12.844255,0.073815,-2.704852,-2.215800,0.200465,0.001335,-0.052072
12.854371,0.073815,-2.705615,-2.216563,0.200465,0.001335,-0.052072
12.864457,0.073815,-2.708285,-2.216563,0.200465,0.001335,-0.052072
12.874541,0.073815,-2.709430,-2.216563,0.200465,0.001335,-0.052072
12.884654,0.073815,-2.710956,-2.216945,0.200465,0.001335,-0.052072
12.894765,0.073815,-2.711719,-2.216945,0.200465,0.001335,-0.052072
12.904877,0.073815,-2.712863,-2.216945,0.200465,0.001335,-0.052072
12.914966,0.073815,-2.714007,-2.216945,0.200465,0.001335,-0.052072
12.925027,0.073815,-2.715915,-2.217326,0.200465,0.001335,-0.052072
12.935089,0.073815,-2.716678,-2.217326,0.200465,0.001335,-0.052072
12.945151,0.073815,-2.718204,-2.217326,0.200465,0.001335,-0.052072
12.955215,0.073815,-2.718967,-2.217326,0.200465,0.001335,-0.051690
12.965277,0.073815,-2.720875,-2.217326,0.200465,0.001335,-0.051690
12.975342,0.073815,-2.721256,-2.217326,0.200465,0.001335,-0.051690
12.985403,0.073815,-2.722401,-2.217326,0.200465,0.001335,-0.051690
12.995468,0.073815,-2.722401,-2.217326,0.200465,0.001335,-0.051690
13.005529,0.073815,-2.722782,-2.217326,0.200465,0.001335,-0.051690
13.015594,0.073815,-2.723545,-2.217326,0.200465,0.001335,-0.051690
13.025654,0.073815,-2.724308,-2.217326,0.200465,0.001335,-0.051690
13.035766,0.073815,-2.726215,-2.217326,0.200465,0.001335,-0.051690
13.045852,0.073815,-2.726978,-2.217326,0.200465,0.001335,-0.051690
13.055976,0.073815,-2.728504,-2.217326,0.200465,0.001335,-0.051690
13.066111,0.073815,-2.728886,-2.217326,0.200465,0.001335,-0.051690
13.076223,0.073815,-2.728886,-2.217326,0.200465,0.001335,-0.051690
13.086335,0.073815,-2.728886,-2.217326,0.200465,0.001335,-0.051690
13.096408,0.073815,-2.729267,-2.217326,0.200465,0.001335,-0.051690
13.106486,0.073815,-2.729267,-2.217326,0.200465,0.001335,-0.051690
13.116559,0.073815,-2.730412,-2.217326,0.200465,0.001335,-0.051690
13.126621,0.073815,-2.730793,-2.217326,0.200465,0.001335,-0.051690
13.136685,0.073815,-2.731937,-2.217326,0.200465,0.001335,-0.051690
13.146747,0.073815,-2.731937,-2.217326,0.200465,0.001335,-0.051690
13.156831,0.073815,-2.731937,-2.217326,0.200465,0.001335,-0.051690
13.166947,0.073815,-2.731937,-2.217326,0.200465,0.001335,-0.051690
13.177091,0.073815,-2.731937,-2.217326,0.200465,0.001335,-0.051690
13.187209,0.073815,-2.731937,-2.217326,0.200465,0.001335,-0.051690
13.197300,0.073815,-2.732700,-2.217326,0.200465,0.001335,-0.051690
13.207411,0.073815,-2.733082,-2.217326,0.200465,0.001335,-0.051690
13.217760,0.073815,-2.733463,-2.217326,0.200465,0.001335,-0.051690
13.227849,0.073815,-2.733463,-2.217326,0.200465,0.001335,-0.051309
13.237959,0.073815,-2.733463,-2.217326,0.200465,0.001335,-0.050927
13.248046,0.073815,-2.733463,-2.217326,0.200465,0.001335,-0.050546
13.258102,0.073815,-2.733463,-2.217326,0.200465,0.001335,-0.049783
13.268190,0.073815,-2.733463,-2.217326,0.200465,0.001335,-0.049783
13.278311,0.073815,-2.733463,-2.217326,0.200465,0.001335,-0.049783
13.288422,0.073815,-2.733463,-2.217326,0.200465,0.001335,-0.049783
13.298532,0.073815,-2.733463,-2.217326,0.200465,0.001335,-0.049783
13.308617,0.073815,-2.733463,-2.217326,0.200465,0.001335,-0.049783
13.318691,0.073815,-2.733463,-2.217326,0.200465,0.001335,-0.049783
13.328761,0.073815,-2.733463,-2.217326,0.200465,0.001335,-0.049783
13.338825,0.073815,-2.733463,-2.217326,0.200465,0.000572,-0.049783
13.348899,0.073815,-2.733463,-2.217326,0.200465,0.000191,-0.049783
13.358961,0.073815,-2.733463,-2.217326,0.200465,-0.000191,-0.049783
13.369022,0.073815,-2.733463,-2.217326,0.200465,-0.000572,-0.049783
13.379084,0.073815,-2.733463,-2.217326,0.200465,-0.000954,-0.049401
13.389146,0.073815,-2.733463,-2.217326,0.200847,-0.001717,-0.049401
13.399207,0.073815,-2.733463,-2.217326,0.200847,-0.002861,-0.048257
13.409270,0.073815,-2.733463,-2.217326,0.200847,-0.003624,-0.047112
13.419333,0.073815,-2.733463,-2.217326,0.200847,-0.005150,-0.043679
13.429448,0.073815,-2.733463,-2.217326,0.200847,-0.005913,-0.042153
13.439535,0.073815,-2.733463,-2.217326,0.200847,-0.006676,-0.038720
13.449646,0.073815,-2.733463,-2.217326,0.200847,-0.007057,-0.036813
13.459710,0.073815,-2.733463,-2.217326,0.200847,-0.007057,-0.034142
13.469774,0.073815,-2.733463,-2.217326,0.200847,-0.007057,-0.032617
13.479819,0.073815,-2.733463,-2.217326,0.200847,-0.007057,-0.030327
13.489928,0.073815,-2.733463,-2.217326,0.200847,-0.007057,-0.029182
13.500042,0.073815,-2.733463,-2.217326,0.200847,-0.007057,-0.028419
13.510082,0.073815,-2.733463,-2.217326,0.200465,-0.007057,-0.027657
13.520150,0.073815,-2.733463,-2.217326,0.200465,-0.007057,-0.027657
13.530225,0.073815,-2.733463,-2.217326,0.200465,-0.007057,-0.026512
13.540341,0.073815,-2.733463,-2.217326,0.200465,-0.007057,-0.025749
13.550430,0.073815,-2.733463,-2.217326,0.200465,-0.006676,-0.024223
13.560542,0.073815,-2.733463,-2.217326,0.200465,-0.006676,-0.023079
13.570654,0.073815,-2.733463,-2.217326,0.200465,-0.006676,-0.022316
13.580765,0.073815,-2.733463,-2.217326,0.200465,-0.006676,-0.021935
13.590851,0.073815,-2.733463,-2.217326,0.200465,-0.006676,-0.021553
13.600934,0.073815,-2.733463,-2.217326,0.200847,-0.006676,-0.021553
13.611010,0.073815,-2.733463,-2.217326,0.200847,-0.005913,-0.021172
13.621122,0.073815,-2.733463,-2.217326,0.200847,-0.005913,-0.021172
13.631192,0.073815,-2.733463,-2.217326,0.201228,-0.005913,-0.020790
13.641277,0.073815,-2.733463,-2.217326,0.201228,-0.005913,-0.020027
13.651353,0.073815,-2.733463,-2.217326,0.201228,-0.005913,-0.018120
13.661464,0.073815,-2.733463,-2.217326,0.201228,-0.005913,-0.017357
13.671531,0.073815,-2.733463,-2.217326,0.201228,-0.005913,-0.016212
13.681595,0.073815,-2.733463,-2.217326,0.201228,-0.005913,-0.016212
13.691661,0.073815,-2.733463,-2.217326,0.201228,-0.005913,-0.016975
13.701774,0.073815,-2.733463,-2.217326,0.201228,-0.005913,-0.016975
13.711844,0.073815,-2.733463,-2.217326,0.201228,-0.005531,-0.016975
13.721917,0.073815,-2.733463,-2.217326,0.201228,-0.005531,-0.016975
13.731986,0.073815,-2.733463,-2.217326,0.201228,-0.005150,-0.016975
13.742052,0.073815,-2.733463,-2.217326,0.201228,-0.004768,-0.016975
13.752109,0.073815,-2.733463,-2.217326,0.201228,-0.004768,-0.016975
13.762224,0.073815,-2.733463,-2.217326,0.201228,-0.004768,-0.016975
13.772335,0.073815,-2.733463,-2.217326,0.201228,-0.004768,-0.016975
13.782423,0.073815,-2.733463,-2.217326,0.201228,-0.004768,-0.017357
13.792535,0.073815,-2.733463,-2.217326,0.201228,-0.004768,-0.017738
13.802647,0.073815,-2.733463,-2.217326,0.201228,-0.004768,-0.018120
13.812757,0.073815,-2.733463,-2.217326,0.201228,-0.004387,-0.019264
13.822823,0.073815,-2.733463,-2.217326,0.200847,-0.004387,-0.019646
13.832900,0.073815,-2.733463,-2.217326,0.200847,-0.004005,-0.020027
13.843013,0.073815,-2.733463,-2.217326,0.200847,-0.004005,-0.020027
13.853082,0.073815,-2.733463,-2.217326,0.200465,-0.004005,-0.021172
13.863154,0.073815,-2.733463,-2.217326,0.200465,-0.004005,-0.021935
13.873235,0.073815,-2.733463,-2.217326,0.200465,-0.004005,-0.024605
13.883313,0.073815,-2.733463,-2.217326,0.200084,-0.004005,-0.025749
13.893424,0.073815,-2.733463,-2.217326,0.199702,-0.004005,-0.028038
13.903513,0.073815,-2.733463,-2.217326,0.199321,-0.004005,-0.029182
13.913600,0.073815,-2.733463,-2.217326,0.199321,-0.004005,-0.031854
13.923722,0.073815,-2.733463,-2.217326,0.199321,-0.004005,-0.032998
13.933843,0.073815,-2.733463,-2.217326,0.198558,-0.004005,-0.034905
13.943954,0.073815,-2.733463,-2.217326,0.198558,-0.004005,-0.036050
13.954063,0.073815,-2.733463,-2.217326,0.198558,-0.004005,-0.037957
13.964130,0.073815,-2.733463,-2.217326,0.198558,-0.004005,-0.039102
13.974215,0.073815,-2.733463,-2.217326,0.197795,-0.004005,-0.041009
13.984323,0.073815,-2.733463,-2.217326,0.197413,-0.004005,-0.042153
13.994446,0.073815,-2.733463,-2.217326,0.196651,-0.004005,-0.045205
14.004559,0.073815,-2.733463,-2.217326,0.196269,-0.004005,-0.046350
14.014627,0.073815,-2.733463,-2.217326,0.195888,-0.004005,-0.049401
14.024693,0.073815,-2.733463,-2.217326,0.195506,-0.004005,-0.050927
14.034806,0.073815,-2.733463,-2.217326,0.195506,-0.004005,-0.053216
14.044910,0.073815,-2.733463,-2.217326,0.194743,-0.004005,-0.054360
14.054977,0.073815,-2.733463,-2.217326,0.193980,-0.004005,-0.056649
14.065077,0.073815,-2.733463,-2.217326,0.193599,-0.004005,-0.058175
14.075102,0.073815,-2.733463,-2.217326,0.192836,-0.004005,-0.060464
14.085187,0.073815,-2.733463,-2.217326,0.192454,-0.004005,-0.061227
14.095302,0.073815,-2.733463,-2.217326,0.191691,-0.003624,-0.063897
14.105414,0.073815,-2.733463,-2.217326,0.191310,-0.003624,-0.065042
14.115486,0.073815,-2.733463,-2.217326,0.190166,-0.003242,-0.066567
14.125557,0.073815,-2.733463,-2.217326,0.189784,-0.002861,-0.067330
14.135622,0.073815,-2.733463,-2.217326,0.189021,-0.001717,-0.069238
14.145688,0.073815,-2.733463,-2.217326,0.189021,-0.000954,-0.070001
14.155752,0.073815,-2.733463,-2.217326,0.188640,0.000954,-0.070382
14.165815,0.073815,-2.733463,-2.217326,0.188258,0.001717,-0.070001
14.175880,0.073815,-2.733463,-2.217326,0.188258,0.003242,-0.069238
14.185942,0.073815,-2.733463,-2.217326,0.188258,0.003624,-0.069238
14.196003,0.073815,-2.733463,-2.217326,0.188258,0.004387,-0.068856
14.206081,0.073815,-2.733463,-2.217326,0.188258,0.004768,-0.068093
14.216146,0.073815,-2.733463,-2.217326,0.188258,0.004768,-0.067712
14.226209,0.073815,-2.733463,-2.217326,0.188258,0.004768,-0.066186
14.236290,0.073815,-2.733463,-2.217326,0.188258,0.005150,-0.065042
14.246416,0.073815,-2.733463,-2.217326,0.188258,0.005150,-0.063134
14.256487,0.073815,-2.733463,-2.217326,0.188640,0.005150,-0.062371
14.266601,0.073815,-2.733463,-2.217326,0.188640,0.005150,-0.061990
14.276712,0.073815,-2.733463,-2.217326,0.188640,0.005150,-0.061990
14.286824,0.073815,-2.733463,-2.217326,0.188640,0.005150,-0.061990
14.296936,0.073815,-2.733463,-2.217326,0.188640,0.005150,-0.061990
14.307007,0.073815,-2.733463,-2.217326,0.189021,0.004387,-0.061990
14.317099,0.073815,-2.733463,-2.217326,0.189403,0.004387,-0.061990
14.327168,0.073815,-2.733463,-2.217326,0.189403,0.003624,-0.061990
14.337237,0.073815,-2.733463,-2.217326,0.189403,0.003242,-0.061990
14.347302,0.073815,-2.733463,-2.217326,0.189784,0.003242,-0.061990
14.357373,0.073815,-2.733845,-2.217326,0.189784,0.003242,-0.061990
14.367444,0.073815,-2.734226,-2.217326,0.190166,0.003242,-0.061608
14.377516,0.073815,-2.735371,-2.217326,0.190166,0.003242,-0.061227
14.387587,0.073815,-2.736134,-2.217326,0.190547,0.003242,-0.059701
14.397674,0.073815,-2.736897,-2.217326,0.190547,0.002861,-0.058557
14.407739,0.073815,-2.737278,-2.217326,0.190547,0.002480,-0.056649
14.417806,0.073815,-2.737659,-2.217326,0.190547,0.002098,-0.055886
14.427873,0.073815,-2.738422,-2.217326,0.190166,0.001335,-0.055505
14.437955,0.073815,-2.738804,-2.217326,0.190166,0.001335,-0.055505
14.448026,0.073815,-2.740330,-2.217326,0.190166,0.000572,-0.055505
14.458083,0.073815,-2.741093,-2.217326,0.190166,0.000572,-0.055505
14.468154,0.073815,-2.743000,-2.217326,0.190166,0.000572,-0.055505
14.478228,0.073815,-2.743382,-2.217326,0.190166,0.000572,-0.055505
14.488300,0.073815,-2.744144,-2.217326,0.190166,0.000572,-0.055505
14.498365,0.073815,-2.744144,-2.217326,0.190166,0.000572,-0.055505
14.508433,0.073815,-2.744907,-2.217326,0.190166,0.000572,-0.055505
14.518504,0.073815,-2.745670,-2.217326,0.190166,0.000572,-0.055505
14.528572,0.073815,-2.747196,-2.217326,0.190166,0.000572,-0.055505
14.538655,0.073815,-2.747959,-2.217326,0.190166,0.000572,-0.055505
14.548727,0.073815,-2.749104,-2.217326,0.190166,0.000572,-0.055505
14.558810,0.073815,-2.749485,-2.217326,0.190166,0.000572,-0.055505
14.568883,0.073815,-2.749485,-2.217326,0.190166,0.000572,-0.055505
14.578976,0.073815,-2.749485,-2.217326,0.190166,0.000572,-0.055505
14.589048,0.073815,-2.750248,-2.217326,0.190166,0.000572,-0.055505
14.599085,0.073815,-2.750629,-2.217326,0.190547,0.000572,-0.055505
14.609151,0.073815,-2.752155,-2.217326,0.190547,0.000572,-0.055505
14.619220,0.073815,-2.753300,-2.217326,0.190547,0.000572,-0.055505
14.629286,0.073815,-2.754444,-2.217326,0.190547,0.000572,-0.055505
14.639365,0.073815,-2.754444,-2.217326,0.190547,0.000572,-0.055505
14.649431,0.073815,-2.754826,-2.217326,0.190166,0.000572,-0.055505
14.659512,0.073815,-2.754826,-2.217326,0.190166,0.000572,-0.055505
14.669583,0.073815,-2.755207,-2.217326,0.190166,0.000572,-0.055505
14.679656,0.073815,-2.755207,-2.217326,0.190166,0.000572,-0.055505
14.689736,0.073815,-2.756351,-2.217326,0.190166,0.000572,-0.055505
14.699805,0.073815,-2.757496,-2.217326,0.190166,0.000572,-0.055505
14.709870,0.073815,-2.759403,-2.217326,0.190166,0.000572,-0.055505
14.719952,0.073815,-2.760548,-2.217326,0.190166,0.000572,-0.055505
14.730021,0.073815,-2.761692,-2.217708,0.190166,0.000572,-0.055505
14.740101,0.073815,-2.762074,-2.217708,0.190166,0.000572,-0.055505
14.750174,0.073815,-2.762455,-2.218089,0.190166,0.000572,-0.055505
14.760247,0.073815,-2.763218,-2.218471,0.190166,0.000572,-0.055505
14.770317,0.073815,-2.765125,-2.218471,0.190166,0.000572,-0.055505
14.780386,0.073815,-2.765888,-2.218853,0.190166,0.000572,-0.055505
14.790453,0.073815,-2.767796,-2.219997,0.190166,0.000572,-0.055505
14.800517,0.073815,-2.768559,-2.220760,0.190166,0.000572,-0.055505
14.810585,0.073815,-2.770084,-2.222286,0.190166,0.000572,-0.055505
14.820654,0.073815,-2.770847,-2.222668,0.190166,0.000572,-0.055505
14.830737,0.073815,-2.772755,-2.223431,0.190166,0.000572,-0.055505
14.840804,0.073815,-2.773518,-2.224194,0.190166,0.000572,-0.055505
14.850886,0.073815,-2.775806,-2.226482,0.190166,0.000191,-0.055505
14.860959,0.073815,-2.776569,-2.227627,0.190166,0.000191,-0.055505
14.871025,0.073815,-2.778858,-2.229916,0.190547,-0.000191,-0.055505
14.881081,0.073815,-2.780003,-2.231060,0.190547,-0.000191,-0.055505
14.891148,0.073815,-2.782292,-2.233349,0.190547,-0.000572,-0.055505
14.901216,0.073815,-2.783437,-2.234493,0.190547,-0.000572,-0.055505
14.911282,0.073815,-2.785726,-2.236782,0.190166,-0.000572,-0.055505
14.921379,0.073815,-2.786870,-2.238308,0.190166,-0.000572,-0.055505
14.931455,0.073815,-2.788396,-2.240597,0.190166,-0.000572,-0.055505
14.941525,0.073815,-2.790303,-2.243649,0.190166,-0.000572,-0.055505
14.951592,0.073815,-2.791448,-2.245174,0.190166,-0.000572,-0.055505
14.961659,0.073815,-2.793736,-2.248226,0.190166,-0.000572,-0.055505
