meetsitaram/go2-rebot/recordings/test_20260423_095947.csv
t,joint1,joint2,joint3,joint4,joint5,joint6,gripper
0.002911,0.008202,0.008202,0.006294,0.000572,-0.010872,0.054742,-0.015068
0.012976,0.008202,0.008202,0.006294,0.000572,-0.010872,0.057412,-0.015068
0.023042,0.008202,0.008202,0.006294,0.000572,-0.010872,0.060082,-0.015068
0.033109,0.008202,0.008202,0.006294,0.000572,-0.010490,0.066186,-0.015068
0.043191,0.008202,0.008202,0.006294,0.000572,-0.010490,0.069619,-0.015068
0.053259,0.008202,0.008202,0.006294,0.000572,-0.010490,0.076867,-0.015068
0.063339,0.008202,0.008202,0.006294,0.000191,-0.010490,0.080300,-0.015068
0.073403,0.008202,0.008202,0.006294,0.000191,-0.010490,0.087548,-0.015068
0.083473,0.008202,0.008202,0.006294,0.000191,-0.010490,0.090981,-0.015068
0.093536,0.008202,0.008202,0.006294,0.000191,-0.010490,0.098612,-0.015068
0.103600,0.008202,0.008202,0.006294,0.000191,-0.010490,0.102427,-0.015068
0.113662,0.008202,0.008202,0.006294,0.000191,-0.010490,0.109293,-0.015068
0.123726,0.008202,0.008202,0.006294,0.000191,-0.010490,0.112726,-0.015068
0.133789,0.008202,0.008202,0.006294,0.000191,-0.010490,0.118067,-0.015068
0.143853,0.008202,0.008202,0.006294,0.000191,-0.010490,0.119974,-0.015068
0.153918,0.008202,0.008202,0.006294,0.000191,-0.010490,0.123026,-0.015068
0.163985,0.008202,0.008202,0.006294,0.000191,-0.010872,0.123789,-0.015068
0.174050,0.008202,0.008202,0.006294,0.000191,-0.010872,0.124933,-0.015068
0.184115,0.008202,0.008202,0.006294,0.000191,-0.010872,0.125315,-0.015068
0.194178,0.008202,0.008202,0.006294,0.000572,-0.010872,0.125315,-0.015068
0.204242,0.008202,0.008202,0.006294,0.000572,-0.011253,0.125315,-0.015068
0.214310,0.008202,0.008202,0.006294,0.000572,-0.011253,0.124933,-0.015068
0.224378,0.008202,0.008202,0.006294,0.000572,-0.011253,0.124933,-0.015068
0.234439,0.008202,0.008202,0.006294,0.000572,-0.011253,0.124552,-0.015068
0.244510,0.008202,0.008202,0.006294,0.000572,-0.010872,0.123407,-0.015068
0.254578,0.008202,0.008202,0.006294,0.000572,-0.010872,0.122263,-0.015068
0.264651,0.008202,0.008202,0.006294,0.000572,-0.010872,0.118830,-0.015068
0.274715,0.008202,0.008202,0.006294,0.000572,-0.010872,0.116922,-0.015068
0.284777,0.008202,0.008202,0.006294,0.000572,-0.010872,0.112726,-0.015068
0.294841,0.008202,0.008202,0.006294,0.000572,-0.010872,0.110437,-0.015068
0.304908,0.008202,0.008202,0.006294,0.000572,-0.010872,0.105860,-0.015068
0.314978,0.008202,0.008202,0.006294,0.000572,-0.010872,0.103189,-0.015068
0.325048,0.008202,0.008202,0.006294,0.000572,-0.010872,0.098230,-0.015068
0.335126,0.008202,0.008202,0.006294,0.000572,-0.010872,0.095942,-0.015068
0.345203,0.008202,0.008202,0.006294,0.000572,-0.010872,0.090981,-0.015068
0.355268,0.008202,0.008202,0.006294,0.000572,-0.010872,0.088311,-0.015068
0.365344,0.008202,0.008202,0.006294,0.000572,-0.010872,0.083352,-0.015068
0.375416,0.008202,0.008202,0.006294,0.000572,-0.010872,0.080682,-0.015068
0.385484,0.008202,0.008202,0.006294,0.000572,-0.010872,0.075341,-0.015068
0.395546,0.008202,0.008202,0.006294,0.000572,-0.010872,0.072289,-0.015068
0.405609,0.008202,0.008202,0.006294,0.000572,-0.010872,0.066567,-0.015068
0.415678,0.008202,0.008202,0.006294,0.000572,-0.010872,0.063134,-0.015068
0.425741,0.008202,0.008202,0.006294,0.000572,-0.010872,0.056268,-0.015068
0.435802,0.008202,0.008202,0.006294,0.000572,-0.010872,0.052453,-0.015068
0.445841,0.008202,0.008202,0.006294,0.000572,-0.010872,0.044061,-0.015068
0.455910,0.008202,0.008202,0.006294,0.000572,-0.010872,0.039865,-0.015068
0.465975,0.008202,0.008202,0.006294,0.000572,-0.010872,0.030708,-0.015068
0.476039,0.008202,0.008202,0.006294,0.000572,-0.010490,0.026131,-0.015068
0.486122,0.008202,0.008202,0.006294,0.000572,-0.010490,0.016594,-0.015068
0.496229,0.008202,0.008202,0.006294,0.000572,-0.010490,0.011635,-0.015068
0.506306,0.008202,0.008202,0.006294,0.000572,-0.010490,0.001335,-0.015068
0.516368,0.008202,0.008202,0.006294,0.000572,-0.010490,-0.003624,-0.015068
0.526432,0.008202,0.008202,0.006294,0.000572,-0.010490,-0.012779,-0.015068
0.536520,0.008202,0.008202,0.006294,0.000572,-0.010490,-0.016975,-0.015068
0.546636,0.008202,0.008202,0.006294,0.000191,-0.010490,-0.023460,-0.015068
0.556745,0.008202,0.008202,0.006294,0.000191,-0.010490,-0.026131,-0.015068
0.566883,0.008202,0.008202,0.006294,0.000191,-0.010490,-0.029564,-0.015068
0.576994,0.008202,0.008202,0.006294,0.000191,-0.010490,-0.030708,-0.015068
0.587105,0.008202,0.008202,0.006294,0.000191,-0.010490,-0.031090,-0.015068
0.597216,0.008202,0.008202,0.006294,0.000191,-0.010490,-0.031090,-0.015068
0.607332,0.008202,0.008202,0.006294,0.000191,-0.010490,-0.030327,-0.015068
0.617442,0.008202,0.008202,0.006294,0.000191,-0.010490,-0.029945,-0.015068
0.627553,0.008202,0.008202,0.006294,0.000191,-0.010490,-0.029945,-0.015068
0.637624,0.008202,0.008202,0.006294,0.000191,-0.010490,-0.029945,-0.015068
0.647690,0.008202,0.008202,0.006294,0.000191,-0.010490,-0.029945,-0.015068
0.657758,0.008202,0.008202,0.006294,0.000191,-0.010490,-0.029945,-0.015068
0.667923,0.008202,0.008202,0.006294,0.000191,-0.010490,-0.029945,-0.015068
0.678036,0.008202,0.008202,0.006294,0.000191,-0.010490,-0.029945,-0.015068
0.688122,0.008202,0.008202,0.006294,0.000191,-0.010490,-0.029945,-0.015068
0.698231,0.008202,0.008202,0.006294,0.000191,-0.010490,-0.029945,-0.015068
0.708342,0.008202,0.008202,0.006294,0.000572,-0.010490,-0.029945,-0.015068
0.718517,0.008202,0.008202,0.006294,0.000572,-0.010490,-0.029945,-0.015068
0.728633,0.008202,0.008202,0.006294,0.000572,-0.010490,-0.029945,-0.015068
0.738702,0.008202,0.008202,0.006294,0.000572,-0.010490,-0.029945,-0.015068
0.748810,0.008202,0.008202,0.006294,0.000572,-0.010872,-0.029945,-0.015068
0.758864,0.008202,0.008202,0.006294,0.000191,-0.010872,-0.029945,-0.015068
0.768936,0.008202,0.008202,0.006294,0.000191,-0.011253,-0.029945,-0.015068
0.779017,0.008202,0.008202,0.006294,0.000191,-0.011253,-0.029945,-0.015068
0.789114,0.008202,0.008202,0.006294,0.000191,-0.011635,-0.029945,-0.015068
0.799224,0.008202,0.008202,0.006294,0.000191,-0.011253,-0.029945,-0.015068
0.809295,0.008202,0.008202,0.006294,0.000191,-0.011253,-0.029945,-0.015068
0.819411,0.008202,0.008202,0.006294,0.000191,-0.011253,-0.029945,-0.015068
0.829528,0.008202,0.008202,0.006294,0.000191,-0.011253,-0.029945,-0.015068
0.839679,0.008202,0.008202,0.006294,0.000191,-0.011253,-0.029945,-0.015068
0.849760,0.008202,0.008202,0.006294,0.000191,-0.011253,-0.029945,-0.015068
0.859842,0.008202,0.008202,0.006294,0.000191,-0.011635,-0.029945,-0.015068
0.869929,0.008202,0.008202,0.006294,0.000191,-0.011635,-0.029945,-0.015068
0.880401,0.008202,0.008202,0.006294,0.000191,-0.011635,-0.029182,-0.015068
0.890529,0.008202,0.008202,0.006294,0.000191,-0.012016,-0.028419,-0.015068
0.900639,0.008202,0.008202,0.006294,0.000191,-0.012016,-0.027275,-0.015068
0.910751,0.008202,0.008202,0.006294,0.000191,-0.012398,-0.024605,-0.015068
0.920828,0.008202,0.008202,0.006294,0.000191,-0.012779,-0.023460,-0.015068
0.930941,0.008202,0.008202,0.006294,0.000191,-0.013161,-0.022697,-0.015068
0.941028,0.008202,0.008202,0.006294,0.000191,-0.013542,-0.022697,-0.015068
0.951137,0.008202,0.008202,0.006294,0.000191,-0.013542,-0.023079,-0.015068
0.961225,0.008202,0.008202,0.006294,0.000572,-0.013924,-0.023079,-0.015068
0.971292,0.008202,0.008202,0.006294,0.000572,-0.013924,-0.023842,-0.015068
0.981387,0.008583,0.008202,0.006294,0.000572,-0.013924,-0.023460,-0.015068
0.991499,0.008583,0.008202,0.006294,0.000572,-0.013924,-0.023460,-0.015068
1.001611,0.008583,0.008202,0.006294,0.000572,-0.013924,-0.023460,-0.015068
1.011720,0.008583,0.008202,0.006294,0.000572,-0.013924,-0.023460,-0.015068
1.021783,0.008583,0.008202,0.006294,0.000572,-0.013924,-0.023460,-0.015068
1.031869,0.008583,0.008202,0.006294,0.000572,-0.013542,-0.023842,-0.015068
1.041978,0.008583,0.008202,0.006294,0.000572,-0.013161,-0.023842,-0.015068
1.052090,0.008583,0.008202,0.006294,0.000572,-0.013161,-0.024986,-0.015068
1.062205,0.008583,0.008202,0.006294,0.000572,-0.013161,-0.025749,-0.015068
1.072318,0.008583,0.008202,0.006294,0.000572,-0.013161,-0.028038,-0.015068
1.082429,0.008583,0.008202,0.006294,0.000572,-0.013161,-0.029564,-0.015450
1.092540,0.008583,0.008202,0.006294,0.000572,-0.013161,-0.032617,-0.015831
1.102637,0.008583,0.008202,0.006294,0.000572,-0.013161,-0.033380,-0.016212
1.112704,0.008583,0.008202,0.006294,0.000572,-0.012779,-0.035287,-0.018120
1.122765,0.008583,0.008202,0.006294,0.000572,-0.012779,-0.036431,-0.019646
1.132827,0.008583,0.008202,0.006294,0.000572,-0.012398,-0.037957,-0.022697
1.142843,0.008583,0.008202,0.006294,0.000572,-0.012398,-0.038720,-0.024986
1.152961,0.008583,0.008202,0.006294,0.000572,-0.012016,-0.039483,-0.030327
1.163074,0.008202,0.008202,0.006294,0.000572,-0.011635,-0.039483,-0.033380
1.173185,0.008202,0.008202,0.006294,0.000572,-0.011253,-0.039483,-0.041009
1.183585,0.008202,0.008202,0.006294,0.000572,-0.011253,-0.039483,-0.045587
1.193694,0.008202,0.008202,0.006294,0.000572,-0.011253,-0.039865,-0.056268
1.203852,0.008202,0.008202,0.006294,0.000572,-0.011253,-0.039865,-0.062371
1.213920,0.008202,0.008202,0.006294,0.000572,-0.011253,-0.041390,-0.076486
1.224015,0.008202,0.008202,0.006294,0.000572,-0.011253,-0.042153,-0.085259
1.234450,0.008202,0.008202,0.006294,0.000572,-0.011253,-0.044061,-0.103189
1.244568,0.008202,0.008202,0.006294,0.000572,-0.011253,-0.044824,-0.113108
1.254636,0.008202,0.008202,0.006294,0.000572,-0.011253,-0.045587,-0.134851
1.264735,0.008202,0.008202,0.006294,0.000572,-0.011253,-0.045587,-0.147821
1.274803,0.008202,0.008202,0.006294,0.000572,-0.011253,-0.045587,-0.172999
1.284916,0.008202,0.008202,0.006294,0.000572,-0.010872,-0.045968,-0.186732
1.295029,0.008202,0.008202,0.006294,0.000572,-0.010872,-0.046350,-0.215343
1.305136,0.008202,0.008202,0.006294,0.000572,-0.010490,-0.046350,-0.230602
1.315203,0.008202,0.008202,0.006294,0.000572,-0.010490,-0.047494,-0.262646
1.325267,0.008202,0.008202,0.006294,0.000572,-0.010490,-0.048257,-0.279430
1.335329,0.008202,0.008202,0.006294,0.000572,-0.010490,-0.049401,-0.314145
1.345391,0.008202,0.008202,0.006294,0.000572,-0.010490,-0.050164,-0.332074
1.355452,0.008202,0.008202,0.006294,0.000572,-0.010490,-0.050164,-0.368696
1.365514,0.008202,0.008202,0.006294,0.000572,-0.010490,-0.050546,-0.387770
1.375625,0.008202,0.008202,0.006294,0.000572,-0.010490,-0.050546,-0.425918
1.385746,0.008202,0.008202,0.006294,0.000572,-0.010109,-0.050546,-0.444991
1.395815,0.008202,0.008202,0.006294,0.000572,-0.010109,-0.050927,-0.483902
1.406019,0.008202,0.008202,0.006294,0.000572,-0.010109,-0.051309,-0.503738
1.416084,0.008202,0.008202,0.006294,0.000572,-0.010109,-0.051690,-0.543412
1.426163,0.008202,0.008202,0.006294,0.000572,-0.010109,-0.052072,-0.562486
1.436274,0.008202,0.008202,0.006294,0.000572,-0.010109,-0.052072,-0.601778
1.446386,0.008202,0.008202,0.006294,0.000572,-0.010109,-0.052072,-0.620852
1.456464,0.008202,0.008202,0.006294,0.000572,-0.010490,-0.052072,-0.658618
1.466528,0.008202,0.008202,0.006294,0.000572,-0.010490,-0.052072,-0.677310
1.476594,0.008202,0.008202,0.006294,0.000572,-0.010490,-0.052072,-0.714313
1.486657,0.008202,0.008202,0.006294,0.000572,-0.010490,-0.052072,-0.733006
1.496717,0.008202,0.008202,0.006294,0.000572,-0.010109,-0.052072,-0.768482
1.506783,0.008202,0.008202,0.006294,0.000572,-0.010109,-0.052072,-0.786031
1.516841,0.008202,0.008202,0.006294,0.000572,-0.009727,-0.052072,-0.819600
1.526908,0.008202,0.008202,0.006294,0.000572,-0.009727,-0.052072,-0.835240
1.537011,0.008202,0.008202,0.006294,0.000572,-0.009727,-0.052072,-0.866522
1.547125,0.008202,0.008202,0.006294,0.000572,-0.009727,-0.052072,-0.881781
1.557235,0.008202,0.008202,0.006294,0.000572,-0.009727,-0.052072,-0.896276
1.567347,0.008202,0.008202,0.006294,0.000572,-0.009727,-0.052072,-0.922980
1.577457,0.008202,0.008202,0.006294,0.000572,-0.010109,-0.052072,-0.935187
1.587543,0.008202,0.008202,0.006294,0.000572,-0.010109,-0.052453,-0.959601
1.597660,0.008202,0.008202,0.006294,0.000572,-0.010109,-0.052453,-0.970284
1.607741,0.008202,0.008202,0.006294,0.000572,-0.010490,-0.053216,-0.990120
1.617867,0.008202,0.008202,0.006294,0.000572,-0.010490,-0.053597,-0.998894
1.627943,0.008202,0.008202,0.006294,0.000572,-0.010490,-0.055123,-1.014534
1.638026,0.008202,0.008202,0.006294,0.000572,-0.010490,-0.055886,-1.021782
1.648118,0.008202,0.008202,0.006294,0.000572,-0.010490,-0.057794,-1.033227
1.658189,0.008202,0.008202,0.006294,0.000572,-0.010872,-0.058175,-1.038568
1.668271,0.008202,0.008202,0.006294,0.000572,-0.010872,-0.058557,-1.046960
1.678349,0.008202,0.008202,0.006294,0.000572,-0.010872,-0.058557,-1.050775
1.688416,0.008202,0.008202,0.006294,0.000572,-0.011253,-0.058938,-1.056497
1.698526,0.008202,0.008202,0.006294,0.000572,-0.011635,-0.058938,-1.058785
1.708598,0.008202,0.008202,0.006294,0.000572,-0.011635,-0.058938,-1.062219
1.718670,0.008202,0.008202,0.006294,0.000572,-0.011635,-0.059319,-1.063363
1.728752,0.008583,0.008202,0.006294,0.000572,-0.011635,-0.059701,-1.064507
1.738867,0.008965,0.008202,0.006294,0.000572,-0.011635,-0.059701,-1.064507
1.749202,0.009727,0.008202,0.006294,0.000572,-0.012016,-0.060464,-1.064507
1.759315,0.011253,0.008202,0.006294,0.000572,-0.012016,-0.061227,-1.064507
1.769427,0.011253,0.008202,0.006294,0.000572,-0.012016,-0.062753,-1.064507
1.779537,0.011253,0.008202,0.006294,0.000191,-0.012016,-0.063516,-1.064507
1.789648,0.011253,0.008202,0.006294,0.000191,-0.011635,-0.064279,-1.064507
1.799758,0.011253,0.008202,0.006294,0.000191,-0.011635,-0.064279,-1.064507
1.809871,0.011253,0.008202,0.006294,0.000191,-0.011635,-0.064660,-1.064507
1.819985,0.011253,0.008202,0.006294,0.000191,-0.011635,-0.064660,-1.064507
1.830098,0.011253,0.008202,0.006294,0.000191,-0.011635,-0.064660,-1.064507
1.840208,0.010872,0.008202,0.006294,0.000572,-0.011635,-0.064660,-1.064507
1.850320,0.010872,0.008202,0.006294,0.000572,-0.011635,-0.064660,-1.064507
1.860402,0.010872,0.008202,0.006294,0.000572,-0.011635,-0.064660,-1.064507
1.870684,0.010872,0.008202,0.006294,0.000572,-0.011635,-0.064660,-1.064507
1.880799,0.010872,0.008202,0.006294,0.000572,-0.011635,-0.064660,-1.064507
1.890886,0.010872,0.008202,0.006294,0.000572,-0.011635,-0.064660,-1.064507
1.900995,0.010872,0.008202,0.006294,0.000572,-0.011253,-0.064660,-1.064507
1.911108,0.010872,0.008202,0.006294,0.000572,-0.011253,-0.064660,-1.064507
1.921191,0.010872,0.008202,0.006294,0.000572,-0.011253,-0.064660,-1.064507
1.931533,0.010872,0.008202,0.006294,0.000572,-0.010872,-0.064660,-1.064507
1.941642,0.010872,0.008202,0.006294,0.000572,-0.010872,-0.064660,-1.064507
1.951752,0.010872,0.008202,0.006294,0.000572,-0.010490,-0.064660,-1.064507
1.961867,0.010872,0.008202,0.006294,0.000572,-0.010490,-0.064660,-1.064507
1.971986,0.010872,0.008202,0.006294,0.000572,-0.010490,-0.064660,-1.064507
1.982100,0.010872,0.008202,0.006294,0.000572,-0.010490,-0.064660,-1.064507
1.992181,0.010872,0.008202,0.006294,0.000572,-0.010490,-0.064660,-1.064507
2.002291,0.010872,0.008202,0.006294,0.000572,-0.010490,-0.064660,-1.064507
2.012372,0.010872,0.008202,0.006294,0.000572,-0.010490,-0.064660,-1.064507
2.022458,0.010872,0.008202,0.006294,0.000572,-0.010490,-0.064660,-1.064507
2.032567,0.010872,0.008202,0.006294,0.000572,-0.010490,-0.064660,-1.064507
2.042676,0.010872,0.008202,0.006294,0.000572,-0.010490,-0.064660,-1.064507
2.052763,0.010872,0.008202,0.006294,0.000572,-0.010490,-0.064660,-1.064507
2.062844,0.010872,0.008202,0.006294,0.000572,-0.010490,-0.064660,-1.064507
2.072912,0.010872,0.008202,0.006294,0.000572,-0.010490,-0.064660,-1.064507
2.082987,0.010872,0.008202,0.006294,0.000572,-0.010872,-0.064660,-1.064507
2.093097,0.010872,0.008202,0.006294,0.000572,-0.010872,-0.064660,-1.064507
2.103207,0.010872,0.008202,0.006294,0.000572,-0.010872,-0.064660,-1.064507
2.113316,0.010872,0.008202,0.006294,0.000572,-0.011253,-0.064660,-1.064507
2.123381,0.010872,0.008202,0.006294,0.000572,-0.011253,-0.064660,-1.064507
2.133443,0.010872,0.008202,0.006294,0.000572,-0.011253,-0.064660,-1.064507
2.143506,0.010872,0.008202,0.006294,0.000572,-0.011253,-0.064279,-1.064507
2.153568,0.010872,0.008202,0.006294,0.000572,-0.011253,-0.063897,-1.064507
2.163635,0.010872,0.008202,0.006294,0.000572,-0.011253,-0.063134,-1.064507
2.173705,0.010872,0.008202,0.006294,0.000572,-0.010872,-0.062753,-1.064507
2.183766,0.010872,0.008202,0.006294,0.000572,-0.010872,-0.062753,-1.064507
2.193832,0.010872,0.008202,0.006294,0.000572,-0.010490,-0.062753,-1.064507
2.203901,0.010872,0.008202,0.006294,0.000572,-0.010490,-0.062753,-1.064507
2.213951,0.010872,0.008202,0.006294,0.000572,-0.010490,-0.062753,-1.064507
2.224016,0.010872,0.007820,0.006294,0.000572,-0.010490,-0.062753,-1.064507
2.234123,0.010872,0.007057,0.006294,0.000572,-0.010872,-0.062371,-1.064507
2.244232,0.010872,0.004768,0.006294,0.000572,-0.010872,-0.062371,-1.064507
2.254302,0.010872,0.003624,0.006294,0.000572,-0.010872,-0.061608,-1.064507
2.264374,0.010872,0.000191,0.006294,0.000572,-0.010872,-0.061227,-1.064507
2.274488,0.010872,-0.001717,0.006294,0.000572,-0.010872,-0.058938,-1.064507
2.284601,0.010872,-0.006294,0.005913,0.000572,-0.010872,-0.057412,-1.064507
2.294670,0.010872,-0.008583,0.005913,0.000572,-0.010872,-0.053979,-1.064507
2.304740,0.010872,-0.014687,0.005913,0.000572,-0.010872,-0.052072,-1.064507
2.314854,0.010872,-0.017738,0.005913,0.000572,-0.011253,-0.048257,-1.064507
2.325033,0.010872,-0.024986,0.005913,0.000191,-0.011253,-0.045968,-1.064507
2.335143,0.010872,-0.029182,0.005913,0.000191,-0.011635,-0.041390,-1.064507
2.345258,0.010872,-0.037576,0.005913,0.000191,-0.011635,-0.038720,-1.064507
2.355384,0.010872,-0.042153,0.005913,0.000191,-0.011635,-0.033761,-1.064507
2.365464,0.010872,-0.050927,0.005913,0.000191,-0.011635,-0.031090,-1.064507
2.375538,0.010872,-0.055123,0.005913,0.000191,-0.012016,-0.026131,-1.064507
2.385648,0.010872,-0.063897,0.005913,-0.000191,-0.012398,-0.023842,-1.064507
2.395989,0.010872,-0.068093,0.005913,-0.000572,-0.013161,-0.019646,-1.064507
2.406116,0.010872,-0.076486,0.005913,-0.000572,-0.013542,-0.017738,-1.064507
2.416228,0.010872,-0.080682,0.005913,-0.000572,-0.013542,-0.015831,-1.064507
2.426332,0.010872,-0.089074,0.005913,-0.000572,-0.013924,-0.015068,-1.064507
2.436441,0.010872,-0.092889,0.005913,-0.000954,-0.014687,-0.014305,-1.064507
2.446515,0.010872,-0.100519,0.005913,-0.001335,-0.015068,-0.013924,-1.064507
2.456593,0.010872,-0.103952,0.005913,-0.002098,-0.016212,-0.013924,-1.064507
2.466660,0.010872,-0.110056,0.005913,-0.002480,-0.016975,-0.013924,-1.064507
2.476709,0.010872,-0.113108,0.005913,-0.003624,-0.018120,-0.014305,-1.064507
2.486788,0.010872,-0.118448,0.005913,-0.004387,-0.018501,-0.014687,-1.064507
2.497135,0.010872,-0.120737,0.005913,-0.005531,-0.019646,-0.015450,-1.064507
2.507203,0.010872,-0.124552,0.005913,-0.006294,-0.019646,-0.016212,-1.064507
2.517287,0.010872,-0.126459,0.005913,-0.008202,-0.020027,-0.017738,-1.064507
2.527368,0.010872,-0.130274,0.005913,-0.009346,-0.020027,-0.018883,-1.064507
2.537483,0.010872,-0.131800,0.005913,-0.011635,-0.020027,-0.020027,-1.064507
2.547565,0.010872,-0.134470,0.005913,-0.013161,-0.020027,-0.020790,-1.064507
2.557639,0.010872,-0.135996,0.005913,-0.015450,-0.020027,-0.022697,-1.064507
2.567716,0.010872,-0.138285,0.005913,-0.016594,-0.020027,-0.024223,-1.064507
2.577855,0.010872,-0.139429,0.005913,-0.019646,-0.020027,-0.026131,-1.064507
2.587967,0.010872,-0.141718,0.005913,-0.021172,-0.020027,-0.026894,-1.064507
2.598060,0.010872,-0.143244,0.005913,-0.023460,-0.020027,-0.028801,-1.064507
2.608138,0.010872,-0.145533,0.005913,-0.024986,-0.019646,-0.029945,-1.064507
2.618218,0.010872,-0.146677,0.005913,-0.028038,-0.019264,-0.031472,-1.064507
2.628298,0.010872,-0.149729,0.005913,-0.029182,-0.018883,-0.031854,-1.064507
2.638529,0.010872,-0.150873,0.005913,-0.031472,-0.018883,-0.032617,-1.064507
2.648620,0.010872,-0.153925,0.005913,-0.032998,-0.018501,-0.032617,-1.064507
2.658692,0.010872,-0.155451,0.005913,-0.035287,-0.017738,-0.032998,-1.064507
2.668759,0.010872,-0.159266,0.005913,-0.036050,-0.017738,-0.032998,-1.064507
2.678869,0.010872,-0.161555,0.005913,-0.037576,-0.017357,-0.032617,-1.064507
2.688945,0.010872,-0.166133,0.005913,-0.038339,-0.017357,-0.032617,-1.064507
2.699056,0.010872,-0.168422,0.005913,-0.039865,-0.017357,-0.032617,-1.064507
2.709142,0.010872,-0.173381,0.005913,-0.040627,-0.017357,-0.032617,-1.064507
2.719252,0.010872,-0.176051,0.005913,-0.041772,-0.017357,-0.032617,-1.064507
2.729367,0.010872,-0.180629,0.005913,-0.041772,-0.017357,-0.032617,-1.064507
2.739479,0.010872,-0.183299,0.005531,-0.041772,-0.017357,-0.032235,-1.064507
2.749591,0.010872,-0.187495,0.005150,-0.041772,-0.017357,-0.031854,-1.064507
2.759662,0.010872,-0.189784,0.004005,-0.041772,-0.017357,-0.031854,-1.064507
2.769749,0.010872,-0.192073,0.003624,-0.041772,-0.017357,-0.031854,-1.064507
2.779861,0.010872,-0.196269,0.002861,-0.041772,-0.017738,-0.031854,-1.064507
2.790004,0.010872,-0.198558,0.002098,-0.041772,-0.017738,-0.031854,-1.064507
2.800115,0.010872,-0.203517,0.000954,-0.041772,-0.017357,-0.031854,-1.064507
2.810227,0.010872,-0.206187,0.000191,-0.041772,-0.017357,-0.031854,-1.064507
2.820589,0.010872,-0.211909,-0.000954,-0.041772,-0.017357,-0.031854,-1.064507
2.830690,0.010872,-0.217631,-0.000572,-0.041772,-0.017357,-0.031854,-1.064507
2.840776,0.010872,-0.220303,-0.000572,-0.041772,-0.017357,-0.031854,-1.064507
2.850863,0.010872,-0.225643,-0.000572,-0.042153,-0.017357,-0.031854,-1.064507
2.860941,0.010872,-0.227932,-0.000572,-0.043298,-0.017357,-0.031854,-1.064507
2.871010,0.010872,-0.232891,-0.000572,-0.044442,-0.017357,-0.031854,-1.064507
2.881120,0.010872,-0.235180,-0.000191,-0.046731,-0.017357,-0.031854,-1.064507
2.891232,0.010872,-0.238995,0.000572,-0.047875,-0.017357,-0.031854,-1.064507
2.901344,0.010872,-0.241283,0.002861,-0.049401,-0.017357,-0.031854,-1.064507
2.911455,0.010872,-0.243954,0.004387,-0.049783,-0.017357,-0.031854,-1.064507
2.921567,0.010872,-0.244717,0.006676,-0.049783,-0.017357,-0.031854,-1.064507
2.931650,0.010872,-0.246243,0.007057,-0.049783,-0.017357,-0.031854,-1.064507
2.941822,0.010872,-0.246624,0.007057,-0.049783,-0.017357,-0.032235,-1.064507
2.951845,0.010872,-0.246624,0.007057,-0.050164,-0.017357,-0.032235,-1.064507
2.961926,0.010872,-0.246624,0.007057,-0.050164,-0.017357,-0.032235,-1.064507
2.972008,0.010872,-0.246624,0.007057,-0.050164,-0.017357,-0.032235,-1.064507
2.982141,0.010872,-0.246624,0.007057,-0.050546,-0.017357,-0.031854,-1.064507
2.992254,0.010872,-0.246624,0.007057,-0.050546,-0.017357,-0.031854,-1.064507
3.002365,0.010872,-0.247005,0.007057,-0.051309,-0.017357,-0.031854,-1.064507
3.012477,0.010872,-0.247387,0.007057,-0.051309,-0.017357,-0.031854,-1.064507
3.022588,0.010872,-0.247387,0.007057,-0.051690,-0.017357,-0.031854,-1.064507
3.032704,0.010872,-0.247387,0.007057,-0.052072,-0.016975,-0.031854,-1.064507
3.042772,0.010872,-0.247768,0.007057,-0.052072,-0.016975,-0.031854,-1.064507
3.052861,0.010872,-0.248913,0.007057,-0.052072,-0.016975,-0.031854,-1.064507
3.062932,0.010872,-0.249676,0.007057,-0.052072,-0.016594,-0.031854,-1.064507
3.073048,0.010872,-0.252346,0.007057,-0.052072,-0.016594,-0.031854,-1.064507
3.083171,0.010872,-0.253872,0.007057,-0.052453,-0.016212,-0.031854,-1.064507
3.093279,0.010872,-0.257305,0.006676,-0.052835,-0.016212,-0.031854,-1.064507
3.103388,0.010872,-0.259212,0.005913,-0.052835,-0.016212,-0.031854,-1.064507
3.113501,0.010872,-0.263409,0.005150,-0.052835,-0.016212,-0.031854,-1.064507
3.123610,0.010872,-0.265316,0.003624,-0.052835,-0.016212,-0.031854,-1.064507
3.133721,0.010872,-0.269131,0.002480,-0.052835,-0.016212,-0.031854,-1.064507
3.143847,0.010872,-0.271038,-0.001717,-0.052453,-0.016212,-0.031854,-1.064507
3.153959,0.010872,-0.275234,-0.003624,-0.052072,-0.016212,-0.031472,-1.064507
3.164073,0.010872,-0.276760,-0.009346,-0.050927,-0.016212,-0.031472,-1.064507
3.174193,0.010872,-0.280956,-0.012779,-0.049783,-0.016212,-0.031854,-1.064507
3.184306,0.010872,-0.282483,-0.021172,-0.046731,-0.016212,-0.031854,-1.064507
3.194421,0.010872,-0.286298,-0.026131,-0.045205,-0.016212,-0.031854,-1.064507
3.204534,0.010872,-0.288205,-0.036431,-0.041009,-0.016212,-0.031854,-1.064507
3.214652,0.010872,-0.292783,-0.042535,-0.038720,-0.016212,-0.031854,-1.064507
3.224725,0.010872,-0.295453,-0.055505,-0.033761,-0.016212,-0.031854,-1.064507
3.234859,0.010872,-0.301175,-0.062753,-0.031090,-0.016212,-0.031854,-1.064507
3.244946,0.010872,-0.304227,-0.078012,-0.025368,-0.016212,-0.031854,-1.064507
3.255016,0.010872,-0.311093,-0.086022,-0.022316,-0.016212,-0.031854,-1.064507
3.265091,0.010872,-0.314908,-0.103189,-0.015831,-0.016212,-0.031854,-1.064507
3.275153,0.010872,-0.323300,-0.111963,-0.012779,-0.016212,-0.031854,-1.064507
3.285216,0.010872,-0.327878,-0.129892,-0.006294,-0.016212,-0.031854,-1.064507
3.295276,0.010872,-0.338178,-0.138666,-0.003242,-0.016212,-0.032235,-1.064507
3.305349,0.010872,-0.344282,-0.156978,0.002480,-0.016212,-0.032235,-1.064507
3.315421,0.010872,-0.356489,-0.166514,0.005531,-0.016212,-0.032617,-1.064507
3.325483,0.010872,-0.362974,-0.185206,0.010490,-0.016212,-0.033380,-1.064507
3.335546,0.010872,-0.375944,-0.194362,0.012779,-0.016212,-0.033761,-1.064507
3.345658,0.010872,-0.383192,-0.212291,0.017357,-0.016212,-0.035287,-1.064507
3.355767,0.010872,-0.397688,-0.230221,0.019264,-0.016212,-0.036050,-1.064507
3.365893,0.010872,-0.405317,-0.239376,0.022316,-0.016594,-0.037957,-1.064507
3.375981,0.010872,-0.421340,-0.257305,0.024986,-0.016594,-0.038720,-1.064507
3.386094,0.010872,-0.429732,-0.266079,0.026131,-0.016975,-0.039865,-1.064507
3.396203,0.010872,-0.446898,-0.284009,0.028038,-0.017357,-0.039865,-1.064507
3.406402,0.010872,-0.455672,-0.292783,0.028801,-0.017357,-0.040246,-1.064507
3.416528,0.010872,-0.473984,-0.310330,0.031090,-0.017357,-0.040627,-1.064507
3.426637,0.010872,-0.483139,-0.319486,0.031854,-0.017357,-0.040627,-1.064507
3.436749,0.010872,-0.501450,-0.337796,0.032235,-0.017357,-0.040627,-1.064507
3.446862,0.010872,-0.510605,-0.346952,0.032617,-0.017357,-0.040627,-1.064507
3.456945,0.010872,-0.529297,-0.364119,0.033380,-0.017357,-0.040627,-1.064507
3.467073,0.010872,-0.538453,-0.373274,0.033761,-0.017357,-0.040627,-1.064507
3.477188,0.010872,-0.557908,-0.391203,0.033761,-0.017357,-0.040627,-1.064507
3.487296,0.010872,-0.567445,-0.400358,0.033761,-0.017357,-0.040627,-1.064507
3.497360,0.010872,-0.586518,-0.417907,0.033761,-0.017357,-0.040627,-1.064507
3.507423,0.010872,-0.596437,-0.426681,0.033761,-0.017357,-0.040627,-1.064507
3.517486,0.010872,-0.615892,-0.444228,0.033380,-0.017357,-0.040627,-1.064507
3.527550,0.010872,-0.625429,-0.453383,0.033380,-0.017357,-0.040627,-1.064507
3.537615,0.010872,-0.645266,-0.471695,0.033380,-0.017357,-0.040627,-1.064507
3.547680,0.010872,-0.654802,-0.480850,0.033380,-0.017357,-0.040246,-1.064507
3.557750,0.010872,-0.673877,-0.499161,0.033380,-0.017357,-0.040246,-1.064507
3.567818,0.010872,-0.683795,-0.508698,0.033380,-0.017357,-0.040246,-1.064507
3.577843,0.010872,-0.703250,-0.527008,0.033761,-0.017357,-0.040246,-1.064507
3.587955,0.010872,-0.713168,-0.536164,0.033761,-0.017357,-0.040246,-1.064507
3.598068,0.010872,-0.733387,-0.554856,0.034142,-0.017357,-0.040246,-1.064507
3.608177,0.010872,-0.743305,-0.563630,0.034905,-0.017357,-0.040246,-1.064507
3.618287,0.010872,-0.763142,-0.582322,0.035287,-0.017357,-0.040246,-1.064507
3.628413,0.010872,-0.772678,-0.591477,0.036813,-0.017357,-0.040246,-1.064507
3.638525,0.010872,-0.792134,-0.610170,0.038339,-0.017357,-0.040246,-1.064507
3.648608,0.010872,-0.801671,-0.620089,0.039102,-0.017357,-0.039483,-1.064507
3.658676,0.010872,-0.821126,-0.638781,0.040627,-0.017357,-0.039102,-1.064507
3.668751,0.010872,-0.830281,-0.648317,0.041772,-0.017357,-0.038339,-1.064507
3.678847,0.010872,-0.848974,-0.666247,0.044061,-0.017357,-0.038339,-1.064507
3.689330,0.010872,-0.858130,-0.675403,0.045205,-0.017357,-0.038339,-1.064507
3.699440,0.010872,-0.876059,-0.694095,0.047112,-0.017357,-0.038339,-1.064507
3.709551,0.010872,-0.884832,-0.703250,0.047875,-0.017357,-0.038339,-1.064507
3.719896,0.010872,-0.902380,-0.721180,0.050164,-0.017357,-0.038720,-1.064507
3.730238,0.010872,-0.910773,-0.729572,0.051309,-0.017357,-0.038720,-1.064507
3.740350,0.010872,-0.927558,-0.747120,0.053216,-0.016975,-0.038720,-1.064507
3.750464,0.010872,-0.935950,-0.755512,0.053979,-0.016975,-0.038720,-1.064507
3.760854,0.010872,-0.952353,-0.772297,0.055886,-0.016975,-0.038720,-1.064507
3.770936,0.010872,-0.960364,-0.780308,0.056649,-0.016975,-0.038720,-1.064507
3.781052,0.010872,-0.976768,-0.796712,0.058557,-0.016975,-0.038720,-1.064507
3.791162,0.010872,-0.984779,-0.804723,0.059319,-0.016975,-0.038720,-1.064507
3.801274,0.010872,-1.000801,-0.820363,0.060464,-0.016975,-0.038720,-1.064507
3.811385,0.010872,-1.008812,-0.827611,0.061227,-0.016975,-0.038720,-1.064507
3.821497,0.010872,-1.025215,-0.842488,0.063134,-0.016975,-0.038720,-1.064507
3.831611,0.010872,-1.033608,-0.850119,0.064279,-0.016975,-0.038720,-1.064507
3.841725,0.010872,-1.050012,-0.865759,0.065423,-0.016975,-0.038720,-1.064507
3.851804,0.010872,-1.058022,-0.873007,0.066186,-0.016975,-0.038720,-1.064507
3.861848,0.010872,-1.074807,-0.887503,0.067330,-0.017357,-0.038720,-1.064507
3.871962,0.010872,-1.083200,-0.894369,0.068093,-0.017357,-0.038720,-1.064507
3.882072,0.010872,-1.099604,-0.908103,0.069619,-0.017357,-0.038720,-1.064507
3.892158,0.010872,-1.107996,-0.915351,0.070382,-0.017357,-0.038720,-1.064507
3.902266,0.010872,-1.124781,-0.929465,0.071145,-0.017357,-0.038720,-1.064507
3.912377,0.010872,-1.133554,-0.936713,0.071145,-0.017357,-0.038720,-1.064507
3.922443,0.010872,-1.150339,-0.949683,0.072289,-0.017357,-0.038720,-1.064507
3.932507,0.010872,-1.158732,-0.956168,0.072671,-0.017357,-0.038720,-1.064507
3.942571,0.010872,-1.175517,-0.968758,0.072671,-0.017357,-0.038720,-1.064507
3.952635,0.010872,-1.183909,-0.975243,0.073052,-0.017357,-0.038720,-1.064507
3.962702,0.010872,-1.201076,-0.986687,0.073052,-0.017357,-0.038720,-1.064507
3.972814,0.010872,-1.209468,-0.992409,0.073052,-0.017357,-0.038720,-1.064507
3.982893,0.010872,-1.225872,-1.003090,0.073052,-0.017357,-0.038720,-1.064507
3.992979,0.010872,-1.234264,-1.008430,0.073052,-0.017357,-0.038720,-1.064507
4.003092,0.010872,-1.250286,-1.019112,0.072671,-0.017357,-0.038720,-1.064507
4.013204,0.010872,-1.258297,-1.024452,0.072671,-0.017357,-0.038720,-1.064507
4.023313,0.010872,-1.274319,-1.034753,0.072671,-0.017357,-0.038720,-1.064507
4.033424,0.010872,-1.282331,-1.040475,0.072671,-0.017357,-0.038720,-1.064507
4.043488,0.010872,-1.298734,-1.050775,0.072671,-0.017357,-0.038720,-1.064507
4.053554,0.010872,-1.306363,-1.056115,0.072671,-0.017357,-0.038720,-1.064507
4.063620,0.010872,-1.322003,-1.066033,0.072671,-0.017357,-0.038720,-1.064507
4.073686,0.011253,-1.330014,-1.070992,0.072671,-0.017357,-0.038720,-1.064507
4.083755,0.011253,-1.345274,-1.080529,0.072671,-0.017357,-0.038720,-1.064507
4.093868,0.011253,-1.352903,-1.085107,0.072671,-0.017357,-0.038720,-1.064507
4.103977,0.011253,-1.367781,-1.093882,0.072671,-0.017738,-0.038720,-1.064507
4.114059,0.011253,-1.375029,-1.098078,0.072671,-0.017738,-0.038720,-1.064507
4.124165,0.011253,-1.389524,-1.106852,0.072671,-0.017738,-0.038720,-1.064507
4.134233,0.011253,-1.396772,-1.111048,0.072671,-0.018120,-0.038720,-1.064507
4.144295,0.011253,-1.410888,-1.119440,0.072671,-0.018120,-0.038720,-1.064507
4.154359,0.011253,-1.417754,-1.123636,0.072671,-0.018120,-0.038720,-1.064507
4.164480,0.011253,-1.431487,-1.131266,0.073052,-0.018120,-0.038720,-1.064507
4.174591,0.011253,-1.437972,-1.135080,0.073052,-0.018120,-0.038720,-1.064507
4.184701,0.011253,-1.450942,-1.142710,0.073052,-0.018120,-0.038720,-1.064507
4.194815,0.011253,-1.457427,-1.146524,0.073052,-0.018120,-0.038720,-1.064507
4.204929,0.011253,-1.469635,-1.153772,0.073052,-0.018120,-0.038720,-1.064507
4.215038,0.011253,-1.475739,-1.157207,0.073052,-0.018120,-0.038720,-1.064507
4.225110,0.011253,-1.487946,-1.164454,0.073052,-0.018120,-0.038720,-1.064507
4.235172,0.010872,-1.494049,-1.167888,0.073052,-0.018120,-0.038720,-1.064507
4.245235,0.010872,-1.505875,-1.174754,0.073815,-0.018120,-0.038720,-1.064507
4.255299,0.010872,-1.511597,-1.178187,0.074197,-0.018120,-0.038720,-1.064507
4.265365,0.010872,-1.523041,-1.186198,0.074960,-0.018120,-0.038720,-1.064507
4.275439,0.010872,-1.528381,-1.190013,0.075723,-0.018120,-0.038720,-1.064507
4.285508,0.010872,-1.539063,-1.198405,0.077630,-0.018120,-0.038720,-1.064507
4.295620,0.010872,-1.544404,-1.202601,0.078012,-0.018120,-0.038720,-1.064507
4.305731,0.010872,-1.554704,-1.211757,0.079919,-0.018120,-0.038339,-1.064507
4.315859,0.010872,-1.560044,-1.215953,0.081063,-0.018120,-0.038339,-1.064507
4.325973,0.010872,-1.569963,-1.225491,0.084115,-0.018120,-0.038339,-1.064507
4.336083,0.010872,-1.574922,-1.230450,0.085259,-0.018120,-0.038339,-1.064507
4.346200,0.010872,-1.584840,-1.240368,0.087930,-0.018120,-0.038339,-1.064507
4.356312,0.010872,-1.589799,-1.245327,0.089837,-0.018120,-0.038720,-1.064507
4.366401,0.010872,-1.599718,-1.255627,0.093270,-0.018120,-0.038720,-1.064507
4.376512,0.010872,-1.604296,-1.260967,0.095179,-0.018120,-0.038720,-1.064507
4.386627,0.010872,-1.613832,-1.271648,0.098993,-0.018120,-0.038720,-1.064507
4.396741,0.010872,-1.618410,-1.276989,0.100519,-0.018120,-0.038720,-1.064507
4.406855,0.010872,-1.627565,-1.286908,0.104334,-0.018120,-0.038720,-1.064507
4.416968,0.010872,-1.632143,-1.292249,0.105860,-0.018120,-0.038720,-1.064507
4.427145,0.010872,-1.641298,-1.302167,0.108912,-0.018120,-0.039102,-1.064507
4.437255,0.010872,-1.645494,-1.306745,0.110819,-0.018120,-0.039483,-1.064507
4.447372,0.010872,-1.654268,-1.315900,0.113108,-0.018120,-0.040627,-1.064507
4.457481,0.010872,-1.662280,-1.320096,0.113871,-0.018120,-0.041390,-1.064507
4.467593,0.010872,-1.666476,-1.328107,0.116159,-0.018120,-0.044442,-1.064507
4.477706,0.010872,-1.673724,-1.331922,0.116922,-0.018120,-0.045587,-1.064507
4.487817,0.010872,-1.677539,-1.339170,0.117685,-0.018120,-0.047875,-1.064507
4.497897,0.010872,-1.684405,-1.342603,0.118067,-0.018120,-0.049020,-1.064507
4.508006,0.010872,-1.687457,-1.349089,0.118448,-0.018120,-0.051690,-1.064507
4.518123,0.010872,-1.693561,-1.355192,0.118448,-0.018120,-0.052453,-1.064507
4.528244,0.010872,-1.696612,-1.357862,0.118448,-0.018120,-0.053597,-1.064507
4.538356,0.010872,-1.702334,-1.362440,0.118448,-0.018120,-0.054360,-1.064507
4.548471,0.010872,-1.705005,-1.365110,0.118448,-0.018120,-0.055123,-1.064507
4.558582,0.010872,-1.710727,-1.368925,0.118067,-0.018120,-0.055505,-1.064507
4.568697,0.010872,-1.713397,-1.371214,0.117685,-0.018120,-0.057031,-1.064507
4.578776,0.010872,-1.719120,-1.375029,0.117304,-0.018120,-0.057412,-1.064507
4.588848,0.010872,-1.722172,-1.376936,0.116541,-0.018120,-0.057794,-1.064507
4.598927,0.010872,-1.727894,-1.379988,0.116541,-0.018120,-0.057794,-1.064507
4.609037,0.010872,-1.730564,-1.381514,0.116159,-0.018120,-0.058175,-1.064507
4.619153,0.010872,-1.736286,-1.384565,0.116159,-0.018120,-0.058175,-1.064507
4.629226,0.010872,-1.738956,-1.386091,0.116159,-0.018501,-0.058175,-1.064507
4.639337,0.010872,-1.744297,-1.389143,0.116159,-0.018501,-0.058175,-1.064507
4.649407,0.010872,-1.746967,-1.390287,0.116159,-0.018501,-0.058175,-1.064507
4.659485,0.010872,-1.752308,-1.392958,0.116159,-0.018501,-0.058175,-1.064507
4.669597,0.010872,-1.754978,-1.394102,0.116541,-0.018883,-0.058175,-1.064507
4.679718,0.010872,-1.759937,-1.396391,0.116541,-0.018883,-0.058175,-1.064507
4.689850,0.010872,-1.762608,-1.397535,0.116922,-0.018883,-0.058175,-1.064507
4.699940,0.010872,-1.768330,-1.398680,0.116922,-0.018883,-0.058175,-1.064507
4.710048,0.010872,-1.771000,-1.399061,0.117304,-0.018883,-0.058175,-1.064507
4.720164,0.010872,-1.776340,-1.399824,0.117304,-0.018501,-0.058175,-1.064507
4.730277,0.010872,-1.779011,-1.400206,0.117685,-0.018120,-0.058175,-1.064507
4.740389,0.010872,-1.784734,-1.401350,0.117685,-0.017738,-0.058175,-1.064507
4.750500,0.010872,-1.787404,-1.401731,0.117685,-0.017738,-0.058175,-1.064507
4.760612,0.010872,-1.792745,-1.401731,0.117685,-0.017738,-0.058175,-1.064507
4.770724,0.010872,-1.795415,-1.401731,0.117685,-0.018120,-0.058175,-1.064507
4.780847,0.010872,-1.800756,-1.401731,0.117685,-0.018120,-0.058175,-1.064507
4.790898,0.010872,-1.803044,-1.401731,0.117685,-0.018120,-0.058175,-1.064507
4.801007,0.010872,-1.807622,-1.401731,0.117685,-0.018501,-0.058175,-1.064507
4.811183,0.010872,-1.809911,-1.402113,0.117685,-0.018883,-0.057794,-1.064507
4.821298,0.010872,-1.814488,-1.402494,0.117685,-0.019264,-0.057412,-1.064507
4.831411,0.010872,-1.817159,-1.402494,0.117685,-0.019646,-0.057031,-1.064507
4.841520,0.010872,-1.821355,-1.402876,0.117685,-0.020027,-0.056649,-1.064507
4.851633,0.010872,-1.823644,-1.403257,0.117304,-0.020790,-0.056649,-1.064507
4.861746,0.010872,-1.828221,-1.403639,0.117304,-0.021553,-0.056268,-1.064507
4.871864,0.010872,-1.830129,-1.404020,0.117304,-0.022316,-0.056268,-1.064507
4.881954,0.010872,-1.834706,-1.404402,0.117304,-0.023460,-0.056268,-1.064507
4.892067,0.010872,-1.836995,-1.404783,0.117304,-0.023842,-0.056268,-1.064507
4.902179,0.010872,-1.841954,-1.405928,0.117304,-0.024223,-0.056268,-1.064507
4.912303,0.010872,-1.844244,-1.406692,0.117304,-0.024605,-0.056268,-1.064507
4.922414,0.010872,-1.849585,-1.408599,0.117685,-0.024605,-0.056268,-1.064507
4.932501,0.010872,-1.852255,-1.409362,0.117685,-0.024605,-0.056268,-1.064507
4.942613,0.010872,-1.857595,-1.410888,0.117685,-0.024605,-0.056268,-1.064507
4.952724,0.010872,-1.860266,-1.411651,0.117685,-0.024605,-0.056268,-1.064507
4.962855,0.011253,-1.865606,-1.413939,0.117685,-0.024605,-0.056268,-1.064507
4.972969,0.011253,-1.868277,-1.414702,0.117685,-0.024605,-0.056268,-1.064507
4.983087,0.011253,-1.873617,-1.416228,0.118067,-0.024605,-0.056268,-1.064507
4.993199,0.011253,-1.876287,-1.417373,0.118067,-0.024605,-0.056268,-1.064507
5.003315,0.011253,-1.881247,-1.419662,0.117685,-0.024605,-0.056268,-1.064507
5.013427,0.011253,-1.883917,-1.420806,0.117685,-0.024605,-0.056268,-1.064507
5.023540,0.011253,-1.889257,-1.423476,0.118067,-0.024986,-0.056268,-1.064507
5.033654,0.011253,-1.891546,-1.424621,0.118067,-0.024986,-0.056649,-1.064507
5.043841,0.011253,-1.896505,-1.427672,0.118448,-0.024986,-0.056649,-1.064507
5.053955,0.011253,-1.898794,-1.429198,0.118448,-0.024986,-0.056649,-1.064507
5.064068,0.011253,-1.903753,-1.432250,0.118830,-0.024986,-0.056649,-1.064507
5.074181,0.011253,-1.906042,-1.433776,0.118830,-0.024986,-0.056649,-1.064507
5.084294,0.010872,-1.910239,-1.436446,0.118830,-0.024986,-0.056649,-1.064507
5.094409,0.010872,-1.912528,-1.437591,0.119211,-0.024986,-0.056649,-1.064507
5.104520,0.010872,-1.916343,-1.440261,0.119593,-0.024986,-0.056649,-1.064507
5.114634,0.010872,-1.918250,-1.442168,0.119974,-0.024605,-0.056649,-1.064507
5.124747,0.010872,-1.922065,-1.444839,0.120737,-0.024605,-0.056649,-1.064507
5.134887,0.010872,-1.923972,-1.446746,0.121119,-0.024605,-0.056649,-1.064507
5.145003,0.010872,-1.927787,-1.450179,0.122644,-0.024605,-0.056649,-1.064507
5.155117,0.010872,-1.930076,-1.451705,0.123407,-0.024605,-0.056649,-1.064507
5.165233,0.010872,-1.933890,-1.455520,0.124552,-0.024605,-0.056649,-1.064507
5.175353,0.010872,-1.935798,-1.457046,0.125315,-0.024605,-0.056649,-1.064507
5.185466,0.010872,-1.939612,-1.460479,0.126459,-0.024605,-0.056649,-1.064507
5.195577,0.010872,-1.941520,-1.461623,0.127604,-0.024605,-0.056649,-1.064507
5.205690,0.010872,-1.945334,-1.464675,0.129511,-0.024605,-0.057031,-1.064507
5.215865,0.010872,-1.947242,-1.466582,0.130274,-0.024605,-0.057412,-1.064507
5.225981,0.010872,-1.951056,-1.469635,0.131800,-0.024605,-0.057794,-1.064507
5.236092,0.010872,-1.952582,-1.471161,0.132563,-0.024605,-0.057794,-1.064507
5.246205,0.010872,-1.956397,-1.474213,0.134470,-0.024605,-0.058175,-1.064507
5.256314,0.010872,-1.958304,-1.475739,0.135996,-0.024605,-0.058175,-1.064507
5.266425,0.010872,-1.961738,-1.478790,0.137522,-0.024605,-0.058175,-1.064507
5.276538,0.010872,-1.963645,-1.480316,0.138285,-0.024605,-0.058175,-1.064507
5.286655,0.010872,-1.967460,-1.482986,0.139429,-0.024605,-0.058557,-1.064507
5.296769,0.010872,-1.969368,-1.483749,0.140574,-0.024605,-0.058557,-1.064507
5.306881,0.010872,-1.972801,-1.486801,0.142099,-0.024605,-0.058557,-1.064507
5.316999,0.010872,-1.974709,-1.487946,0.142862,-0.024605,-0.058557,-1.064507
5.327111,0.010872,-1.978142,-1.490616,0.143244,-0.024605,-0.058557,-1.064507
5.337224,0.010872,-1.980049,-1.491760,0.143625,-0.024605,-0.058557,-1.064507
5.347345,0.010872,-1.983864,-1.494049,0.144388,-0.024605,-0.059319,-1.064507
5.357456,0.010872,-1.985771,-1.494812,0.144770,-0.024605,-0.059319,-1.064507
5.367579,0.010872,-1.989586,-1.496338,0.144770,-0.024605,-0.059701,-1.064507
5.377691,0.010872,-1.991493,-1.497101,0.144770,-0.024605,-0.059701,-1.064507
5.387803,0.010872,-1.994926,-1.499008,0.144770,-0.024605,-0.059319,-1.064507
5.397865,0.010872,-1.996834,-1.499771,0.144770,-0.024605,-0.059319,-1.064507
5.407988,0.010872,-2.000648,-1.500916,0.144770,-0.024605,-0.059319,-1.064507
5.418098,0.010872,-2.002556,-1.501297,0.144388,-0.024605,-0.059319,-1.064507
5.428185,0.010872,-2.005989,-1.503204,0.144388,-0.024605,-0.059319,-1.064507
5.438298,0.010872,-2.007896,-1.503967,0.144388,-0.024605,-0.059319,-1.064507
5.448390,0.010872,-2.012093,-1.505875,0.144388,-0.024605,-0.059319,-1.064507
5.458499,0.010872,-2.014000,-1.507019,0.144007,-0.024605,-0.059319,-1.064507
5.468611,0.010872,-2.018196,-1.509689,0.144007,-0.024605,-0.059319,-1.064507
5.478699,0.010872,-2.020485,-1.510834,0.144007,-0.024605,-0.059319,-1.064507
5.488811,0.010872,-2.025063,-1.513504,0.144007,-0.024605,-0.059319,-1.064507
5.498925,0.010872,-2.027351,-1.515030,0.144007,-0.024605,-0.059319,-1.064507
5.509038,0.010872,-2.031930,-1.517319,0.144007,-0.024605,-0.059319,-1.064507
5.519151,0.010872,-2.034219,-1.518845,0.144007,-0.024605,-0.059319,-1.064507
5.529263,0.010872,-2.039178,-1.521896,0.144007,-0.024605,-0.059319,-1.064507
5.539376,0.010872,-2.041848,-1.523041,0.144007,-0.024605,-0.059319,-1.064507
5.549489,0.010872,-2.046426,-1.526474,0.144007,-0.024605,-0.059319,-1.064507
5.559602,0.010872,-2.049096,-1.528000,0.144007,-0.024605,-0.059319,-1.064507
5.569715,0.010872,-2.054055,-1.530670,0.144007,-0.024605,-0.059319,-1.064507
5.579848,0.010872,-2.056344,-1.532578,0.144007,-0.024605,-0.059319,-1.064507
5.589961,0.010872,-2.061685,-1.535630,0.144007,-0.024605,-0.059319,-1.064507
5.600076,0.010872,-2.064355,-1.537156,0.144388,-0.024605,-0.059319,-1.064507
5.610187,0.010872,-2.069314,-1.540589,0.144388,-0.024605,-0.059319,-1.064507
5.620300,0.010872,-2.071984,-1.542115,0.144388,-0.024605,-0.059319,-1.064507
5.630412,0.010872,-2.077325,-1.545548,0.144388,-0.024605,-0.059319,-1.064507
5.640524,0.010872,-2.079995,-1.547074,0.144770,-0.024605,-0.059319,-1.064507
5.650593,0.010872,-2.085717,-1.549745,0.144770,-0.024605,-0.059319,-1.064507
5.660660,0.010872,-2.088387,-1.551270,0.144770,-0.024605,-0.059319,-1.064507
5.670723,0.010872,-2.093728,-1.554322,0.144770,-0.024605,-0.058938,-1.064507
5.680788,0.010872,-2.096399,-1.555467,0.144770,-0.024605,-0.058938,-1.064507
5.690839,0.010872,-2.102121,-1.558137,0.144770,-0.024605,-0.058938,-1.064507
5.700909,0.010872,-2.104792,-1.559663,0.144770,-0.024605,-0.058938,-1.064507
5.711026,0.010872,-2.110514,-1.562333,0.144770,-0.024605,-0.058938,-1.064507
5.721108,0.010872,-2.113565,-1.563859,0.144770,-0.024605,-0.058938,-1.064507
5.731225,0.010872,-2.119287,-1.566911,0.144770,-0.024605,-0.058938,-1.064507
5.741337,0.010872,-2.121958,-1.568437,0.144770,-0.024605,-0.058938,-1.064507
5.751450,0.010872,-2.127680,-1.571107,0.144770,-0.024605,-0.058938,-1.064507
5.761572,0.010872,-2.130350,-1.572633,0.144770,-0.024605,-0.058938,-1.064507
5.771696,0.010872,-2.135691,-1.574922,0.144770,-0.024605,-0.058938,-1.064507
5.781872,0.010872,-2.138361,-1.576447,0.144770,-0.024605,-0.058938,-1.064507
5.791985,0.010872,-2.143702,-1.579118,0.144770,-0.024605,-0.058557,-1.064507
5.802097,0.010872,-2.146753,-1.580262,0.144770,-0.024605,-0.058175,-1.064507
5.812210,0.010872,-2.152094,-1.582932,0.144770,-0.024605,-0.058175,-1.064507
5.822322,0.010872,-2.154764,-1.584077,0.144770,-0.024605,-0.058175,-1.064507
5.832434,0.010872,-2.160106,-1.586366,0.144770,-0.024605,-0.058175,-1.064507
5.842546,0.010872,-2.162776,-1.587510,0.144770,-0.024605,-0.058175,-1.064507
5.852662,0.010872,-2.167735,-1.590180,0.144770,-0.024605,-0.058175,-1.064507
5.862777,0.010872,-2.170405,-1.591325,0.144770,-0.024605,-0.058175,-1.064507
5.872850,0.010872,-2.175364,-1.593614,0.144770,-0.024605,-0.058175,-1.064507
5.882920,0.010872,-2.177653,-1.594759,0.144770,-0.024605,-0.058175,-1.064507
5.892985,0.010872,-2.182231,-1.596666,0.144770,-0.024605,-0.058175,-1.064507
5.903324,0.010872,-2.184520,-1.597811,0.144770,-0.024605,-0.058175,-1.064507
5.913433,0.010872,-2.188334,-1.600100,0.144770,-0.024605,-0.058175,-1.064507
5.923576,0.010872,-2.190242,-1.600863,0.144770,-0.024605,-0.058175,-1.064507
5.933696,0.010872,-2.194057,-1.602770,0.144770,-0.024605,-0.058175,-1.064507
5.943816,0.010872,-2.195964,-1.603914,0.144770,-0.024605,-0.058175,-1.064507
5.953891,0.010872,-2.199397,-1.605822,0.144770,-0.024605,-0.058175,-1.064507
5.964014,0.010872,-2.200541,-1.606585,0.144770,-0.024605,-0.058175,-1.064507
5.974128,0.010872,-2.203593,-1.607729,0.144770,-0.024605,-0.058175,-1.064507
5.984238,0.010872,-2.205119,-1.608110,0.144770,-0.024605,-0.058175,-1.064507
5.994348,0.010872,-2.207026,-1.610018,0.144770,-0.024605,-0.058175,-1.064507
6.004460,0.010872,-2.208171,-1.610781,0.144770,-0.024605,-0.058175,-1.064507
6.014570,0.010872,-2.210460,-1.611544,0.144770,-0.024605,-0.058175,-1.064507
6.024685,0.010872,-2.211604,-1.611925,0.144770,-0.024605,-0.058175,-1.064507
6.034797,0.010872,-2.213893,-1.611925,0.144770,-0.024605,-0.058175,-1.064507
6.044913,0.010872,-2.214656,-1.611925,0.144770,-0.024605,-0.058175,-1.064507
6.055029,0.010872,-2.216563,-1.611925,0.144770,-0.024605,-0.058175,-1.064507
6.065144,0.010872,-2.217326,-1.611925,0.144770,-0.024605,-0.058175,-1.064507
6.075258,0.010872,-2.218853,-1.611925,0.144770,-0.024605,-0.058175,-1.064507
6.085369,0.010872,-2.219616,-1.611925,0.144770,-0.024605,-0.058175,-1.064507
6.095483,0.010872,-2.221142,-1.611925,0.144770,-0.024605,-0.058175,-1.064507
6.105598,0.010872,-2.221905,-1.611925,0.144770,-0.024605,-0.058175,-1.064507
6.115771,0.010872,-2.223812,-1.611925,0.144770,-0.024605,-0.058175,-1.064507
6.125886,0.010872,-2.224957,-1.611925,0.144770,-0.024605,-0.058175,-1.064507
6.135998,0.010872,-2.226482,-1.611925,0.144770,-0.024605,-0.058175,-1.064507
6.146110,0.010872,-2.226864,-1.611925,0.144770,-0.024605,-0.058175,-1.064507
6.156223,0.010872,-2.227627,-1.611544,0.144770,-0.024605,-0.058175,-1.064507
6.166334,0.010872,-2.228008,-1.611544,0.144770,-0.024605,-0.058175,-1.064507
6.176447,0.010872,-2.229153,-1.611544,0.144770,-0.024605,-0.058175,-1.064507
6.186562,0.010872,-2.229916,-1.611544,0.144770,-0.024605,-0.058175,-1.064507
6.196681,0.010872,-2.231441,-1.611544,0.144770,-0.024605,-0.058175,-1.064507
6.206797,0.010872,-2.232204,-1.611544,0.144770,-0.024605,-0.058175,-1.064507
6.216909,0.010872,-2.232967,-1.611544,0.144770,-0.024605,-0.058175,-1.064507
6.227022,0.010872,-2.233349,-1.611544,0.144770,-0.024605,-0.058175,-1.064507
6.237133,0.010872,-2.234112,-1.611544,0.144770,-0.024605,-0.058175,-1.064507
6.247244,0.010872,-2.234493,-1.611544,0.144770,-0.024605,-0.058175,-1.064507
6.257353,0.010872,-2.236019,-1.611544,0.144770,-0.024605,-0.058175,-1.064507
6.267467,0.010872,-2.236782,-1.611544,0.144770,-0.024605,-0.058175,-1.064507
6.277639,0.010872,-2.237926,-1.611925,0.144770,-0.024605,-0.058175,-1.064507
6.287751,0.010872,-2.238308,-1.611925,0.144770,-0.024605,-0.058175,-1.064507
6.297865,0.010872,-2.238308,-1.611925,0.144770,-0.024605,-0.058175,-1.064507
6.307977,0.010872,-2.238308,-1.611925,0.144770,-0.024605,-0.058175,-1.064507
6.318090,0.010872,-2.238308,-1.611544,0.144770,-0.024605,-0.058175,-1.064507
6.328200,0.010872,-2.238308,-1.611544,0.144770,-0.024605,-0.058175,-1.064507
6.338317,0.010872,-2.239071,-1.611544,0.144770,-0.024605,-0.058175,-1.064507
6.348426,0.010872,-2.239452,-1.611544,0.144770,-0.024605,-0.058175,-1.064507
6.358536,0.010872,-2.240597,-1.611544,0.144770,-0.024605,-0.058175,-1.064507
6.368652,0.010872,-2.241360,-1.611544,0.144770,-0.024605,-0.058175,-1.064507
6.378770,0.010872,-2.242504,-1.611544,0.144770,-0.024605,-0.058557,-1.064507
6.388884,0.010872,-2.242886,-1.611544,0.144770,-0.024605,-0.058557,-1.064507
6.398996,0.010872,-2.244030,-1.611544,0.144770,-0.024605,-0.058557,-1.064507
6.409107,0.010872,-2.244030,-1.611544,0.144770,-0.024605,-0.058557,-1.064507
6.419219,0.010872,-2.244793,-1.611544,0.144770,-0.024605,-0.058557,-1.064507
6.429338,0.010872,-2.244793,-1.611544,0.144770,-0.024605,-0.058557,-1.064507
6.439451,0.010872,-2.245174,-1.611544,0.144770,-0.024605,-0.058557,-1.064507
6.449539,0.010872,-2.245937,-1.611544,0.144770,-0.024605,-0.058557,-1.064507
6.459650,0.010872,-2.247845,-1.611544,0.144770,-0.024605,-0.058557,-1.064507
6.469764,0.010872,-2.248989,-1.611544,0.144770,-0.024605,-0.058557,-1.064507
6.479888,0.010872,-2.250515,-1.611544,0.144770,-0.024605,-0.058557,-1.064507
6.489958,0.010872,-2.250896,-1.611544,0.144770,-0.024605,-0.058557,-1.064507
6.500078,0.010872,-2.251278,-1.611544,0.144770,-0.024605,-0.058557,-1.064507
6.510187,0.010872,-2.251278,-1.611544,0.144770,-0.024605,-0.058557,-1.064507
6.520302,0.010872,-2.251278,-1.611544,0.144770,-0.024605,-0.058557,-1.064507
6.530418,0.010872,-2.251659,-1.611544,0.144770,-0.024605,-0.058557,-1.064507
6.540532,0.010872,-2.253185,-1.611544,0.144770,-0.024605,-0.058557,-1.064507
6.550644,0.010872,-2.253948,-1.611544,0.144770,-0.024605,-0.058557,-1.064507
6.560761,0.010872,-2.255856,-1.611544,0.144770,-0.024605,-0.058557,-1.064507
6.570876,0.010872,-2.256618,-1.611544,0.144770,-0.024605,-0.058557,-1.064507
6.580997,0.010872,-2.257763,-1.611544,0.144770,-0.024605,-0.058557,-1.064507
6.591107,0.010872,-2.257763,-1.611544,0.144770,-0.024605,-0.058557,-1.064507
6.601218,0.010872,-2.257763,-1.611544,0.144770,-0.024605,-0.058557,-1.064507
6.611371,0.010872,-2.257763,-1.611544,0.144770,-0.024605,-0.058557,-1.064507
6.621483,0.010872,-2.257763,-1.611544,0.144770,-0.024605,-0.058557,-1.064507
6.631596,0.010872,-2.257763,-1.611544,0.144770,-0.024605,-0.058557,-1.064507
6.641713,0.010872,-2.258907,-1.611544,0.144770,-0.024605,-0.058557,-1.064507
6.651855,0.010872,-2.259289,-1.611544,0.144770,-0.024605,-0.058557,-1.064507
6.661941,0.010872,-2.260815,-1.611544,0.144770,-0.024605,-0.058557,-1.064507
6.672055,0.010872,-2.261196,-1.611544,0.144770,-0.024605,-0.058557,-1.064507
6.682169,0.010872,-2.261959,-1.611544,0.144770,-0.024605,-0.058557,-1.064507
6.692282,0.010872,-2.261959,-1.611544,0.144770,-0.024605,-0.058557,-1.064507
6.702393,0.010872,-2.262722,-1.611544,0.144770,-0.024605,-0.058557,-1.064507
6.712553,0.010872,-2.262722,-1.611544,0.144770,-0.024605,-0.058557,-1.064507
6.722667,0.010872,-2.264248,-1.611544,0.144770,-0.024605,-0.058557,-1.064507
6.732780,0.010872,-2.265011,-1.611544,0.144770,-0.024605,-0.058557,-1.064507
6.742893,0.010872,-2.266537,-1.611544,0.144770,-0.024605,-0.058557,-1.064507
6.752982,0.010872,-2.268444,-1.611544,0.144770,-0.024605,-0.058557,-1.064507
6.763088,0.010872,-2.269207,-1.611544,0.144770,-0.024605,-0.058175,-1.064507
6.773195,0.010872,-2.271496,-1.611544,0.144770,-0.024605,-0.058175,-1.064507
6.783270,0.010872,-2.271877,-1.611925,0.144770,-0.024605,-0.058175,-1.064507
6.793387,0.010872,-2.273022,-1.611925,0.144770,-0.024605,-0.058175,-1.064507
6.803499,0.010872,-2.273785,-1.611925,0.144770,-0.024605,-0.058175,-1.064507
6.813674,0.010872,-2.276073,-1.611925,0.144388,-0.024605,-0.058175,-1.064507
6.823783,0.010872,-2.277218,-1.611925,0.144388,-0.024605,-0.058175,-1.064507
6.833905,0.010872,-2.279125,-1.611925,0.144388,-0.024605,-0.058175,-1.064507
6.844019,0.010872,-2.280270,-1.611925,0.144388,-0.024605,-0.058175,-1.064507
6.854103,0.010872,-2.282559,-1.611925,0.144388,-0.024605,-0.058175,-1.064507
6.864185,0.010872,-2.283322,-1.611925,0.144388,-0.024605,-0.058175,-1.064507
6.874297,0.010872,-2.284848,-1.611925,0.144388,-0.024605,-0.058175,-1.064507
6.884408,0.010872,-2.285230,-1.611925,0.144388,-0.024605,-0.058175,-1.064507
6.894519,0.010872,-2.286374,-1.611925,0.144388,-0.024605,-0.058175,-1.064507
6.904631,0.010872,-2.287137,-1.611925,0.144388,-0.024605,-0.058175,-1.064507
6.914742,0.010872,-2.289426,-1.611925,0.144388,-0.024605,-0.058175,-1.064507
6.924854,0.010872,-2.290189,-1.611925,0.144388,-0.024605,-0.058175,-1.064507
6.934919,0.010872,-2.291333,-1.611925,0.144388,-0.024605,-0.058175,-1.064507
6.944982,0.010872,-2.291715,-1.611925,0.144388,-0.024605,-0.058175,-1.064507
6.955044,0.010872,-2.293241,-1.611925,0.144388,-0.024605,-0.058175,-1.064507
6.965106,0.010872,-2.294003,-1.611925,0.144388,-0.024605,-0.058175,-1.064507
6.975172,0.010872,-2.295148,-1.611925,0.144388,-0.024605,-0.058175,-1.064507
6.985241,0.010872,-2.295529,-1.611925,0.144388,-0.024605,-0.058175,-1.064507
6.995322,0.010872,-2.296292,-1.611925,0.144388,-0.024605,-0.058175,-1.064507
7.005385,0.010872,-2.296292,-1.611925,0.144388,-0.024605,-0.058175,-1.064507
7.015462,0.010872,-2.297055,-1.611925,0.144388,-0.024605,-0.058175,-1.064507
7.025531,0.010872,-2.297437,-1.611925,0.144388,-0.024605,-0.058175,-1.064507
7.035593,0.010872,-2.298200,-1.611925,0.144388,-0.024605,-0.058175,-1.064507
7.045658,0.010872,-2.298581,-1.611925,0.144388,-0.024605,-0.058175,-1.064507
7.055727,0.010872,-2.299726,-1.611925,0.144388,-0.024605,-0.058175,-1.064507
7.065793,0.010872,-2.300107,-1.611925,0.144388,-0.024605,-0.058175,-1.064507
7.075864,0.010872,-2.300870,-1.611925,0.144007,-0.024605,-0.058175,-1.064507
7.085936,0.010872,-2.300870,-1.611925,0.143625,-0.024605,-0.058175,-1.064507
7.096017,0.010872,-2.301633,-1.611925,0.143625,-0.024605,-0.058175,-1.064507
7.106087,0.010872,-2.301633,-1.611925,0.143625,-0.024605,-0.058175,-1.064507
7.116152,0.010872,-2.301633,-1.611925,0.143625,-0.024605,-0.058175,-1.064507
7.126219,0.010872,-2.301633,-1.611925,0.143625,-0.024223,-0.058175,-1.064507
7.136288,0.010872,-2.301633,-1.611925,0.143625,-0.024223,-0.058175,-1.064507
7.146351,0.010872,-2.301633,-1.611925,0.143625,-0.023842,-0.058175,-1.064507
7.156433,0.010872,-2.301633,-1.611925,0.143625,-0.023842,-0.058175,-1.064507
7.166498,0.010872,-2.301633,-1.611925,0.143625,-0.023842,-0.058557,-1.064507
7.176575,0.010872,-2.301633,-1.611925,0.143625,-0.023460,-0.058557,-1.064507
7.186648,0.010872,-2.301633,-1.611925,0.143625,-0.023460,-0.058557,-1.064507
7.196731,0.010872,-2.301633,-1.611925,0.143244,-0.023460,-0.058557,-1.064507
7.206802,0.010872,-2.301633,-1.611925,0.143244,-0.023460,-0.058557,-1.064507
7.216853,0.010872,-2.301633,-1.611925,0.142862,-0.023460,-0.058557,-1.064507
7.226922,0.010872,-2.301633,-1.611925,0.142862,-0.023460,-0.058557,-1.064507
7.236992,0.010872,-2.301633,-1.611925,0.142862,-0.023460,-0.058557,-1.064507
7.247083,0.010872,-2.301633,-1.611925,0.142481,-0.023460,-0.058557,-1.064507
7.257147,0.010872,-2.301633,-1.611925,0.142481,-0.023460,-0.058557,-1.064507
7.267214,0.010872,-2.301633,-1.611925,0.142481,-0.023460,-0.058557,-1.064507
7.277284,0.010872,-2.301633,-1.611925,0.142099,-0.023460,-0.058557,-1.064507
7.287397,0.010872,-2.301633,-1.611925,0.142099,-0.023460,-0.058557,-1.064507
7.297509,0.010872,-2.301633,-1.611925,0.142099,-0.023460,-0.058557,-1.064507
7.307580,0.010872,-2.301633,-1.611925,0.142099,-0.023460,-0.058557,-1.064507
7.317644,0.010872,-2.301633,-1.611925,0.142099,-0.023842,-0.058557,-1.064507
7.327711,0.010872,-2.301633,-1.611925,0.142099,-0.023842,-0.058175,-1.064507
7.337781,0.010872,-2.301633,-1.611925,0.142099,-0.023842,-0.058175,-1.064507
7.347842,0.010872,-2.301633,-1.611925,0.142099,-0.023842,-0.058175,-1.064507
7.357954,0.010872,-2.301633,-1.611925,0.142099,-0.023842,-0.058175,-1.064507
7.368064,0.010872,-2.301633,-1.611925,0.142099,-0.023842,-0.058175,-1.064507
7.378179,0.010872,-2.301633,-1.611925,0.142099,-0.023842,-0.058175,-1.064507
7.388292,0.010872,-2.301633,-1.611925,0.142099,-0.023842,-0.058175,-1.064507
7.398402,0.010872,-2.301633,-1.611925,0.142099,-0.023842,-0.058175,-1.064507
7.408516,0.010872,-2.301633,-1.611925,0.142099,-0.023842,-0.058175,-1.064507
7.418690,0.010872,-2.301633,-1.611925,0.142099,-0.023842,-0.058175,-1.064507
7.428776,0.010872,-2.301633,-1.611925,0.142099,-0.024223,-0.058175,-1.064507
7.438889,0.010872,-2.301633,-1.611925,0.142481,-0.024605,-0.058175,-1.064507
7.449001,0.010872,-2.301633,-1.611925,0.142862,-0.024605,-0.058175,-1.064507
7.459073,0.010872,-2.301633,-1.611925,0.142862,-0.024605,-0.058175,-1.064507
7.469143,0.010872,-2.301633,-1.611544,0.142862,-0.024605,-0.058175,-1.064507
7.479255,0.010872,-2.301633,-1.611544,0.143244,-0.024605,-0.058175,-1.064507
7.489379,0.010872,-2.301633,-1.611544,0.143244,-0.024605,-0.058175,-1.064507
7.499490,0.010872,-2.301633,-1.611544,0.144007,-0.024605,-0.058175,-1.064507
7.509603,0.010872,-2.301633,-1.611544,0.144388,-0.024605,-0.058175,-1.064507
7.519716,0.010872,-2.301633,-1.611544,0.144770,-0.024605,-0.058175,-1.064507
7.529881,0.010872,-2.301633,-1.611544,0.144770,-0.024605,-0.058175,-1.064507
7.539951,0.010872,-2.301633,-1.611544,0.144770,-0.024605,-0.058175,-1.064507
7.550016,0.010872,-2.301633,-1.611544,0.144770,-0.024605,-0.058175,-1.064507
7.560083,0.010872,-2.301633,-1.611544,0.144770,-0.024605,-0.058175,-1.064507
7.570150,0.010872,-2.301633,-1.611544,0.144770,-0.024605,-0.058175,-1.064507
7.580218,0.010872,-2.301633,-1.611544,0.144770,-0.024605,-0.058175,-1.064507
7.590285,0.010872,-2.301633,-1.611544,0.144770,-0.024605,-0.058175,-1.064507
7.600354,0.010872,-2.301633,-1.611544,0.144770,-0.024605,-0.058175,-1.064507
7.610431,0.010872,-2.301633,-1.611544,0.144770,-0.024605,-0.058175,-1.064507
7.620494,0.010872,-2.301633,-1.611544,0.144770,-0.024605,-0.058175,-1.064507
7.630565,0.010872,-2.301633,-1.611544,0.144770,-0.024605,-0.058175,-1.064507
7.640643,0.010872,-2.301633,-1.611544,0.144388,-0.024605,-0.058175,-1.064507
7.650783,0.010872,-2.301633,-1.611544,0.144388,-0.024605,-0.058175,-1.064507
7.660896,0.010872,-2.301633,-1.611544,0.144388,-0.024605,-0.058175,-1.064507
7.670977,0.010872,-2.301633,-1.611544,0.144388,-0.024605,-0.058175,-1.064507
7.681090,0.010872,-2.301633,-1.611544,0.144388,-0.024605,-0.058175,-1.064507
7.691205,0.010872,-2.301633,-1.611544,0.144388,-0.024605,-0.058175,-1.064507
7.701311,0.010872,-2.301633,-1.611544,0.144388,-0.024605,-0.058175,-1.064507
7.711418,0.010872,-2.301633,-1.611544,0.144388,-0.024605,-0.058175,-1.064507
7.721507,0.010872,-2.301633,-1.611544,0.144388,-0.024605,-0.058175,-1.064507
7.731581,0.010872,-2.301633,-1.611544,0.144388,-0.024605,-0.058175,-1.064507
7.741645,0.010872,-2.301633,-1.611544,0.144388,-0.024986,-0.058175,-1.064507
7.751714,0.010872,-2.301633,-1.611544,0.144388,-0.024986,-0.058175,-1.064507
7.761781,0.010872,-2.301633,-1.611544,0.144388,-0.024986,-0.058175,-1.064507
7.771850,0.010872,-2.301633,-1.611544,0.144388,-0.025368,-0.058175,-1.064507
7.781925,0.010872,-2.301633,-1.611544,0.144388,-0.025749,-0.058175,-1.064507
7.791996,0.010872,-2.301633,-1.611544,0.144388,-0.025749,-0.058175,-1.064507
7.802078,0.010872,-2.302014,-1.611544,0.144388,-0.025749,-0.058175,-1.064507
7.812190,0.010872,-2.302014,-1.611544,0.144388,-0.025749,-0.058175,-1.064507
7.822304,0.010872,-2.302777,-1.611544,0.144388,-0.025749,-0.058175,-1.064507
7.832408,0.010872,-2.303159,-1.611544,0.144388,-0.025749,-0.058175,-1.064507
7.842478,0.010872,-2.303540,-1.611925,0.144388,-0.025749,-0.058175,-1.064507
7.852569,0.010872,-2.303540,-1.611925,0.144388,-0.026131,-0.058175,-1.064507
7.862635,0.010872,-2.303540,-1.611925,0.144388,-0.026512,-0.058175,-1.064507
7.872703,0.010872,-2.303540,-1.611925,0.144388,-0.026894,-0.058175,-1.064507
7.882768,0.010872,-2.303540,-1.611925,0.144388,-0.026894,-0.058175,-1.064507
7.893099,0.010872,-2.303540,-1.611925,0.144388,-0.026894,-0.058175,-1.064507
7.903167,0.010872,-2.303540,-1.611925,0.144388,-0.026894,-0.058175,-1.064889
7.913240,0.010872,-2.303540,-1.611925,0.144388,-0.026894,-0.058175,-1.064889
7.923308,0.010872,-2.303540,-1.611925,0.144388,-0.026894,-0.058175,-1.064889
7.933512,0.010872,-2.303540,-1.611925,0.144388,-0.026894,-0.058175,-1.065270
7.943599,0.010872,-2.303540,-1.611925,0.144388,-0.026894,-0.058175,-1.066033
7.953713,0.010872,-2.303540,-1.611925,0.144388,-0.026894,-0.058175,-1.066415
7.963807,0.010872,-2.303540,-1.611925,0.144388,-0.026894,-0.058175,-1.067178
7.973890,0.010872,-2.303540,-1.611925,0.144388,-0.026894,-0.058175,-1.067559
7.983963,0.010872,-2.303540,-1.611544,0.144388,-0.026894,-0.058175,-1.067559
7.994074,0.010872,-2.303540,-1.611544,0.144388,-0.026894,-0.058175,-1.067559
8.004192,0.010872,-2.303540,-1.611544,0.144388,-0.026512,-0.058175,-1.067559
8.014272,0.010872,-2.303540,-1.611544,0.144388,-0.026512,-0.058175,-1.067559
8.024389,0.010872,-2.303540,-1.611544,0.144388,-0.026512,-0.058175,-1.067559
8.034535,0.010872,-2.303540,-1.611544,0.144388,-0.026512,-0.058175,-1.067559
8.044648,0.010872,-2.303540,-1.611544,0.144388,-0.026512,-0.058175,-1.067559
8.054762,0.010872,-2.303540,-1.611544,0.144388,-0.026512,-0.058175,-1.067559
8.064884,0.010872,-2.303540,-1.611544,0.144388,-0.026894,-0.058175,-1.067559
8.074996,0.010872,-2.303540,-1.611544,0.144388,-0.026894,-0.058175,-1.067559
8.085107,0.010872,-2.303540,-1.611544,0.144388,-0.026894,-0.058175,-1.067559
8.095218,0.010872,-2.303540,-1.611544,0.144388,-0.026894,-0.058175,-1.067559
8.105328,0.010872,-2.303540,-1.611544,0.144007,-0.026894,-0.058175,-1.067559
8.115413,0.010872,-2.303540,-1.611544,0.143625,-0.026894,-0.058175,-1.067559
8.125477,0.010872,-2.303540,-1.611544,0.143625,-0.026894,-0.058175,-1.067559
8.135544,0.010872,-2.303922,-1.611544,0.143625,-0.026894,-0.058175,-1.067559
8.145608,0.010872,-2.303922,-1.611544,0.143625,-0.026894,-0.058175,-1.067559
8.155673,0.010872,-2.304303,-1.611544,0.143625,-0.026894,-0.058175,-1.067559
8.165737,0.010872,-2.304685,-1.611544,0.143625,-0.026512,-0.058175,-1.068704
8.175864,0.010872,-2.304685,-1.611544,0.143625,-0.026512,-0.058175,-1.069467
8.185952,0.010872,-2.304685,-1.611544,0.143625,-0.026512,-0.058175,-1.072518
8.196064,0.010872,-2.304685,-1.611544,0.143244,-0.026512,-0.058175,-1.074807
8.206130,0.010872,-2.304685,-1.611544,0.142862,-0.026512,-0.058175,-1.079385
8.216236,0.010872,-2.304685,-1.611544,0.142481,-0.026512,-0.058175,-1.082437
8.226305,0.010872,-2.304685,-1.611544,0.142481,-0.026512,-0.058557,-1.088922
8.236372,0.010872,-2.304685,-1.611544,0.142481,-0.026512,-0.058557,-1.092355
8.246438,0.010872,-2.304685,-1.611544,0.142481,-0.026512,-0.058557,-1.100367
8.256507,0.010872,-2.304685,-1.611544,0.142481,-0.026512,-0.058557,-1.104944
8.266577,0.010872,-2.304685,-1.611544,0.142099,-0.026512,-0.058557,-1.114100
8.276689,0.010872,-2.304685,-1.611544,0.142099,-0.026512,-0.058557,-1.119059
8.286761,0.010872,-2.304685,-1.611544,0.142099,-0.026512,-0.058557,-1.128977
8.296881,0.010872,-2.304685,-1.611544,0.142099,-0.026512,-0.058557,-1.133936
8.306997,0.010872,-2.304685,-1.611544,0.142099,-0.026512,-0.058557,-1.143091
8.317106,0.010872,-2.304685,-1.611544,0.142099,-0.026512,-0.058557,-1.147287
8.327221,0.010872,-2.304685,-1.611544,0.142099,-0.026512,-0.058557,-1.154535
8.337308,0.010872,-2.304685,-1.611544,0.142099,-0.026131,-0.058557,-1.157588
8.347497,0.010872,-2.304685,-1.611544,0.142099,-0.026131,-0.058557,-1.163310
8.357607,0.010872,-2.304685,-1.611544,0.142099,-0.025749,-0.058557,-1.165980
8.367698,0.010872,-2.304685,-1.611544,0.142099,-0.025749,-0.058557,-1.169795
8.377809,0.010872,-2.304685,-1.611544,0.142099,-0.025749,-0.058557,-1.171702
8.387890,0.010872,-2.304685,-1.611544,0.142099,-0.025749,-0.058557,-1.174373
8.398000,0.010872,-2.304685,-1.611544,0.142099,-0.025749,-0.058557,-1.175517
8.408115,0.010872,-2.304685,-1.611544,0.142099,-0.025749,-0.058557,-1.177424
8.418264,0.010872,-2.304685,-1.611544,0.142099,-0.025749,-0.058557,-1.178187
8.428376,0.010872,-2.305066,-1.611544,0.142099,-0.025749,-0.058557,-1.179332
8.438489,0.010872,-2.305448,-1.611544,0.142099,-0.025749,-0.058557,-1.179332
8.448599,0.010872,-2.305448,-1.611544,0.142099,-0.025749,-0.058557,-1.179332
8.458664,0.010872,-2.305448,-1.611544,0.142099,-0.025749,-0.058557,-1.179332
8.468737,0.010872,-2.305448,-1.611544,0.142099,-0.025749,-0.058557,-1.179332
8.478798,0.010872,-2.305448,-1.611544,0.142099,-0.025749,-0.058557,-1.179332
8.488873,0.010872,-2.305448,-1.611544,0.142099,-0.025749,-0.058557,-1.179332
8.498990,0.010872,-2.305829,-1.611544,0.142099,-0.025749,-0.058557,-1.179332
8.509064,0.010872,-2.306211,-1.611544,0.142099,-0.025749,-0.058557,-1.179332
8.519126,0.010872,-2.306211,-1.611544,0.142099,-0.025749,-0.058557,-1.179332
8.529189,0.010872,-2.306592,-1.611544,0.142099,-0.025749,-0.058557,-1.179332
8.539251,0.010872,-2.306592,-1.611544,0.142099,-0.025749,-0.058557,-1.179332
8.549312,0.010872,-2.306973,-1.611544,0.142099,-0.025749,-0.058557,-1.179332
8.559374,0.010872,-2.307355,-1.611544,0.142099,-0.025749,-0.058557,-1.179332
8.569454,0.010872,-2.307355,-1.611544,0.142099,-0.026131,-0.058557,-1.179332
8.579552,0.010872,-2.307355,-1.611544,0.142099,-0.026131,-0.058557,-1.179332
8.589638,0.010872,-2.307736,-1.611544,0.142099,-0.026131,-0.058557,-1.179332
8.599720,0.010872,-2.308499,-1.611544,0.142099,-0.026131,-0.058557,-1.179332
8.609854,0.010872,-2.308499,-1.611544,0.142099,-0.026131,-0.058557,-1.179332
8.619967,0.010872,-2.308881,-1.611544,0.141718,-0.026131,-0.058557,-1.179332
8.630075,0.010872,-2.309262,-1.611544,0.141718,-0.026131,-0.058557,-1.179332
8.640188,0.010872,-2.309262,-1.611544,0.141718,-0.026131,-0.058557,-1.179332
8.650238,0.010872,-2.309644,-1.611544,0.141718,-0.026131,-0.058557,-1.179332
8.660358,0.010872,-2.310025,-1.611544,0.141718,-0.026131,-0.058557,-1.179332
8.670429,0.010872,-2.310407,-1.611544,0.141718,-0.026131,-0.058557,-1.179332
8.680540,0.010872,-2.310407,-1.611544,0.141718,-0.026512,-0.058557,-1.179332
8.690650,0.010872,-2.311170,-1.611544,0.141718,-0.026512,-0.058175,-1.179332
8.700738,0.010872,-2.311170,-1.611544,0.141718,-0.026512,-0.058175,-1.179332
8.710852,0.010872,-2.311551,-1.611544,0.141718,-0.026512,-0.058175,-1.179332
8.720936,0.010872,-2.312314,-1.611544,0.141718,-0.026512,-0.058175,-1.179332
8.731083,0.010872,-2.312314,-1.611544,0.141718,-0.026512,-0.058175,-1.179332
8.741197,0.010872,-2.313077,-1.611544,0.141718,-0.026512,-0.058175,-1.179332
8.751309,0.010872,-2.313458,-1.611544,0.141718,-0.026512,-0.058175,-1.179332
8.761425,0.010872,-2.314221,-1.611544,0.141718,-0.026512,-0.058175,-1.179332
8.771511,0.010872,-2.314603,-1.611544,0.141718,-0.026512,-0.058175,-1.179332
8.781618,0.010872,-2.314984,-1.611544,0.141718,-0.026512,-0.058175,-1.179332
8.791730,0.010872,-2.315366,-1.611544,0.141718,-0.026512,-0.058175,-1.179332
8.802037,0.010872,-2.315747,-1.611544,0.142099,-0.026512,-0.058175,-1.179332
8.812148,0.010872,-2.316129,-1.611544,0.142099,-0.026512,-0.058175,-1.179332
8.822261,0.010872,-2.316510,-1.610781,0.142099,-0.026512,-0.058175,-1.178950
8.832371,0.010872,-2.316892,-1.610781,0.142099,-0.026512,-0.058175,-1.178950
8.842484,0.010872,-2.316892,-1.610781,0.142099,-0.026512,-0.058175,-1.178187
8.852571,0.010872,-2.317655,-1.610781,0.142099,-0.026512,-0.058175,-1.178187
8.862635,0.010872,-2.318036,-1.610781,0.142099,-0.026512,-0.058175,-1.178187
8.872698,0.010872,-2.318799,-1.610781,0.142099,-0.026512,-0.058175,-1.178187
8.882759,0.010872,-2.319562,-1.610781,0.142099,-0.026512,-0.058175,-1.178187
8.892827,0.010872,-2.320325,-1.610781,0.142099,-0.026512,-0.058175,-1.178187
8.902845,0.010872,-2.320706,-1.610781,0.142099,-0.026512,-0.058175,-1.178187
8.912905,0.010872,-2.321469,-1.610781,0.142099,-0.026512,-0.058175,-1.178187
8.922967,0.010872,-2.321851,-1.610781,0.142099,-0.026512,-0.058175,-1.178187
8.933025,0.010872,-2.322232,-1.610781,0.142099,-0.026512,-0.058175,-1.177806
8.943096,0.010872,-2.322614,-1.610781,0.142099,-0.026512,-0.058175,-1.177424
8.953156,0.010872,-2.322995,-1.610781,0.142099,-0.026512,-0.058175,-1.177424
8.963228,0.010872,-2.322995,-1.610781,0.142099,-0.026512,-0.058175,-1.177424
8.973290,0.010872,-2.323377,-1.610781,0.142099,-0.026512,-0.058175,-1.177424
8.983351,0.010872,-2.323377,-1.610781,0.142099,-0.026512,-0.058175,-1.177424
8.993411,0.010872,-2.323758,-1.610781,0.142099,-0.026512,-0.058175,-1.177424
9.003487,0.010872,-2.324140,-1.610781,0.142099,-0.026512,-0.058175,-1.177424
9.013548,0.010872,-2.324521,-1.610781,0.141718,-0.026512,-0.058175,-1.177424
9.023610,0.010872,-2.324903,-1.610781,0.141718,-0.026512,-0.058175,-1.177424
9.033672,0.010872,-2.325284,-1.610781,0.141718,-0.026512,-0.058175,-1.177424
9.043734,0.010872,-2.325665,-1.610781,0.141718,-0.026512,-0.058175,-1.177424
9.053797,0.010872,-2.326810,-1.610781,0.141718,-0.026512,-0.058175,-1.177424
9.063845,0.010872,-2.327191,-1.610781,0.141718,-0.026131,-0.058175,-1.177424
9.073907,0.010872,-2.327573,-1.610781,0.141718,-0.026131,-0.058175,-1.177424
9.083974,0.010872,-2.327954,-1.610781,0.141718,-0.025749,-0.058175,-1.177424
9.094081,0.010872,-2.328336,-1.610781,0.141718,-0.025749,-0.058175,-1.177424
9.104195,0.010872,-2.328717,-1.610781,0.141718,-0.025368,-0.058175,-1.177424
9.114305,0.010872,-2.329099,-1.610781,0.141718,-0.025368,-0.058175,-1.177424
9.124413,0.010872,-2.329862,-1.610781,0.141718,-0.025368,-0.058175,-1.177424
9.134460,0.010872,-2.330625,-1.610781,0.141718,-0.025368,-0.058175,-1.177424
9.144522,0.010872,-2.331006,-1.610399,0.141718,-0.025368,-0.058175,-1.177424
9.154580,0.010872,-2.332150,-1.610399,0.141336,-0.025368,-0.058175,-1.177424
9.164642,0.010872,-2.332532,-1.610399,0.140955,-0.025368,-0.058175,-1.177424
9.174708,0.010872,-2.333676,-1.610018,0.140192,-0.025368,-0.058175,-1.177424
9.184777,0.010872,-2.334058,-1.609636,0.139811,-0.024605,-0.058175,-1.177424
9.194903,0.010872,-2.334439,-1.608873,0.139048,-0.024605,-0.058175,-1.177424
9.204973,0.010872,-2.334439,-1.608873,0.138666,-0.024605,-0.058175,-1.177424
9.215042,0.010872,-2.335202,-1.608110,0.137522,-0.024605,-0.058175,-1.177424
9.225103,0.010872,-2.335584,-1.607729,0.137522,-0.024605,-0.058175,-1.177424
9.235166,0.010872,-2.336347,-1.606966,0.136759,-0.024605,-0.058175,-1.177424
9.245227,0.010872,-2.336347,-1.606585,0.135996,-0.024605,-0.058175,-1.177424
9.255277,0.010872,-2.336347,-1.606203,0.135233,-0.024605,-0.058175,-1.177424
9.265347,0.010872,-2.336347,-1.605822,0.135233,-0.024605,-0.058175,-1.177424
9.275376,0.010872,-2.337110,-1.605440,0.134851,-0.024605,-0.058175,-1.177424
9.285450,0.010872,-2.337491,-1.605440,0.134851,-0.024223,-0.058175,-1.177424
9.295569,0.010872,-2.337491,-1.605059,0.134089,-0.024223,-0.058175,-1.177424
9.305680,0.010872,-2.337873,-1.605059,0.134089,-0.024223,-0.058175,-1.177424
9.315757,0.010872,-2.338254,-1.605059,0.134089,-0.023842,-0.058175,-1.177424
9.325825,0.010872,-2.338635,-1.605059,0.134089,-0.023842,-0.058175,-1.177424
9.335851,0.010872,-2.339017,-1.605059,0.134089,-0.023842,-0.058175,-1.177424
9.345915,0.010872,-2.339398,-1.605059,0.134089,-0.023842,-0.058175,-1.177424
9.355981,0.010872,-2.339780,-1.605059,0.134470,-0.023842,-0.058175,-1.177424
9.366043,0.010872,-2.340161,-1.605059,0.134470,-0.023842,-0.058175,-1.177424
9.376104,0.010872,-2.340161,-1.604677,0.134470,-0.023842,-0.058175,-1.177424
9.386169,0.010872,-2.340543,-1.604677,0.134470,-0.023842,-0.058175,-1.177424
9.396281,0.010872,-2.340924,-1.604296,0.134470,-0.023842,-0.058175,-1.177424
9.406397,0.010872,-2.341306,-1.604296,0.134470,-0.023842,-0.058175,-1.177424
9.416467,0.010872,-2.341687,-1.604296,0.134470,-0.023842,-0.058175,-1.177424
9.426531,0.010872,-2.342069,-1.604296,0.134470,-0.023842,-0.058175,-1.177424
9.436596,0.010872,-2.342069,-1.604296,0.134470,-0.023842,-0.058175,-1.177424
9.446661,0.010872,-2.342450,-1.604296,0.134470,-0.023842,-0.058175,-1.177424
9.456728,0.010872,-2.343213,-1.604296,0.134851,-0.023842,-0.058175,-1.177424
9.466794,0.010872,-2.343213,-1.604296,0.134851,-0.023842,-0.058175,-1.177424
9.476856,0.010872,-2.343977,-1.604296,0.135233,-0.023842,-0.058175,-1.177424
9.486982,0.010872,-2.343977,-1.604296,0.135233,-0.023842,-0.058175,-1.177424
9.497095,0.010872,-2.344358,-1.604296,0.135233,-0.023842,-0.058175,-1.177424
9.507208,0.010872,-2.344740,-1.604296,0.135614,-0.023842,-0.058175,-1.177424
9.517318,0.010872,-2.345503,-1.604296,0.135614,-0.023842,-0.058175,-1.177424
9.527430,0.010872,-2.345884,-1.604296,0.135614,-0.023842,-0.058175,-1.177424
9.537540,0.010872,-2.346266,-1.604296,0.135996,-0.023842,-0.058175,-1.177424
9.547645,0.010872,-2.346647,-1.604296,0.135996,-0.023842,-0.058175,-1.177424
9.557758,0.010872,-2.347410,-1.604296,0.135996,-0.023842,-0.058175,-1.177424
9.567848,0.010872,-2.347792,-1.604296,0.135996,-0.023842,-0.058175,-1.177424
9.578362,0.010872,-2.348173,-1.604296,0.136377,-0.023842,-0.058175,-1.177424
9.588474,0.010872,-2.348555,-1.603914,0.136377,-0.023842,-0.058175,-1.177424
9.598585,0.010872,-2.348936,-1.603914,0.136377,-0.023842,-0.058175,-1.177424
9.608698,0.010872,-2.349318,-1.603914,0.136377,-0.023842,-0.058175,-1.177424
9.618813,0.010872,-2.349318,-1.603914,0.136377,-0.023842,-0.058175,-1.177424
9.628899,0.010872,-2.349318,-1.603914,0.136377,-0.023842,-0.058175,-1.177424
9.639013,0.010872,-2.349318,-1.603914,0.136377,-0.023842,-0.058175,-1.177424
9.649186,0.010872,-2.349318,-1.603914,0.136377,-0.023842,-0.058175,-1.177424
9.659274,0.010872,-2.349318,-1.603914,0.136377,-0.023842,-0.058175,-1.177424
9.669342,0.010872,-2.349318,-1.603914,0.136377,-0.023842,-0.058175,-1.177424
9.679453,0.010872,-2.349318,-1.603914,0.136377,-0.023842,-0.058175,-1.177424
9.689529,0.010872,-2.349318,-1.603914,0.136377,-0.023842,-0.058175,-1.177424
9.699615,0.010872,-2.349318,-1.603914,0.136377,-0.023842,-0.058175,-1.177424
9.709727,0.010872,-2.349318,-1.603914,0.135996,-0.023842,-0.058175,-1.177424
9.719860,0.010872,-2.349318,-1.603914,0.135996,-0.023842,-0.058175,-1.177424
9.729930,0.010872,-2.349318,-1.603914,0.135996,-0.023842,-0.058175,-1.177424
9.739994,0.010872,-2.349318,-1.603914,0.135996,-0.023842,-0.058175,-1.177424
9.750065,0.010872,-2.349318,-1.603914,0.135996,-0.023842,-0.058175,-1.177424
9.760186,0.010872,-2.349318,-1.603914,0.135996,-0.023842,-0.058175,-1.177424
9.770358,0.010872,-2.349318,-1.603914,0.135996,-0.023842,-0.058175,-1.177424
9.780472,0.010872,-2.349318,-1.603914,0.135996,-0.023842,-0.058175,-1.177424
9.790583,0.010872,-2.349318,-1.603914,0.135996,-0.023842,-0.058175,-1.177424
9.800691,0.010872,-2.349318,-1.603914,0.135996,-0.023842,-0.058175,-1.177424
9.810809,0.010872,-2.349318,-1.603914,0.135996,-0.023842,-0.058175,-1.177424
9.820893,0.010872,-2.349318,-1.603914,0.135996,-0.023842,-0.058175,-1.177424
9.831013,0.010872,-2.349318,-1.603914,0.135996,-0.023842,-0.058175,-1.177424
9.841125,0.010872,-2.349318,-1.603914,0.135996,-0.023842,-0.058175,-1.177424
9.851189,0.010872,-2.349318,-1.603914,0.135996,-0.023842,-0.058175,-1.177424
9.861282,0.010872,-2.349318,-1.603914,0.135996,-0.023842,-0.058175,-1.177424
9.872752,0.010872,-2.349318,-1.603914,0.136377,-0.023842,-0.058175,-1.177424
9.882837,0.010872,-2.349318,-1.603914,0.136377,-0.023842,-0.058175,-1.177424
9.892910,0.010872,-2.349318,-1.603914,0.136377,-0.023842,-0.058175,-1.177424
9.902990,0.010872,-2.349318,-1.603914,0.136377,-0.023842,-0.058175,-1.177424
9.913064,0.010872,-2.349318,-1.603914,0.136377,-0.023842,-0.058175,-1.177424
9.923142,0.010872,-2.349318,-1.603914,0.136377,-0.023842,-0.058175,-1.177424
9.933222,0.010872,-2.349318,-1.603914,0.136377,-0.023842,-0.058175,-1.177424
9.943298,0.010872,-2.349318,-1.603914,0.136377,-0.023842,-0.058175,-1.177424
9.953372,0.010872,-2.349318,-1.603914,0.136377,-0.023842,-0.058175,-1.177424
9.963445,0.010872,-2.349318,-1.603914,0.136377,-0.023842,-0.058175,-1.177424
9.973523,0.010872,-2.349318,-1.603914,0.136377,-0.023842,-0.058175,-1.177424
9.983597,0.010872,-2.349318,-1.603914,0.136377,-0.023842,-0.058175,-1.177424
9.993664,0.010872,-2.349318,-1.603914,0.136377,-0.023842,-0.058175,-1.177424
10.003737,0.010872,-2.349318,-1.603914,0.136377,-0.023460,-0.058175,-1.177424
10.013851,0.010872,-2.349318,-1.603914,0.136377,-0.023460,-0.058175,-1.177424
10.023935,0.010872,-2.349318,-1.603914,0.136377,-0.023460,-0.058175,-1.177424
10.034025,0.010872,-2.349318,-1.603914,0.136377,-0.023460,-0.058175,-1.177424
10.044143,0.010872,-2.349318,-1.603533,0.136377,-0.023460,-0.058175,-1.177424
10.054258,0.010872,-2.349318,-1.603151,0.136377,-0.023460,-0.058175,-1.177424
10.064345,0.010872,-2.349318,-1.603151,0.136377,-0.023460,-0.058175,-1.177424
10.074415,0.010872,-2.349318,-1.603151,0.136377,-0.023460,-0.058175,-1.177424
10.084485,0.010872,-2.349318,-1.603151,0.136377,-0.023460,-0.058175,-1.177424
10.094555,0.010872,-2.349318,-1.603151,0.136759,-0.023460,-0.058175,-1.177424
10.104628,0.010872,-2.349318,-1.603151,0.137140,-0.023460,-0.058175,-1.177424
10.114692,0.010872,-2.349318,-1.603151,0.137140,-0.023460,-0.058175,-1.177424
10.124759,0.010872,-2.349318,-1.603151,0.137140,-0.023842,-0.058175,-1.177424
10.134843,0.010872,-2.349318,-1.603151,0.137522,-0.023842,-0.058175,-1.177424
10.145190,0.010872,-2.349318,-1.602770,0.137522,-0.023842,-0.058175,-1.177424
10.155300,0.010872,-2.349318,-1.602770,0.137903,-0.023842,-0.058175,-1.177424
10.165630,0.010872,-2.349318,-1.602770,0.137903,-0.023842,-0.058175,-1.177424
10.175743,0.010872,-2.349318,-1.602770,0.138285,-0.023842,-0.058175,-1.177424
10.185861,0.010872,-2.349318,-1.602770,0.138285,-0.023842,-0.058175,-1.177424
10.195972,0.010872,-2.349318,-1.602007,0.138285,-0.023842,-0.058175,-1.177424
10.206080,0.010872,-2.349318,-1.602007,0.138285,-0.023842,-0.058175,-1.177424
10.216222,0.010872,-2.349318,-1.602007,0.138285,-0.023842,-0.058175,-1.177424
10.226333,0.010872,-2.349318,-1.602007,0.138285,-0.023842,-0.058175,-1.177424
10.236423,0.010872,-2.349318,-1.602007,0.138285,-0.023842,-0.058175,-1.177424
10.246532,0.010872,-2.349318,-1.602007,0.138285,-0.023842,-0.058175,-1.177424
10.256603,0.010872,-2.349318,-1.602007,0.138285,-0.023842,-0.058175,-1.177424
10.266667,0.010872,-2.349318,-1.602007,0.138285,-0.023842,-0.058175,-1.177424
10.276733,0.010872,-2.349318,-1.602007,0.138285,-0.023842,-0.058175,-1.177424
10.286799,0.010872,-2.349318,-1.602007,0.138285,-0.023842,-0.058175,-1.177424
10.296863,0.010872,-2.349318,-1.602007,0.138285,-0.023842,-0.058175,-1.177424
10.306975,0.010872,-2.349318,-1.602007,0.138285,-0.023842,-0.058175,-1.177424
10.317097,0.010872,-2.349318,-1.602007,0.138285,-0.023842,-0.058175,-1.177424
10.327212,0.010872,-2.349318,-1.602007,0.138285,-0.023842,-0.058175,-1.177424
10.337323,0.010872,-2.349318,-1.602007,0.138285,-0.023842,-0.058175,-1.177424
10.347433,0.010872,-2.349318,-1.602007,0.138285,-0.023842,-0.058175,-1.177424
10.357549,0.010872,-2.349318,-1.602007,0.138285,-0.023842,-0.058175,-1.177424
10.367632,0.010872,-2.349318,-1.602007,0.138285,-0.023842,-0.058175,-1.177424
10.377743,0.010872,-2.349318,-1.602007,0.138285,-0.023842,-0.058175,-1.177424
10.387859,0.010872,-2.349318,-1.602007,0.138285,-0.023842,-0.058175,-1.177424
10.397970,0.010872,-2.349318,-1.601244,0.138285,-0.023842,-0.058175,-1.177424
10.408090,0.010872,-2.349318,-1.600863,0.138285,-0.023842,-0.058175,-1.177424
10.418180,0.010872,-2.349318,-1.600100,0.138285,-0.023842,-0.058175,-1.177424
10.428295,0.010872,-2.349318,-1.599718,0.137903,-0.023842,-0.058175,-1.177424
10.438380,0.010872,-2.349318,-1.599337,0.137903,-0.023842,-0.057794,-1.177424
10.448461,0.010872,-2.349318,-1.599337,0.137903,-0.023842,-0.057412,-1.177424
10.458531,0.010872,-2.349318,-1.599337,0.138285,-0.023460,-0.057031,-1.177424
10.468608,0.010872,-2.349318,-1.599337,0.138285,-0.023460,-0.057031,-1.177424
10.478720,0.010872,-2.349318,-1.599337,0.138285,-0.023460,-0.057031,-1.177424
10.489060,0.010872,-2.349318,-1.599337,0.138285,-0.023460,-0.057031,-1.177424
10.499171,0.010872,-2.349318,-1.599337,0.138285,-0.023460,-0.057031,-1.177424
10.509237,0.010872,-2.349318,-1.599337,0.138285,-0.023460,-0.057031,-1.177424
10.519314,0.010872,-2.349318,-1.599337,0.138285,-0.023842,-0.057031,-1.177424
10.529388,0.010872,-2.349318,-1.599337,0.138285,-0.023842,-0.057031,-1.177424
10.539506,0.010872,-2.349318,-1.599337,0.138666,-0.023842,-0.057031,-1.177424
10.549862,0.010872,-2.349318,-1.599337,0.139048,-0.023842,-0.057031,-1.177424
10.559947,0.010872,-2.349318,-1.599337,0.139429,-0.023842,-0.057031,-1.177424
10.570011,0.010872,-2.349318,-1.599337,0.140192,-0.023842,-0.057031,-1.177424
10.580093,0.010872,-2.349318,-1.599337,0.140192,-0.023842,-0.057031,-1.177424
10.590180,0.010872,-2.349318,-1.599337,0.141336,-0.023842,-0.057031,-1.177424
10.600264,0.010872,-2.349318,-1.599337,0.142099,-0.023842,-0.057031,-1.177424
10.610331,0.010872,-2.349318,-1.599337,0.142862,-0.023842,-0.057031,-1.177424
10.620398,0.010872,-2.349318,-1.599337,0.143244,-0.023842,-0.057031,-1.177424
10.630462,0.010872,-2.349318,-1.599337,0.144388,-0.023842,-0.057031,-1.177424
10.640571,0.010872,-2.349318,-1.599337,0.144770,-0.023842,-0.057031,-1.177424
10.650682,0.010872,-2.349318,-1.599337,0.145151,-0.023842,-0.057031,-1.177424
10.660754,0.010872,-2.349318,-1.599337,0.145914,-0.023842,-0.057031,-1.177424
10.670824,0.010872,-2.349318,-1.599337,0.147058,-0.023842,-0.057031,-1.177424
10.680866,0.010872,-2.349318,-1.599337,0.147440,-0.023842,-0.057031,-1.177424
10.690949,0.010872,-2.349318,-1.599337,0.148584,-0.023842,-0.057031,-1.177424
10.701093,0.010872,-2.349318,-1.599337,0.148966,-0.023842,-0.057031,-1.177424
10.711210,0.010872,-2.349318,-1.599337,0.149347,-0.023842,-0.057031,-1.177424
10.721323,0.010872,-2.349318,-1.599337,0.149347,-0.023842,-0.057031,-1.177424
10.731434,0.010872,-2.349318,-1.599337,0.149347,-0.023842,-0.057031,-1.177424
10.741549,0.010872,-2.349318,-1.599337,0.149347,-0.023842,-0.057031,-1.177424
10.751662,0.010872,-2.349318,-1.599337,0.149347,-0.023842,-0.057031,-1.177424
10.761778,0.010872,-2.349318,-1.599337,0.149347,-0.023842,-0.057031,-1.177424
10.771898,0.010872,-2.349318,-1.599337,0.149347,-0.023842,-0.057031,-1.177424
10.782009,0.010872,-2.349318,-1.599337,0.149347,-0.023842,-0.057031,-1.177424
10.792121,0.010872,-2.349318,-1.599337,0.149347,-0.023842,-0.057031,-1.177424
10.802247,0.010872,-2.349318,-1.599337,0.149347,-0.023842,-0.057031,-1.177424
10.812358,0.010872,-2.349318,-1.599337,0.149347,-0.023842,-0.057031,-1.177424
10.822480,0.010872,-2.349318,-1.599337,0.149347,-0.023842,-0.057031,-1.177424
10.832599,0.010872,-2.349318,-1.599337,0.149347,-0.023842,-0.057031,-1.177424
10.842711,0.010872,-2.349318,-1.599337,0.149347,-0.023842,-0.057031,-1.177424
10.852814,0.010872,-2.349318,-1.599337,0.148966,-0.023842,-0.057031,-1.177424
10.862845,0.010872,-2.349318,-1.599337,0.148966,-0.023842,-0.057031,-1.177424
10.872915,0.010872,-2.349318,-1.599337,0.148966,-0.023842,-0.057031,-1.177424
10.883028,0.010872,-2.349318,-1.599337,0.148584,-0.023842,-0.057031,-1.177424
10.893149,0.010872,-2.349318,-1.599337,0.148584,-0.023842,-0.056649,-1.177424
10.903270,0.010872,-2.349318,-1.599337,0.148584,-0.023842,-0.056649,-1.177424
10.913743,0.010872,-2.349318,-1.599337,0.148584,-0.023842,-0.056649,-1.177424
10.923881,0.010872,-2.349318,-1.599337,0.148584,-0.023842,-0.056649,-1.177424
10.933950,0.010872,-2.349318,-1.599337,0.148584,-0.023842,-0.056649,-1.177424
10.944012,0.010872,-2.349318,-1.599337,0.148584,-0.023842,-0.056649,-1.177424
10.954075,0.010872,-2.349318,-1.599337,0.148584,-0.023842,-0.056649,-1.177424
10.964136,0.010872,-2.349318,-1.599337,0.148584,-0.023842,-0.056649,-1.177424
10.974199,0.010872,-2.349318,-1.599337,0.148584,-0.023842,-0.056649,-1.177424
10.984279,0.010872,-2.349318,-1.599337,0.148584,-0.023842,-0.056649,-1.177424
10.994366,0.010872,-2.349318,-1.599337,0.148584,-0.023842,-0.056649,-1.177424
11.004475,0.010872,-2.349318,-1.599337,0.148584,-0.023842,-0.056649,-1.177424
11.014603,0.010872,-2.349318,-1.599337,0.148584,-0.023842,-0.056649,-1.177424
11.024680,0.010872,-2.349318,-1.599337,0.148584,-0.023842,-0.056649,-1.177424
11.034748,0.010872,-2.349318,-1.599337,0.148584,-0.023842,-0.056649,-1.177424
11.044816,0.010872,-2.349318,-1.599337,0.148584,-0.023842,-0.056649,-1.177424
11.054859,0.010872,-2.349318,-1.599337,0.148584,-0.023842,-0.056649,-1.177424
11.064923,0.010872,-2.349318,-1.599337,0.148584,-0.023842,-0.056649,-1.177424
11.075004,0.010872,-2.349318,-1.599337,0.148584,-0.023842,-0.056649,-1.177424
11.085094,0.010872,-2.349318,-1.599337,0.148584,-0.023842,-0.056649,-1.177424
11.095206,0.010872,-2.349318,-1.599337,0.148584,-0.023842,-0.056649,-1.177424
11.105271,0.010872,-2.349318,-1.599337,0.148584,-0.023842,-0.056649,-1.177424
11.115399,0.010872,-2.349318,-1.599337,0.148584,-0.023842,-0.056649,-1.177424
11.125508,0.010872,-2.349318,-1.599337,0.148584,-0.023842,-0.056649,-1.177424
11.135617,0.010872,-2.349318,-1.599337,0.148584,-0.023842,-0.056649,-1.177424
11.145704,0.010872,-2.349318,-1.599337,0.148584,-0.023842,-0.056649,-1.177424
11.155826,0.010872,-2.349318,-1.599337,0.148584,-0.023842,-0.056649,-1.177424
11.165939,0.010872,-2.349318,-1.599337,0.148584,-0.023842,-0.056649,-1.177424
11.176051,0.010872,-2.349318,-1.599337,0.148584,-0.023842,-0.056649,-1.177424
11.186210,0.010872,-2.349318,-1.599337,0.148584,-0.023842,-0.056649,-1.177424
11.196325,0.010872,-2.349318,-1.599337,0.148584,-0.023842,-0.056649,-1.177424
11.206434,0.010872,-2.349318,-1.599337,0.148584,-0.023842,-0.056649,-1.177424
11.216566,0.010872,-2.349318,-1.599337,0.148584,-0.023842,-0.056649,-1.177424
11.226675,0.010872,-2.349318,-1.599337,0.148584,-0.023842,-0.056649,-1.177424
11.236785,0.010872,-2.349318,-1.599337,0.148584,-0.023842,-0.056649,-1.177424
11.246888,0.010872,-2.349318,-1.599337,0.148203,-0.023842,-0.056649,-1.177424
11.256957,0.010872,-2.349318,-1.599337,0.148203,-0.023842,-0.056649,-1.177424
11.267024,0.010872,-2.349318,-1.599337,0.147821,-0.023842,-0.056649,-1.177424
11.277134,0.010872,-2.349318,-1.599337,0.147440,-0.023842,-0.056649,-1.177424
11.287252,0.010872,-2.349318,-1.599337,0.146296,-0.023842,-0.056649,-1.177424
11.297362,0.010872,-2.349318,-1.599337,0.145914,-0.023842,-0.056649,-1.177424
11.307476,0.010872,-2.349318,-1.599337,0.144770,-0.023842,-0.056649,-1.177424
11.317587,0.010872,-2.349318,-1.599337,0.144007,-0.023842,-0.056649,-1.177424
11.327698,0.010872,-2.349318,-1.599337,0.143244,-0.023842,-0.056649,-1.177424
11.337808,0.010872,-2.349318,-1.599337,0.142481,-0.023842,-0.056649,-1.177424
11.347891,0.010872,-2.349318,-1.599337,0.141336,-0.024223,-0.056649,-1.177424
11.358014,0.010872,-2.349318,-1.599337,0.140574,-0.024605,-0.056649,-1.177424
11.368124,0.010872,-2.349318,-1.599337,0.138666,-0.024986,-0.056649,-1.177424
11.378244,0.010872,-2.349318,-1.599337,0.137522,-0.024986,-0.056649,-1.177424
11.388354,0.010872,-2.349318,-1.599337,0.135614,-0.024986,-0.056649,-1.177424
11.398465,0.010872,-2.349318,-1.599337,0.134851,-0.024986,-0.056649,-1.177424
11.408573,0.010872,-2.349318,-1.599337,0.132944,-0.024986,-0.056649,-1.177424
11.418692,0.010872,-2.349318,-1.599337,0.131800,-0.024986,-0.056649,-1.177424
11.428801,0.010872,-2.349318,-1.599337,0.129892,-0.025368,-0.056649,-1.177424
11.438890,0.010872,-2.349318,-1.599337,0.128748,-0.025749,-0.056649,-1.177424
11.449006,0.010872,-2.349318,-1.599337,0.127222,-0.026131,-0.056649,-1.177424
11.459119,0.010872,-2.349318,-1.599337,0.126078,-0.026512,-0.056649,-1.177424
11.469230,0.010872,-2.349318,-1.599337,0.123789,-0.026894,-0.056649,-1.177424
11.479340,0.010872,-2.349318,-1.599337,0.123026,-0.026894,-0.057031,-1.177424
11.489451,0.010872,-2.349318,-1.599337,0.121500,-0.026894,-0.057412,-1.177424
11.499560,0.010872,-2.349318,-1.599337,0.121119,-0.026894,-0.057794,-1.177424
11.509678,0.010872,-2.349318,-1.599337,0.119593,-0.026512,-0.057794,-1.177424
11.519787,0.010872,-2.349318,-1.599337,0.119211,-0.026512,-0.057794,-1.177424
11.529850,0.010872,-2.349318,-1.599337,0.118067,-0.026512,-0.057412,-1.177424
11.540188,0.010872,-2.349318,-1.599337,0.117685,-0.026512,-0.057412,-1.177424
11.550299,0.010872,-2.349318,-1.599337,0.117304,-0.026512,-0.057412,-1.177424
11.560372,0.010872,-2.349318,-1.599337,0.117304,-0.026512,-0.057412,-1.177424
11.570471,0.010872,-2.349318,-1.599337,0.117304,-0.026512,-0.057412,-1.177424
11.580579,0.010872,-2.349318,-1.599337,0.117304,-0.026512,-0.057412,-1.177424
11.590754,0.010872,-2.349318,-1.599337,0.117304,-0.026512,-0.057412,-1.177424
11.600870,0.010872,-2.349318,-1.599337,0.117304,-0.026512,-0.057412,-1.177424
11.610986,0.010872,-2.349318,-1.599337,0.117304,-0.026512,-0.057412,-1.177424
11.621096,0.010872,-2.349318,-1.599337,0.117304,-0.026512,-0.057412,-1.177424
11.631207,0.010872,-2.349318,-1.599337,0.117304,-0.026512,-0.057412,-1.177424
11.641294,0.010872,-2.349318,-1.599337,0.117304,-0.026512,-0.057412,-1.177424
11.651365,0.010872,-2.349318,-1.599337,0.117685,-0.026512,-0.057412,-1.177424
11.661439,0.010872,-2.349318,-1.599337,0.117685,-0.026512,-0.057412,-1.177424
11.671508,0.010872,-2.349318,-1.599337,0.118448,-0.026512,-0.057412,-1.177424
11.681617,0.010872,-2.349318,-1.599337,0.118448,-0.026512,-0.057412,-1.177424
11.691727,0.010872,-2.349318,-1.599337,0.119211,-0.026512,-0.057412,-1.177424
11.701857,0.010872,-2.349318,-1.599337,0.119974,-0.026131,-0.057412,-1.177424
11.711967,0.010872,-2.349318,-1.599337,0.121881,-0.026131,-0.057031,-1.177424
11.722041,0.010872,-2.349318,-1.599337,0.122644,-0.025749,-0.056649,-1.177424
11.732150,0.010872,-2.349318,-1.599337,0.123789,-0.025368,-0.055886,-1.177424
11.742224,0.010872,-2.349318,-1.599337,0.124552,-0.025749,-0.055505,-1.177424
11.752293,0.010872,-2.349318,-1.599337,0.126078,-0.025749,-0.055505,-1.177424
11.762406,0.010872,-2.349318,-1.599337,0.126841,-0.025749,-0.055505,-1.177424
11.772485,0.010872,-2.349318,-1.599337,0.128366,-0.025749,-0.055505,-1.177424
11.782605,0.010872,-2.349318,-1.599337,0.129511,-0.025749,-0.055505,-1.177424
11.792674,0.010872,-2.349318,-1.599337,0.129892,-0.025749,-0.055505,-1.177424
11.802789,0.010872,-2.349318,-1.598955,0.131037,-0.025749,-0.055505,-1.177424
11.812900,0.010872,-2.349318,-1.598955,0.131418,-0.025749,-0.055505,-1.177424
11.823010,0.010872,-2.349318,-1.598574,0.131800,-0.025749,-0.055505,-1.177424
11.833128,0.010872,-2.349318,-1.598574,0.131800,-0.025749,-0.055505,-1.177424
11.843239,0.010872,-2.349318,-1.598192,0.132944,-0.025749,-0.055505,-1.177424
11.853309,0.010872,-2.349318,-1.598192,0.133707,-0.025749,-0.055505,-1.177424
11.863421,0.010872,-2.349318,-1.597811,0.134089,-0.025749,-0.055505,-1.177424
11.873594,0.010872,-2.349318,-1.597811,0.134470,-0.025749,-0.055505,-1.177424
11.883710,0.010872,-2.349318,-1.597811,0.134470,-0.025749,-0.055505,-1.177424
11.893781,0.010872,-2.349318,-1.597811,0.134851,-0.025749,-0.055505,-1.177424
11.903860,0.010872,-2.349318,-1.597811,0.135233,-0.025749,-0.055505,-1.177424
11.913973,0.010872,-2.349318,-1.597811,0.135233,-0.025749,-0.055505,-1.177424
11.924046,0.010872,-2.349318,-1.597811,0.135233,-0.025749,-0.055505,-1.177424
11.934156,0.010872,-2.349318,-1.597811,0.135233,-0.025749,-0.055505,-1.177424
11.944226,0.010872,-2.349318,-1.597429,0.135233,-0.025749,-0.055505,-1.177424
11.954290,0.010872,-2.349318,-1.597429,0.135233,-0.025749,-0.055505,-1.177424
11.964406,0.010872,-2.349318,-1.597429,0.135614,-0.025368,-0.055505,-1.177424
11.974578,0.010872,-2.349699,-1.597429,0.135614,-0.025368,-0.055505,-1.177424
11.984689,0.010872,-2.349699,-1.597429,0.135614,-0.025368,-0.055505,-1.177424
11.994801,0.010872,-2.350080,-1.597429,0.135614,-0.025368,-0.055505,-1.177424
12.004864,0.010872,-2.350462,-1.597429,0.135614,-0.025368,-0.055505,-1.177424
12.014932,0.010872,-2.350462,-1.597429,0.135614,-0.025368,-0.055505,-1.177424
12.025001,0.010872,-2.350843,-1.597429,0.135614,-0.025368,-0.055505,-1.177424
12.035054,0.010872,-2.350843,-1.597429,0.135614,-0.025368,-0.055505,-1.177424
12.045122,0.010872,-2.351225,-1.597429,0.135614,-0.025368,-0.055505,-1.177424
12.055192,0.010872,-2.351225,-1.597429,0.135614,-0.025368,-0.055505,-1.177424
12.065257,0.010872,-2.351225,-1.597429,0.135614,-0.025368,-0.055505,-1.177424
12.075331,0.010872,-2.351225,-1.597429,0.135614,-0.025368,-0.055505,-1.177424
12.085411,0.010872,-2.351225,-1.597429,0.135614,-0.025368,-0.055505,-1.177424
12.095481,0.010872,-2.351225,-1.597429,0.135614,-0.025368,-0.055505,-1.177424
12.105554,0.010872,-2.351225,-1.597429,0.135614,-0.025368,-0.055505,-1.177424
12.115666,0.010872,-2.351225,-1.597429,0.135614,-0.025368,-0.055505,-1.177424
12.125742,0.010872,-2.351225,-1.597429,0.135614,-0.025749,-0.055505,-1.177424
12.135902,0.010872,-2.351225,-1.597429,0.135614,-0.025749,-0.055505,-1.177424
12.145966,0.010872,-2.351225,-1.597429,0.135614,-0.025749,-0.055505,-1.177424
12.156034,0.010872,-2.351225,-1.597429,0.135614,-0.025749,-0.055505,-1.177424
12.166117,0.010872,-2.351225,-1.597429,0.135614,-0.025749,-0.055505,-1.177424
12.176230,0.010872,-2.351225,-1.597429,0.135614,-0.025749,-0.055505,-1.177424
12.186293,0.010872,-2.351225,-1.597429,0.135614,-0.025749,-0.055505,-1.177424
12.196363,0.010872,-2.351225,-1.597429,0.135614,-0.025749,-0.055505,-1.177424
12.206431,0.010872,-2.351225,-1.597429,0.135996,-0.025749,-0.055505,-1.177424
12.216498,0.010872,-2.351225,-1.597429,0.135996,-0.025749,-0.055505,-1.177424
12.226567,0.010872,-2.351225,-1.597429,0.135996,-0.025749,-0.055505,-1.177424
12.236690,0.010872,-2.351225,-1.597429,0.135996,-0.025749,-0.055505,-1.177424
12.246782,0.010872,-2.351225,-1.597429,0.135614,-0.025749,-0.055505,-1.177424
12.256867,0.010872,-2.351225,-1.597429,0.135614,-0.025749,-0.055505,-1.177424
12.266979,0.010872,-2.351225,-1.597429,0.135233,-0.025749,-0.055505,-1.177424
12.277088,0.010872,-2.351225,-1.597429,0.135233,-0.025749,-0.055505,-1.177424
12.287205,0.010872,-2.351225,-1.597429,0.135233,-0.025749,-0.055505,-1.177424
12.297317,0.010872,-2.351225,-1.597429,0.135233,-0.025749,-0.055505,-1.177424
12.307433,0.010872,-2.351225,-1.597429,0.135233,-0.025749,-0.055505,-1.177424
12.317546,0.010872,-2.351225,-1.597429,0.135233,-0.025749,-0.055505,-1.177424
12.327660,0.010872,-2.351225,-1.597429,0.135233,-0.025749,-0.055505,-1.177424
12.337769,0.010872,-2.351225,-1.597429,0.135233,-0.025749,-0.055505,-1.177424
12.347892,0.010872,-2.351225,-1.597429,0.135233,-0.025749,-0.055505,-1.177424
12.358005,0.010872,-2.351225,-1.597429,0.135233,-0.025749,-0.055505,-1.177424
12.368116,0.010872,-2.351225,-1.597429,0.135233,-0.025749,-0.055505,-1.177424
12.378231,0.010872,-2.351225,-1.597429,0.135233,-0.025749,-0.055505,-1.177424
12.388343,0.010872,-2.351225,-1.597429,0.135233,-0.025749,-0.055505,-1.177424
12.398458,0.010872,-2.351225,-1.597429,0.135233,-0.025749,-0.055505,-1.177424
12.408573,0.010872,-2.351225,-1.597429,0.135233,-0.025749,-0.055505,-1.177424
12.418686,0.010872,-2.351225,-1.597429,0.135233,-0.025749,-0.055505,-1.177424
12.428799,0.010872,-2.351225,-1.597429,0.135233,-0.025749,-0.055505,-1.177424
12.438845,0.010872,-2.351225,-1.597429,0.135233,-0.025749,-0.055505,-1.177424
12.449007,0.010872,-2.351225,-1.597429,0.135233,-0.025749,-0.055505,-1.177424
12.459084,0.010872,-2.351225,-1.597429,0.135233,-0.025749,-0.055505,-1.177424
12.469192,0.010872,-2.351225,-1.597429,0.135233,-0.025749,-0.055505,-1.177424
12.479305,0.010872,-2.351225,-1.597429,0.135233,-0.025749,-0.055505,-1.177424
12.489376,0.010872,-2.351225,-1.597429,0.135233,-0.025749,-0.055505,-1.177424
12.499485,0.010872,-2.351225,-1.597429,0.134851,-0.025749,-0.055505,-1.177424
12.509573,0.010872,-2.351225,-1.597429,0.134851,-0.025749,-0.055505,-1.177424
12.519686,0.010872,-2.351225,-1.597429,0.134851,-0.025749,-0.055505,-1.177424
12.529752,0.010872,-2.351225,-1.597429,0.134851,-0.025749,-0.055505,-1.177424
12.539817,0.010872,-2.351225,-1.597429,0.134851,-0.025749,-0.055505,-1.177424
12.549851,0.010872,-2.351225,-1.597429,0.134851,-0.025749,-0.055505,-1.177424
12.559924,0.010872,-2.351225,-1.597429,0.134851,-0.025749,-0.055505,-1.177424
12.570033,0.010872,-2.351225,-1.597429,0.134851,-0.025749,-0.055505,-1.177424
12.580144,0.010872,-2.351225,-1.597429,0.134851,-0.025749,-0.055505,-1.177424
12.590255,0.010872,-2.351225,-1.597429,0.134851,-0.025749,-0.055505,-1.177424
12.600367,0.010872,-2.351225,-1.597429,0.134851,-0.025749,-0.055505,-1.177424
12.610439,0.010872,-2.351225,-1.597429,0.134851,-0.025749,-0.055505,-1.177424
12.620560,0.010872,-2.351606,-1.597429,0.134851,-0.025749,-0.055505,-1.177424
12.630634,0.010872,-2.351606,-1.597429,0.134851,-0.025749,-0.055505,-1.177424
12.640721,0.010872,-2.352369,-1.597429,0.134851,-0.025749,-0.055505,-1.177424
12.650866,0.010872,-2.352751,-1.597429,0.134851,-0.026131,-0.055505,-1.177424
12.660952,0.010872,-2.353132,-1.597429,0.134089,-0.026512,-0.055505,-1.177424
12.671051,0.010872,-2.353132,-1.597429,0.134089,-0.026894,-0.055505,-1.177424
12.681166,0.010872,-2.353132,-1.597429,0.133707,-0.026894,-0.055505,-1.177424
12.691278,0.010872,-2.353514,-1.597429,0.133326,-0.026894,-0.055505,-1.177424
12.701387,0.010872,-2.353514,-1.597429,0.133326,-0.027275,-0.055505,-1.177424
12.711499,0.010872,-2.354277,-1.597429,0.132944,-0.027657,-0.055505,-1.177424
12.721614,0.010872,-2.354658,-1.597429,0.132181,-0.028801,-0.055505,-1.177424
12.731723,0.010872,-2.355040,-1.597429,0.131800,-0.028801,-0.055505,-1.177424
12.741850,0.010872,-2.355040,-1.597429,0.131418,-0.029182,-0.055505,-1.177424
12.751963,0.010872,-2.355040,-1.597429,0.131418,-0.029564,-0.055505,-1.177424
12.762073,0.010872,-2.355421,-1.597429,0.131037,-0.029564,-0.055505,-1.177424
12.772166,0.010872,-2.355421,-1.597429,0.130655,-0.029945,-0.055505,-1.177424
12.782277,0.010872,-2.355803,-1.597429,0.130655,-0.030327,-0.055505,-1.177424
12.792389,0.010490,-2.355803,-1.597429,0.130274,-0.030327,-0.055505,-1.177424
12.802504,0.010109,-2.355803,-1.597429,0.130274,-0.030708,-0.055505,-1.177424
12.812617,0.010109,-2.355803,-1.597429,0.130274,-0.030708,-0.055505,-1.177424
12.822692,0.010109,-2.355803,-1.597429,0.129892,-0.030708,-0.055505,-1.177424
12.832777,0.010109,-2.355803,-1.597429,0.129511,-0.030708,-0.055505,-1.177424
12.842891,0.010109,-2.355803,-1.597429,0.129511,-0.030708,-0.055505,-1.177424
12.853001,0.010109,-2.355803,-1.597429,0.129511,-0.030708,-0.055505,-1.177424
12.863072,0.010109,-2.355803,-1.597429,0.129511,-0.030708,-0.055505,-1.177424
12.873141,0.010109,-2.355803,-1.597429,0.129511,-0.030327,-0.055505,-1.177424
12.883249,0.010109,-2.355803,-1.597429,0.129511,-0.030327,-0.055505,-1.177424
12.893357,0.010109,-2.355803,-1.597429,0.129129,-0.030327,-0.055505,-1.177424
12.903470,0.010109,-2.355803,-1.597429,0.129129,-0.030327,-0.055505,-1.177424
12.913582,0.010109,-2.355803,-1.597429,0.129511,-0.030327,-0.055505,-1.177424
12.923669,0.010109,-2.355803,-1.597429,0.129511,-0.030327,-0.055505,-1.177424
12.933775,0.010109,-2.355803,-1.597429,0.129511,-0.030327,-0.055505,-1.177424
12.943869,0.010109,-2.355803,-1.597429,0.129511,-0.030327,-0.055505,-1.177424
12.953979,0.010109,-2.355803,-1.597429,0.129892,-0.030327,-0.055505,-1.177424
