meetsitaram/go2-rebot/recordings/test_20260423_100508.csv
t,joint1,joint2,joint3,joint4,joint5,joint6
0.000609,0.063134,-0.004005,-0.006676,-0.001335,0.003624,0.057794
0.010724,0.063134,-0.004005,-0.006676,-0.001335,0.003624,0.058938
0.020837,0.063134,-0.004005,-0.006676,-0.001335,0.003624,0.063897
0.030955,0.063134,-0.004005,-0.006676,-0.001335,0.004005,0.067712
0.041078,0.063134,-0.004005,-0.006676,-0.001335,0.004005,0.077630
0.051192,0.063134,-0.004005,-0.006676,-0.001335,0.004005,0.084115
0.061287,0.063134,-0.004005,-0.006676,-0.001335,0.003624,0.097086
0.071398,0.063134,-0.004005,-0.006676,-0.000954,0.003624,0.103571
0.081504,0.063134,-0.004005,-0.006676,-0.000954,0.003624,0.115778
0.091567,0.063134,-0.004005,-0.006676,-0.000954,0.003624,0.121119
0.101630,0.063134,-0.004005,-0.006676,-0.000954,0.003624,0.129892
0.111697,0.063134,-0.004005,-0.006676,-0.000954,0.003624,0.133326
0.121759,0.063134,-0.004005,-0.006676,-0.000954,0.003624,0.137522
0.131827,0.063134,-0.004005,-0.006676,-0.000954,0.003624,0.138666
0.141941,0.063134,-0.004005,-0.006676,-0.000954,0.003624,0.138285
0.152054,0.063134,-0.004005,-0.006676,-0.000954,0.003624,0.137522
0.162135,0.063134,-0.004005,-0.006676,-0.000572,0.004387,0.133707
0.172247,0.063134,-0.004005,-0.006676,-0.000572,0.004768,0.130655
0.182364,0.063134,-0.004005,-0.006676,-0.000191,0.005150,0.122644
0.192480,0.063134,-0.004005,-0.006676,-0.000191,0.005531,0.118067
0.202519,0.063134,-0.004005,-0.006676,-0.000191,0.005531,0.108149
0.212587,0.063134,-0.004005,-0.006676,-0.000191,0.005531,0.103189
0.222700,0.063134,-0.004005,-0.006676,-0.000191,0.005150,0.093652
0.232815,0.063134,-0.004005,-0.006676,-0.000191,0.005150,0.089456
0.242924,0.062753,-0.004005,-0.006676,-0.000191,0.005150,0.081445
0.253036,0.062753,-0.004005,-0.006676,-0.000191,0.004768,0.077630
0.263146,0.062371,-0.004005,-0.006676,-0.000191,0.004387,0.071145
0.273260,0.062371,-0.004005,-0.006676,-0.000191,0.004005,0.068093
0.283385,0.062371,-0.004005,-0.006676,-0.000191,0.004005,0.061608
0.293603,0.062371,-0.004005,-0.006676,-0.000191,0.004005,0.058557
0.303673,0.062371,-0.004005,-0.006676,-0.000191,0.004005,0.052072
0.313744,0.062371,-0.004005,-0.006676,-0.000191,0.004005,0.049020
0.323855,0.062371,-0.004005,-0.006676,-0.000191,0.004005,0.042535
0.333925,0.062371,-0.004005,-0.006676,-0.000191,0.004005,0.039102
0.344034,0.062371,-0.004005,-0.006676,-0.000191,0.004005,0.032617
0.354147,0.062371,-0.004005,-0.006676,-0.000191,0.004005,0.029182
0.364261,0.062371,-0.004005,-0.006676,-0.000191,0.004387,0.025749
0.374372,0.062371,-0.004005,-0.006676,-0.000191,0.004387,0.018501
0.384485,0.062371,-0.004005,-0.006676,-0.000191,0.004387,0.014687
0.394537,0.062371,-0.004005,-0.006676,-0.000191,0.004387,0.007057
0.404649,0.062371,-0.004005,-0.006676,-0.000191,0.004005,0.002861
0.414759,0.062371,-0.004005,-0.006676,-0.000191,0.004005,-0.005531
0.424870,0.062371,-0.004005,-0.006676,-0.000191,0.004005,-0.009727
0.434983,0.062371,-0.004005,-0.006676,-0.000191,0.004005,-0.018883
0.445069,0.062371,-0.004005,-0.006676,-0.000191,0.004005,-0.023079
0.455178,0.062371,-0.004005,-0.006676,-0.000191,0.004387,-0.031854
0.465267,0.062371,-0.004005,-0.006676,-0.000191,0.004387,-0.036050
0.475382,0.062371,-0.004005,-0.006676,-0.000191,0.004387,-0.044061
0.485455,0.062371,-0.004005,-0.006676,-0.000191,0.004387,-0.047875
0.495515,0.062371,-0.004005,-0.006676,-0.000191,0.004387,-0.054742
0.505576,0.062371,-0.004005,-0.006676,-0.000191,0.004387,-0.058175
0.515638,0.062371,-0.004005,-0.006676,-0.000191,0.004387,-0.063516
0.525752,0.062371,-0.004005,-0.006676,-0.000191,0.004387,-0.065804
0.535864,0.062371,-0.004005,-0.006676,-0.000191,0.004387,-0.069619
0.545974,0.062371,-0.004005,-0.006676,-0.000191,0.004387,-0.071145
0.556040,0.062371,-0.004005,-0.006676,-0.000191,0.004387,-0.073434
0.566122,0.062371,-0.004005,-0.006676,-0.000191,0.004387,-0.074197
0.576287,0.062371,-0.004005,-0.006676,-0.000191,0.004387,-0.075341
0.586397,0.062371,-0.004005,-0.006676,-0.000191,0.004387,-0.075723
0.596524,0.062371,-0.004005,-0.006676,-0.000191,0.004387,-0.076104
0.606609,0.062371,-0.004005,-0.006676,-0.000191,0.004387,-0.076104
0.616685,0.062371,-0.004005,-0.006676,-0.000191,0.004387,-0.076104
0.626766,0.062371,-0.004005,-0.006676,-0.000191,0.004387,-0.076104
0.636836,0.062371,-0.004005,-0.006676,-0.000191,0.004387,-0.076104
0.646916,0.062371,-0.004005,-0.006676,-0.000191,0.004387,-0.076104
0.656986,0.062371,-0.004005,-0.006676,-0.000191,0.004387,-0.076104
0.667065,0.062371,-0.004005,-0.006676,-0.000191,0.004387,-0.076104
0.677131,0.062371,-0.004005,-0.006676,-0.000191,0.004387,-0.076104
0.687197,0.062371,-0.004005,-0.006676,-0.000191,0.004387,-0.076104
0.697270,0.062371,-0.004005,-0.006676,-0.000191,0.004387,-0.076104
0.707344,0.062371,-0.004005,-0.006676,-0.000191,0.004387,-0.076104
0.717412,0.062371,-0.004005,-0.006676,-0.000191,0.004387,-0.076104
0.727486,0.062371,-0.004005,-0.006676,-0.000191,0.004387,-0.076104
0.737554,0.062371,-0.004005,-0.006676,-0.000191,0.004387,-0.076104
0.747622,0.062371,-0.004005,-0.006676,-0.000572,0.004387,-0.076104
0.757742,0.062371,-0.004005,-0.006676,-0.000572,0.004387,-0.076104
0.767855,0.062371,-0.004005,-0.006676,-0.000572,0.004387,-0.076104
0.777928,0.062371,-0.004005,-0.006676,-0.000572,0.004387,-0.076104
0.788013,0.062371,-0.004005,-0.006676,-0.000572,0.004387,-0.076104
0.798079,0.062371,-0.004005,-0.006676,-0.000572,0.004387,-0.076104
0.808159,0.062371,-0.004005,-0.006676,-0.000572,0.004387,-0.076104
0.818226,0.062371,-0.004005,-0.006676,-0.000572,0.004387,-0.076104
0.828293,0.062371,-0.004005,-0.006676,-0.000572,0.004387,-0.076104
0.838361,0.062371,-0.004005,-0.006676,-0.000572,0.004387,-0.076104
0.848428,0.062371,-0.004005,-0.006676,-0.000572,0.004387,-0.076104
0.858493,0.062371,-0.004005,-0.006676,-0.000572,0.004387,-0.076104
0.868559,0.062371,-0.004005,-0.006676,-0.000572,0.004387,-0.076104
0.878641,0.062371,-0.004005,-0.006676,-0.000572,0.004387,-0.076104
0.888708,0.062371,-0.004005,-0.006676,-0.000572,0.004387,-0.076104
0.898775,0.062371,-0.004005,-0.006676,-0.000572,0.004387,-0.076104
0.908839,0.062371,-0.004005,-0.006676,-0.000572,0.004387,-0.076104
0.918921,0.062371,-0.004005,-0.006676,-0.000572,0.004387,-0.076104
0.928991,0.062371,-0.004005,-0.006676,-0.000572,0.004387,-0.076104
0.939057,0.062371,-0.004005,-0.006676,-0.000572,0.004387,-0.076104
0.949126,0.062371,-0.004005,-0.006676,-0.000572,0.004387,-0.076104
0.959200,0.062371,-0.004005,-0.006676,-0.000572,0.004387,-0.076104
0.969271,0.062371,-0.004005,-0.006676,-0.000572,0.004387,-0.076104
0.979337,0.062371,-0.004005,-0.006676,-0.000572,0.004387,-0.076104
0.989405,0.062371,-0.004005,-0.006676,-0.000572,0.004387,-0.076104
0.999471,0.062371,-0.004005,-0.006676,-0.000572,0.004387,-0.076104
1.009539,0.062371,-0.004005,-0.006676,-0.000572,0.004387,-0.076104
1.019636,0.062371,-0.004005,-0.006676,-0.000572,0.004387,-0.076104
1.029721,0.062371,-0.004005,-0.006676,-0.000572,0.004387,-0.076104
1.039832,0.062371,-0.004005,-0.006676,-0.000572,0.004387,-0.076104
1.049917,0.062371,-0.004005,-0.006676,-0.000572,0.004387,-0.076104
1.060025,0.062371,-0.004005,-0.006676,-0.000572,0.004387,-0.076104
1.070140,0.062371,-0.004005,-0.006676,-0.000572,0.004387,-0.076104
1.080228,0.062371,-0.004005,-0.006676,-0.000572,0.004387,-0.076104
1.090300,0.062371,-0.004005,-0.006676,-0.000572,0.004387,-0.075723
1.100373,0.062371,-0.004005,-0.006676,-0.000572,0.004387,-0.075723
1.110451,0.062371,-0.004005,-0.006676,-0.000572,0.004387,-0.074960
1.120564,0.062371,-0.004005,-0.006676,-0.000572,0.004387,-0.074197
1.130676,0.062371,-0.004005,-0.006676,-0.000572,0.004387,-0.072671
1.140789,0.062371,-0.004005,-0.006676,-0.000572,0.004387,-0.071527
1.150899,0.062371,-0.004005,-0.006676,-0.000572,0.004387,-0.068856
1.160987,0.062371,-0.004005,-0.006676,-0.000572,0.004387,-0.067712
1.171098,0.062371,-0.004005,-0.006676,-0.000572,0.004387,-0.065804
1.181165,0.062371,-0.004005,-0.006676,-0.000572,0.004387,-0.065042
1.191273,0.062371,-0.004005,-0.006676,-0.000572,0.004387,-0.063897
1.201381,0.062371,-0.004005,-0.006676,-0.000572,0.004387,-0.063897
1.211469,0.062371,-0.004005,-0.006676,-0.000572,0.004387,-0.063897
1.221578,0.062371,-0.004005,-0.006676,-0.000572,0.004387,-0.063897
1.231692,0.062371,-0.004005,-0.006676,-0.000572,0.004387,-0.063897
1.241804,0.062371,-0.004005,-0.006676,-0.000572,0.004387,-0.063897
1.251927,0.062371,-0.004005,-0.006676,-0.000572,0.004387,-0.063516
1.262013,0.062371,-0.004005,-0.006676,-0.000572,0.004387,-0.063516
1.272120,0.062371,-0.004005,-0.006676,-0.000572,0.004387,-0.063134
1.282290,0.062371,-0.004005,-0.006676,-0.000572,0.004387,-0.062753
1.292357,0.062371,-0.004005,-0.006676,-0.000572,0.004387,-0.062753
1.302426,0.062371,-0.004005,-0.006676,-0.000572,0.004387,-0.062753
1.312522,0.062371,-0.004005,-0.006676,-0.000572,0.004387,-0.062753
1.323009,0.062371,-0.004005,-0.006676,-0.000572,0.004387,-0.063134
1.333119,0.062371,-0.004005,-0.006676,-0.000572,0.004387,-0.063134
1.343456,0.062371,-0.004005,-0.006676,-0.000572,0.004387,-0.063134
1.353536,0.062371,-0.004005,-0.006676,-0.000572,0.004387,-0.063134
1.363623,0.062371,-0.004005,-0.006676,-0.000572,0.004387,-0.063134
1.373711,0.062371,-0.004005,-0.006676,-0.000572,0.004387,-0.063134
1.383824,0.062371,-0.004005,-0.006676,-0.000572,0.004387,-0.063134
1.393934,0.062371,-0.004005,-0.006676,-0.000572,0.004387,-0.063134
1.404049,0.062371,-0.004005,-0.006676,-0.000572,0.004387,-0.063134
1.414227,0.062371,-0.004005,-0.006676,-0.000572,0.004387,-0.063134
1.424333,0.062371,-0.004005,-0.006676,-0.000572,0.004387,-0.063134
1.434397,0.062371,-0.004005,-0.006676,-0.000572,0.004387,-0.063134
1.444571,0.062371,-0.004005,-0.006676,-0.000572,0.004387,-0.063134
1.454690,0.062371,-0.004005,-0.006676,-0.000572,0.004387,-0.063134
1.464806,0.062371,-0.004005,-0.006676,-0.000572,0.004387,-0.063134
1.474917,0.062371,-0.004005,-0.006676,-0.000572,0.004387,-0.063134
1.485036,0.062371,-0.004005,-0.006676,-0.000572,0.004387,-0.063134
1.495153,0.062371,-0.004005,-0.006676,-0.000572,0.004387,-0.063134
1.505261,0.062371,-0.004005,-0.006676,-0.000572,0.004387,-0.063134
1.515373,0.062371,-0.004005,-0.006676,-0.000572,0.004387,-0.063134
1.525487,0.062371,-0.004005,-0.006676,-0.000572,0.004387,-0.063134
1.535602,0.062371,-0.004005,-0.006676,-0.000572,0.004387,-0.063134
1.545687,0.062371,-0.004005,-0.006676,-0.000572,0.004387,-0.063134
1.555755,0.062371,-0.004005,-0.006676,-0.000572,0.004387,-0.063134
1.565826,0.062371,-0.004005,-0.006676,-0.000572,0.004387,-0.063134
1.575902,0.062371,-0.004005,-0.006676,-0.000572,0.004387,-0.063134
1.586021,0.062371,-0.004005,-0.006676,-0.000572,0.004387,-0.063134
1.596100,0.062371,-0.004005,-0.006676,-0.000572,0.004387,-0.063134
1.606211,0.062371,-0.004005,-0.006676,-0.000572,0.004387,-0.063134
1.616325,0.062371,-0.004005,-0.006676,-0.000572,0.004387,-0.063134
1.626437,0.062371,-0.004005,-0.006676,-0.000572,0.004387,-0.063134
1.636589,0.062371,-0.004005,-0.006676,-0.000572,0.004387,-0.063134
1.646698,0.062371,-0.004005,-0.006676,-0.000572,0.004387,-0.063134
1.656811,0.062371,-0.004005,-0.006676,-0.000572,0.004387,-0.063134
1.666921,0.062371,-0.004005,-0.006676,-0.000572,0.004387,-0.063134
1.677035,0.062371,-0.004005,-0.006676,-0.000572,0.004387,-0.063134
1.687146,0.062371,-0.004005,-0.006676,-0.000572,0.004387,-0.063134
1.697258,0.062371,-0.004005,-0.006676,-0.000572,0.004387,-0.063134
1.707374,0.062371,-0.004005,-0.006676,-0.000572,0.004387,-0.063134
1.717492,0.062371,-0.004005,-0.006676,-0.000572,0.004387,-0.063134
1.727610,0.062371,-0.004005,-0.006676,-0.000572,0.004387,-0.063134
1.737699,0.062371,-0.004005,-0.006676,-0.000572,0.004387,-0.062753
1.747872,0.062371,-0.004005,-0.006676,-0.000572,0.004387,-0.062753
1.757985,0.062371,-0.004005,-0.006676,-0.000572,0.004387,-0.062753
1.768088,0.062371,-0.004005,-0.006676,-0.000572,0.004387,-0.062753
1.778202,0.062371,-0.004005,-0.006676,-0.000572,0.004387,-0.062753
1.788318,0.062371,-0.004005,-0.006676,-0.000572,0.004387,-0.062753
1.798381,0.062371,-0.004005,-0.006676,-0.000572,0.004387,-0.062753
1.808444,0.062371,-0.004005,-0.006676,-0.000572,0.004387,-0.062753
1.818560,0.062371,-0.004005,-0.006676,-0.000572,0.004387,-0.062753
1.828679,0.062371,-0.004005,-0.006676,-0.000572,0.004387,-0.062753
1.838766,0.062371,-0.004005,-0.006676,-0.000572,0.004387,-0.062753
1.848913,0.062371,-0.004005,-0.006676,-0.000572,0.004387,-0.063134
1.859025,0.062371,-0.004005,-0.006676,-0.000572,0.004387,-0.063134
1.869106,0.062371,-0.004005,-0.006676,-0.000572,0.004387,-0.063134
1.879214,0.062371,-0.004005,-0.006676,-0.000572,0.004387,-0.063134
1.889332,0.062371,-0.004005,-0.006676,-0.000572,0.004387,-0.063516
1.899418,0.062371,-0.004005,-0.006676,-0.000572,0.004387,-0.063516
1.909530,0.062371,-0.004005,-0.006676,-0.000572,0.004387,-0.063897
1.919645,0.062371,-0.004005,-0.006676,-0.000572,0.004387,-0.063897
1.929752,0.062371,-0.004005,-0.006676,-0.000572,0.004387,-0.064279
1.939864,0.062371,-0.004005,-0.006676,-0.000572,0.004387,-0.064279
1.949975,0.062371,-0.004005,-0.006676,-0.000572,0.004387,-0.064660
1.960088,0.062371,-0.004005,-0.006676,-0.000572,0.004387,-0.064660
1.970202,0.062371,-0.004005,-0.006676,-0.000572,0.004387,-0.064660
1.980316,0.062371,-0.004005,-0.006676,-0.000572,0.004387,-0.064660
1.990429,0.062371,-0.004005,-0.006676,-0.000572,0.004387,-0.064660
2.000500,0.062371,-0.004005,-0.006676,-0.000572,0.004387,-0.064660
2.010565,0.062371,-0.004005,-0.006676,-0.000572,0.004387,-0.064660
2.020626,0.062371,-0.004005,-0.006676,-0.000572,0.004387,-0.064660
2.030694,0.062371,-0.004005,-0.006676,-0.000572,0.004387,-0.064660
2.040757,0.062371,-0.004005,-0.006676,-0.000572,0.004387,-0.064660
2.050818,0.062371,-0.004005,-0.006676,-0.000572,0.004387,-0.064660
2.060877,0.062371,-0.004005,-0.006676,-0.000572,0.004387,-0.064660
2.070946,0.062371,-0.004005,-0.006676,-0.000572,0.004387,-0.064660
2.081007,0.062371,-0.004005,-0.006676,-0.000572,0.004387,-0.064660
2.091071,0.062371,-0.004005,-0.006676,-0.000572,0.004387,-0.064660
2.101145,0.062371,-0.004005,-0.006676,-0.000572,0.004387,-0.064660
2.111256,0.062371,-0.004005,-0.006676,-0.000572,0.004387,-0.064660
2.121371,0.062371,-0.004005,-0.006676,-0.000572,0.004387,-0.064660
2.131522,0.062371,-0.004005,-0.006676,-0.000572,0.004387,-0.064660
2.141636,0.062371,-0.004005,-0.006676,-0.000572,0.004387,-0.064660
2.151747,0.062371,-0.004005,-0.006676,-0.000572,0.004387,-0.064660
2.161859,0.062371,-0.004005,-0.006676,-0.000572,0.004387,-0.064660
2.171974,0.062371,-0.004005,-0.006676,-0.000572,0.004768,-0.064660
2.182153,0.062371,-0.004005,-0.006676,-0.000572,0.004768,-0.065042
2.192279,0.062371,-0.004005,-0.006676,-0.000572,0.004768,-0.065042
2.202346,0.062371,-0.004005,-0.006676,-0.000572,0.004768,-0.065042
2.212521,0.062371,-0.004005,-0.006676,-0.000572,0.004768,-0.065042
2.222634,0.062371,-0.004005,-0.006676,-0.000572,0.004768,-0.065042
2.232748,0.062371,-0.004005,-0.006676,-0.000572,0.004768,-0.065042
2.242860,0.062371,-0.004005,-0.006676,-0.000572,0.004768,-0.065042
2.252972,0.062371,-0.004005,-0.006676,-0.000572,0.004768,-0.065042
2.263085,0.062371,-0.004005,-0.006676,-0.000572,0.004768,-0.065042
2.273207,0.062371,-0.004005,-0.006676,-0.000572,0.004768,-0.065042
2.283319,0.062371,-0.004005,-0.006676,-0.000572,0.004768,-0.065042
2.293436,0.062371,-0.004005,-0.006676,-0.000572,0.004768,-0.065042
2.303520,0.062371,-0.004005,-0.006676,-0.000572,0.005150,-0.065042
2.313566,0.062371,-0.004005,-0.006676,-0.000572,0.005150,-0.065042
2.323681,0.062371,-0.004005,-0.006676,-0.000572,0.005150,-0.065042
2.333795,0.062371,-0.004005,-0.006676,-0.000572,0.005531,-0.065042
2.343908,0.062371,-0.004005,-0.006676,-0.000572,0.005531,-0.065042
2.353999,0.062371,-0.004005,-0.006676,-0.000572,0.005150,-0.065042
2.364106,0.062371,-0.004005,-0.006676,-0.000572,0.005150,-0.065042
2.374219,0.062371,-0.004005,-0.006676,-0.000572,0.005150,-0.064660
2.384297,0.062371,-0.004005,-0.006676,-0.000572,0.005150,-0.064660
2.394671,0.062371,-0.004005,-0.006676,-0.000572,0.005150,-0.064660
2.404733,0.062371,-0.004005,-0.006676,-0.000572,0.004768,-0.064660
2.414797,0.062371,-0.004005,-0.006676,-0.000572,0.004387,-0.064660
2.424859,0.062371,-0.004005,-0.006676,-0.000572,0.004387,-0.064660
2.434926,0.062371,-0.004005,-0.006676,-0.000572,0.004387,-0.064279
2.445037,0.062371,-0.004005,-0.006676,-0.000572,0.004387,-0.064279
2.455152,0.062371,-0.004005,-0.006676,-0.000572,0.004387,-0.064279
2.465270,0.062371,-0.004005,-0.006676,-0.000572,0.004387,-0.064660
2.475342,0.062371,-0.004005,-0.006676,-0.000572,0.004387,-0.064660
2.485470,0.062371,-0.004005,-0.006676,-0.000572,0.004387,-0.064660
2.495586,0.062371,-0.004005,-0.006676,-0.000572,0.004387,-0.064660
2.505698,0.062371,-0.004005,-0.006676,-0.000572,0.004387,-0.064660
2.515807,0.062371,-0.004005,-0.006676,-0.000572,0.004387,-0.064660
2.525919,0.062371,-0.004005,-0.006676,-0.000572,0.004387,-0.064660
2.536029,0.062371,-0.004005,-0.006676,-0.000572,0.004387,-0.064660
2.546175,0.062371,-0.004005,-0.006676,-0.000572,0.004387,-0.064660
2.556313,0.062371,-0.004005,-0.006676,-0.000572,0.004387,-0.064660
2.566423,0.062371,-0.004005,-0.006676,-0.000572,0.004387,-0.064660
2.576541,0.062371,-0.004005,-0.006676,-0.000572,0.004387,-0.064660
2.586652,0.062371,-0.004005,-0.006676,-0.000572,0.004387,-0.064660
2.596730,0.062371,-0.004005,-0.006676,-0.000572,0.004387,-0.064660
2.606840,0.062371,-0.004005,-0.006676,-0.000572,0.004387,-0.064660
2.616950,0.062371,-0.004005,-0.006676,-0.000572,0.004387,-0.064660
2.627061,0.062371,-0.004005,-0.006676,-0.000572,0.004387,-0.064660
2.637148,0.062371,-0.004005,-0.006676,-0.000572,0.004387,-0.064660
2.647258,0.062371,-0.004005,-0.006676,-0.000572,0.004387,-0.064660
2.657374,0.062371,-0.004005,-0.006676,-0.000572,0.004387,-0.064660
2.667484,0.062371,-0.004005,-0.006676,-0.000572,0.004387,-0.064660
2.677596,0.062371,-0.004005,-0.006676,-0.000572,0.004387,-0.064660
2.687723,0.062371,-0.004005,-0.006676,-0.000572,0.004387,-0.064660
2.697795,0.062371,-0.004005,-0.006676,-0.000572,0.004387,-0.064660
2.707860,0.062371,-0.004005,-0.006676,-0.000572,0.004387,-0.064660
2.717925,0.062371,-0.004005,-0.006676,-0.000572,0.004387,-0.064660
2.727990,0.062371,-0.004005,-0.006676,-0.000572,0.004387,-0.064660
2.738106,0.062371,-0.004005,-0.006676,-0.000572,0.004387,-0.064660
2.748216,0.062371,-0.004005,-0.006676,-0.000572,0.004387,-0.064660
2.758326,0.062371,-0.004005,-0.006676,-0.000572,0.004387,-0.064660
2.768414,0.062371,-0.004005,-0.006676,-0.000572,0.004387,-0.064660
2.778536,0.062371,-0.004005,-0.006676,-0.000572,0.004387,-0.064660
2.788650,0.062371,-0.004005,-0.006676,-0.000572,0.004387,-0.064660
2.798825,0.062371,-0.004005,-0.006676,-0.000572,0.004387,-0.064660
2.808903,0.062371,-0.004005,-0.006676,-0.000572,0.004387,-0.064660
2.819015,0.062371,-0.004005,-0.006676,-0.000572,0.004387,-0.064660
2.829128,0.062371,-0.004005,-0.006676,-0.000572,0.004387,-0.064660
2.839241,0.062371,-0.004005,-0.006676,-0.000572,0.004387,-0.064660
2.849428,0.062371,-0.004005,-0.006676,-0.000572,0.004387,-0.064660
2.859792,0.062371,-0.004005,-0.006676,-0.000572,0.004387,-0.064660
2.869862,0.062371,-0.004005,-0.006676,-0.000572,0.004387,-0.064660
2.879969,0.062371,-0.004005,-0.006676,-0.000572,0.004387,-0.064660
2.890044,0.061990,-0.004005,-0.006676,-0.000572,0.004768,-0.064660
2.900107,0.061608,-0.004005,-0.006676,-0.000572,0.004768,-0.064660
2.910170,0.060082,-0.004005,-0.006676,-0.000572,0.005150,-0.064660
2.920253,0.059319,-0.004005,-0.006676,-0.000572,0.005150,-0.064660
2.930376,0.058175,-0.004005,-0.006676,-0.000572,0.005150,-0.064660
2.940489,0.057794,-0.004005,-0.006676,-0.000572,0.005150,-0.064660
2.950527,0.056649,-0.004005,-0.006676,-0.000572,0.005150,-0.064660
2.960922,0.056268,-0.004005,-0.006676,-0.000572,0.005150,-0.064660
2.971010,0.055505,-0.004005,-0.006676,-0.000572,0.004768,-0.064660
2.981120,0.055505,-0.004005,-0.006676,-0.000572,0.004768,-0.064660
2.991211,0.055505,-0.004005,-0.006676,-0.000572,0.004387,-0.064660
3.001319,0.055505,-0.004005,-0.006676,-0.000572,0.004387,-0.064660
3.011432,0.055886,-0.004005,-0.006676,-0.000572,0.004387,-0.064660
3.021554,0.055886,-0.004005,-0.006676,-0.000572,0.004387,-0.064660
3.031675,0.055886,-0.004005,-0.006676,-0.000572,0.004387,-0.064660
3.041789,0.055886,-0.004005,-0.006676,-0.000572,0.004387,-0.064660
3.051899,0.055886,-0.004005,-0.006676,-0.000572,0.004387,-0.064660
3.062008,0.055886,-0.004005,-0.006676,-0.000572,0.004387,-0.064660
3.072089,0.055886,-0.004005,-0.006676,-0.000572,0.004387,-0.064660
3.082167,0.055886,-0.004005,-0.006676,-0.000572,0.004387,-0.064660
3.092236,0.055886,-0.004005,-0.006676,-0.000572,0.004387,-0.064660
3.102306,0.055886,-0.004005,-0.006676,-0.000572,0.004387,-0.064660
3.112369,0.055886,-0.004005,-0.006676,-0.000572,0.004387,-0.064660
3.122432,0.055886,-0.004005,-0.006676,-0.000572,0.004387,-0.064660
3.132494,0.055886,-0.004005,-0.006676,-0.000572,0.004387,-0.064660
3.142516,0.055886,-0.004005,-0.006676,-0.000572,0.004387,-0.064660
3.152610,0.055886,-0.004005,-0.006676,-0.000572,0.004387,-0.064660
3.162721,0.055886,-0.004005,-0.006676,-0.000572,0.004005,-0.064660
3.172833,0.055886,-0.004005,-0.006676,-0.000572,0.003624,-0.064660
3.183008,0.055886,-0.004005,-0.006676,-0.000572,0.003242,-0.064660
3.193118,0.055886,-0.004005,-0.006676,-0.000572,0.003242,-0.064660
3.203229,0.055886,-0.004005,-0.006676,-0.000572,0.003242,-0.064660
3.213339,0.055886,-0.004005,-0.006676,-0.000572,0.003624,-0.064660
3.223453,0.055886,-0.004005,-0.006676,-0.000572,0.003624,-0.064660
3.233565,0.055886,-0.004005,-0.006676,-0.000572,0.003624,-0.064660
3.243680,0.055886,-0.004005,-0.006676,-0.000572,0.003624,-0.064660
3.253790,0.055886,-0.004005,-0.006676,-0.000572,0.003624,-0.064660
3.263902,0.055886,-0.004005,-0.006676,-0.000572,0.003624,-0.064660
3.274013,0.055886,-0.004005,-0.006676,-0.000572,0.003624,-0.064660
3.284123,0.055886,-0.004005,-0.006676,-0.000572,0.003624,-0.064660
3.294234,0.055886,-0.004005,-0.006676,-0.000572,0.003624,-0.064660
3.304350,0.055886,-0.004005,-0.006676,-0.000572,0.003624,-0.064660
3.314448,0.055886,-0.004005,-0.006676,-0.000572,0.003624,-0.064660
3.324518,0.055886,-0.004005,-0.006676,-0.000572,0.003624,-0.064660
3.334632,0.055886,-0.004005,-0.006676,-0.000572,0.003624,-0.064660
3.344745,0.055886,-0.004005,-0.006676,-0.000572,0.003624,-0.064660
3.354830,0.055886,-0.004005,-0.006676,-0.000572,0.003624,-0.064660
3.364953,0.055886,-0.004005,-0.006676,-0.000572,0.003624,-0.064660
3.375067,0.055886,-0.004005,-0.006676,-0.000572,0.003624,-0.064660
3.385179,0.055886,-0.004005,-0.006676,-0.000572,0.003624,-0.064660
3.395292,0.055886,-0.004005,-0.006676,-0.000572,0.003624,-0.064660
3.405407,0.055886,-0.004005,-0.006676,-0.000572,0.003624,-0.064660
3.415586,0.055886,-0.004005,-0.006676,-0.000572,0.003624,-0.064660
3.425701,0.055886,-0.004005,-0.006676,-0.000572,0.003624,-0.064660
3.435787,0.055886,-0.004005,-0.006676,-0.000572,0.003624,-0.064660
3.445898,0.055886,-0.004005,-0.006676,-0.000572,0.003624,-0.064660
3.456009,0.055886,-0.004005,-0.006676,-0.000572,0.003624,-0.064660
3.466121,0.055886,-0.004005,-0.006676,-0.000572,0.003624,-0.064660
3.476200,0.055886,-0.004005,-0.006676,-0.000572,0.003624,-0.064660
3.486269,0.055886,-0.004005,-0.006676,-0.000572,0.003624,-0.064660
3.496335,0.055886,-0.004005,-0.006676,-0.000572,0.003624,-0.064660
3.506418,0.055886,-0.004005,-0.006676,-0.000572,0.003624,-0.064660
3.516582,0.055886,-0.004005,-0.006676,-0.000572,0.003624,-0.064660
3.526699,0.055886,-0.004005,-0.006676,-0.000572,0.003624,-0.064660
3.536768,0.055886,-0.004005,-0.006676,-0.000572,0.003624,-0.064660
3.546880,0.055886,-0.004005,-0.006676,-0.000572,0.003624,-0.064660
3.556952,0.055886,-0.004005,-0.006676,-0.000572,0.003624,-0.064660
3.567023,0.055886,-0.004005,-0.006676,-0.000572,0.003624,-0.064660
3.577098,0.055886,-0.004005,-0.006676,-0.000572,0.003624,-0.064660
3.587212,0.055886,-0.004005,-0.006676,-0.000572,0.003624,-0.064660
3.597321,0.055886,-0.004005,-0.006676,-0.000572,0.003624,-0.064660
3.607435,0.055886,-0.004005,-0.006676,-0.000572,0.004005,-0.064660
3.617526,0.055886,-0.004005,-0.006676,-0.000572,0.004005,-0.064660
3.627643,0.055886,-0.004005,-0.006676,-0.000572,0.004005,-0.064660
3.637716,0.055886,-0.004005,-0.006676,-0.000572,0.004005,-0.064660
3.647840,0.055886,-0.004005,-0.006676,-0.000572,0.004005,-0.064660
3.657955,0.055886,-0.004005,-0.006676,-0.000572,0.004005,-0.064660
3.668064,0.055886,-0.004005,-0.006676,-0.000572,0.003624,-0.064660
3.678143,0.055886,-0.004005,-0.006676,-0.000572,0.003624,-0.064660
3.688217,0.055886,-0.004005,-0.006676,-0.000572,0.003624,-0.064660
3.698295,0.055886,-0.004005,-0.006676,-0.000572,0.003624,-0.064660
3.708373,0.055886,-0.004005,-0.006676,-0.000572,0.003624,-0.064660
3.718441,0.055886,-0.004005,-0.006676,-0.000572,0.003624,-0.064660
3.728512,0.055886,-0.004005,-0.006676,-0.000572,0.003624,-0.064660
3.738586,0.055886,-0.004005,-0.006676,-0.000572,0.003624,-0.064660
3.748661,0.055886,-0.004005,-0.006676,-0.000572,0.004005,-0.064660
3.758773,0.055886,-0.004005,-0.006676,-0.000572,0.004005,-0.064660
3.768883,0.055886,-0.004005,-0.006676,-0.000572,0.004005,-0.064660
3.778997,0.055886,-0.004005,-0.006676,-0.000572,0.004005,-0.064660
3.789114,0.055886,-0.004005,-0.006676,-0.000572,0.004387,-0.064660
3.799228,0.055886,-0.004005,-0.006676,-0.000572,0.004387,-0.064660
3.809354,0.055886,-0.004005,-0.006676,-0.000572,0.004387,-0.064660
3.819441,0.055886,-0.004005,-0.006676,-0.000572,0.004387,-0.064660
3.829550,0.055886,-0.004005,-0.006676,-0.000572,0.004387,-0.064660
3.839663,0.055886,-0.004005,-0.006676,-0.000572,0.004387,-0.064660
3.849772,0.055886,-0.004005,-0.006676,-0.000572,0.004387,-0.064660
3.859883,0.055886,-0.004005,-0.006676,-0.000572,0.004387,-0.064660
3.869993,0.055886,-0.004005,-0.006676,-0.000572,0.004387,-0.064660
3.880104,0.055886,-0.004005,-0.006676,-0.000572,0.004387,-0.064660
3.890217,0.055886,-0.004005,-0.006676,-0.000572,0.004387,-0.064660
3.900285,0.055886,-0.004005,-0.006676,-0.000572,0.004387,-0.064660
3.910352,0.055886,-0.004005,-0.006676,-0.000572,0.004387,-0.064660
3.920421,0.055886,-0.004005,-0.006676,-0.000572,0.004387,-0.064660
3.930534,0.055886,-0.004005,-0.006676,-0.000572,0.004387,-0.064660
3.940620,0.055886,-0.004005,-0.006676,-0.000572,0.004387,-0.064660
3.950708,0.055886,-0.004005,-0.006676,-0.000572,0.004387,-0.064660
3.960819,0.055886,-0.004005,-0.006676,-0.000572,0.004387,-0.064660
3.970968,0.055886,-0.004005,-0.006676,-0.000572,0.004387,-0.064660
3.981080,0.055886,-0.004005,-0.006676,-0.000572,0.004387,-0.064660
3.991207,0.055886,-0.004005,-0.006676,-0.000572,0.004387,-0.064660
4.001329,0.055886,-0.004005,-0.006676,-0.000572,0.004387,-0.064660
4.011440,0.055886,-0.004005,-0.006676,-0.000572,0.004387,-0.064660
4.021560,0.055886,-0.004005,-0.006676,-0.000572,0.004387,-0.064660
4.031671,0.055886,-0.004005,-0.006676,-0.000572,0.004387,-0.064660
4.041784,0.055886,-0.004005,-0.006676,-0.000572,0.004387,-0.064660
4.051896,0.055886,-0.004005,-0.006676,-0.000572,0.004387,-0.064660
4.062006,0.055886,-0.004005,-0.006676,-0.000572,0.004387,-0.064660
4.072121,0.055886,-0.004005,-0.006676,-0.000572,0.004387,-0.064660
4.082241,0.055886,-0.004005,-0.006676,-0.000954,0.004387,-0.064660
4.092356,0.055886,-0.004005,-0.006676,-0.001335,0.004387,-0.064660
4.102430,0.055886,-0.004005,-0.006676,-0.001335,0.004387,-0.064660
4.112520,0.055886,-0.004005,-0.006676,-0.001335,0.004387,-0.064660
4.122605,0.055886,-0.004005,-0.006676,-0.001335,0.004387,-0.064660
4.132713,0.055886,-0.004005,-0.006676,-0.001335,0.004387,-0.064660
4.142797,0.055886,-0.004005,-0.007057,-0.001335,0.004387,-0.064660
4.152906,0.055886,-0.004005,-0.007057,-0.001335,0.004387,-0.064660
4.163019,0.055886,-0.004005,-0.007057,-0.001335,0.004387,-0.064660
4.173132,0.055886,-0.004005,-0.007057,-0.001335,0.004387,-0.064660
4.183244,0.055886,-0.004005,-0.007057,-0.001335,0.004387,-0.064660
4.193361,0.055886,-0.004005,-0.007057,-0.001335,0.004387,-0.064660
4.203473,0.055886,-0.004005,-0.007057,-0.001335,0.004387,-0.064660
4.213714,0.055886,-0.004005,-0.007057,-0.001335,0.004387,-0.064660
4.223831,0.055886,-0.004005,-0.007057,-0.001335,0.004387,-0.064660
4.233917,0.055886,-0.004005,-0.007057,-0.001335,0.004387,-0.064660
4.244030,0.055886,-0.004005,-0.007057,-0.001335,0.004387,-0.064660
4.254147,0.055886,-0.004005,-0.007057,-0.001335,0.004387,-0.064660
4.264259,0.055886,-0.004005,-0.007057,-0.001335,0.004387,-0.064660
4.274372,0.055886,-0.004005,-0.007057,-0.001335,0.004387,-0.064660
4.284484,0.055886,-0.004005,-0.007057,-0.001335,0.004387,-0.064660
4.294600,0.055886,-0.004005,-0.007057,-0.001717,0.004387,-0.064660
4.304682,0.055886,-0.004005,-0.007057,-0.001717,0.004387,-0.064660
4.314793,0.055886,-0.004005,-0.007057,-0.002098,0.004387,-0.064660
4.324906,0.055886,-0.004005,-0.007057,-0.002098,0.004387,-0.064660
4.335045,0.055886,-0.004005,-0.007057,-0.002098,0.004387,-0.064660
4.345154,0.055886,-0.004387,-0.007057,-0.002098,0.004387,-0.064660
4.355267,0.055886,-0.004768,-0.007057,-0.002098,0.004387,-0.064660
4.365382,0.055886,-0.005531,-0.007057,-0.002098,0.004387,-0.064660
4.375496,0.055886,-0.005913,-0.007439,-0.002098,0.004387,-0.064660
4.385562,0.055886,-0.005913,-0.007820,-0.002480,0.004387,-0.064660
4.395674,0.055886,-0.005913,-0.008965,-0.002861,0.004387,-0.064660
4.405746,0.055886,-0.005913,-0.009727,-0.002861,0.004387,-0.064660
4.415968,0.055886,-0.005913,-0.011635,-0.003242,0.004387,-0.064660
4.426041,0.055886,-0.005913,-0.013161,-0.003242,0.004387,-0.064660
4.436109,0.055886,-0.005913,-0.013924,-0.003242,0.004387,-0.064660
4.446220,0.055886,-0.005913,-0.016212,-0.003624,0.004387,-0.064660
4.456570,0.055886,-0.006294,-0.017357,-0.004005,0.004387,-0.064660
4.466655,0.055886,-0.007057,-0.019264,-0.004387,0.004387,-0.064660
4.476845,0.055886,-0.007439,-0.020790,-0.004387,0.004387,-0.064660
4.486926,0.055886,-0.008965,-0.023842,-0.004768,0.004387,-0.064660
4.497039,0.055886,-0.010109,-0.024986,-0.005150,0.004387,-0.064660
4.507111,0.055886,-0.012779,-0.028038,-0.005913,0.004387,-0.064660
4.517222,0.055886,-0.014305,-0.029564,-0.007057,0.004387,-0.064660
4.527332,0.055886,-0.017738,-0.031854,-0.007439,0.004387,-0.064660
4.537446,0.055886,-0.019646,-0.033761,-0.008202,0.004387,-0.064660
4.547559,0.055886,-0.023842,-0.036813,-0.008965,0.004387,-0.064660
4.557672,0.055886,-0.026131,-0.038339,-0.008965,0.004387,-0.064660
4.567793,0.055886,-0.030327,-0.042535,-0.008965,0.004387,-0.064660
4.577911,0.055886,-0.032617,-0.044824,-0.008965,0.004387,-0.064660
4.588025,0.055886,-0.037194,-0.049783,-0.008583,0.004387,-0.064660
4.598135,0.055886,-0.039865,-0.052072,-0.008583,0.004387,-0.064660
4.608253,0.055886,-0.044824,-0.056649,-0.008583,0.004387,-0.064660
4.618363,0.055886,-0.047112,-0.058557,-0.008583,0.004387,-0.064660
4.628479,0.055886,-0.052453,-0.063134,-0.008202,0.004387,-0.064660
4.638593,0.055886,-0.055123,-0.065042,-0.007820,0.004387,-0.064660
4.648668,0.055886,-0.060845,-0.068856,-0.007820,0.004387,-0.064660
4.658782,0.055886,-0.063516,-0.070764,-0.007820,0.004387,-0.064660
4.668892,0.055886,-0.069238,-0.074960,-0.007820,0.004387,-0.064660
4.679005,0.055886,-0.072289,-0.076867,-0.008202,0.004387,-0.064660
4.689118,0.055886,-0.078393,-0.081063,-0.008202,0.004387,-0.064660
4.699227,0.055886,-0.081063,-0.083352,-0.008202,0.004387,-0.064660
4.709294,0.055886,-0.086785,-0.087930,-0.008202,0.004387,-0.064660
4.719412,0.055886,-0.089837,-0.090219,-0.008202,0.004387,-0.064660
4.729492,0.055886,-0.095179,-0.095179,-0.008202,0.004387,-0.064660
4.739607,0.055886,-0.098230,-0.097467,-0.008202,0.004387,-0.064660
4.749718,0.055886,-0.103571,-0.102427,-0.008202,0.004387,-0.064660
4.759833,0.055886,-0.106241,-0.105097,-0.008202,0.004387,-0.064660
4.769909,0.055886,-0.111582,-0.110056,-0.008202,0.004387,-0.064660
4.780020,0.055886,-0.114252,-0.113108,-0.008202,0.004387,-0.064660
4.790086,0.055886,-0.119593,-0.118448,-0.008202,0.004387,-0.064660
4.800150,0.055886,-0.122644,-0.121500,-0.008202,0.004387,-0.064660
4.810210,0.055886,-0.127985,-0.127222,-0.008202,0.004387,-0.064660
4.820277,0.055886,-0.131037,-0.130274,-0.008202,0.004387,-0.064660
4.830336,0.055886,-0.136759,-0.132944,-0.008202,0.004387,-0.064660
4.840402,0.055886,-0.139811,-0.139048,-0.008202,0.004387,-0.064660
4.850533,0.055886,-0.146296,-0.142099,-0.008202,0.004387,-0.064660
4.860646,0.055886,-0.149347,-0.148203,-0.008202,0.004387,-0.064660
4.870759,0.055886,-0.155832,-0.151255,-0.008202,0.004387,-0.064660
4.880874,0.055886,-0.158885,-0.157741,-0.008202,0.004387,-0.064660
4.890985,0.055886,-0.165370,-0.160792,-0.008202,0.004387,-0.064660
4.901057,0.055886,-0.168803,-0.167659,-0.008202,0.004387,-0.064660
4.911142,0.055886,-0.175288,-0.170711,-0.008202,0.004387,-0.064660
4.921212,0.055886,-0.178721,-0.177196,-0.008202,0.004387,-0.064660
4.931293,0.055886,-0.182155,-0.180629,-0.008202,0.004387,-0.064660
4.941362,0.055886,-0.189021,-0.187114,-0.008202,0.004387,-0.064660
4.951427,0.055886,-0.192836,-0.190166,-0.008202,0.004387,-0.064660
4.961495,0.055886,-0.200084,-0.196651,-0.008202,0.004387,-0.064660
4.971522,0.055886,-0.203898,-0.200084,-0.008202,0.004387,-0.064660
4.981585,0.055886,-0.211909,-0.206187,-0.008202,0.004387,-0.064660
4.991699,0.055886,-0.215724,-0.209620,-0.008202,0.004387,-0.064660
5.001770,0.055886,-0.223354,-0.215724,-0.008202,0.004387,-0.064660
5.011883,0.055886,-0.231365,-0.219158,-0.008202,0.004387,-0.064660
5.021996,0.055886,-0.235180,-0.225643,-0.008202,0.004387,-0.064660
5.032068,0.055886,-0.238995,-0.229076,-0.008202,0.004387,-0.064660
5.042180,0.055886,-0.247387,-0.235943,-0.008202,0.004387,-0.064660
5.052273,0.055886,-0.251202,-0.239376,-0.008202,0.004387,-0.064660
5.062380,0.055886,-0.259594,-0.245861,-0.008202,0.004387,-0.064660
5.072489,0.055886,-0.267986,-0.249294,-0.008202,0.004387,-0.064660
5.082602,0.055886,-0.272182,-0.256542,-0.008202,0.004005,-0.064660
5.092715,0.055886,-0.280575,-0.259975,-0.008202,0.004005,-0.064660
5.102806,0.055886,-0.284772,-0.266842,-0.008202,0.004005,-0.064660
5.112883,0.055886,-0.289350,-0.270657,-0.008202,0.003624,-0.064660
5.122965,0.055886,-0.298505,-0.277523,-0.008202,0.003242,-0.064660
5.133030,0.055886,-0.303082,-0.280956,-0.008202,0.002861,-0.064660
5.143098,0.055886,-0.312238,-0.288205,-0.008202,0.002480,-0.064660
5.153166,0.055886,-0.316815,-0.292020,-0.008202,0.002480,-0.064660
5.163229,0.055886,-0.326352,-0.299649,-0.008202,0.002480,-0.064660
5.173357,0.055886,-0.330930,-0.303464,-0.008202,0.002480,-0.064660
5.183470,0.055886,-0.340085,-0.311475,-0.008202,0.002480,-0.064660
5.193585,0.055886,-0.345045,-0.315289,-0.008202,0.002480,-0.064660
5.203762,0.055886,-0.354582,-0.323300,-0.008202,0.002480,-0.064660
5.213874,0.055886,-0.359541,-0.327497,-0.008202,0.002480,-0.064660
5.223985,0.055886,-0.369841,-0.335889,-0.008202,0.002480,-0.064660
5.234112,0.055886,-0.375181,-0.340466,-0.008202,0.002480,-0.064660
5.244183,0.055886,-0.385481,-0.349241,-0.008202,0.002480,-0.064660
5.254287,0.055886,-0.390821,-0.353437,-0.008202,0.002480,-0.064660
5.264803,0.055886,-0.401503,-0.362593,-0.007820,0.002480,-0.064660
5.274869,0.055886,-0.406844,-0.367170,-0.007820,0.002480,-0.064660
5.284941,0.055886,-0.417525,-0.376326,-0.007820,0.002480,-0.064660
5.295006,0.055886,-0.423247,-0.381285,-0.007820,0.002480,-0.064660
5.305078,0.055886,-0.434310,-0.391203,-0.007820,0.002480,-0.064660
5.315142,0.055886,-0.440032,-0.395781,-0.007820,0.002480,-0.064660
5.325215,0.055886,-0.451476,-0.406080,-0.007820,0.002480,-0.064660
5.335279,0.055886,-0.457198,-0.411040,-0.007820,0.002480,-0.064660
5.345343,0.055886,-0.469025,-0.421340,-0.007820,0.002480,-0.064660
5.355406,0.055886,-0.474747,-0.426299,-0.007820,0.002480,-0.064660
5.365468,0.055886,-0.486954,-0.436599,-0.007820,0.002480,-0.064660
5.375563,0.055886,-0.492676,-0.441939,-0.007820,0.002480,-0.064660
5.385681,0.055886,-0.504883,-0.452621,-0.007820,0.002480,-0.064660
5.395793,0.055886,-0.510986,-0.457961,-0.007820,0.002480,-0.064660
5.405906,0.055886,-0.523193,-0.469025,-0.007820,0.002480,-0.064660
5.416017,0.055886,-0.529678,-0.474365,-0.007820,0.002480,-0.064660
5.426130,0.055886,-0.541886,-0.485809,-0.007820,0.002480,-0.064660
5.436217,0.055886,-0.554475,-0.491531,-0.007820,0.002480,-0.064660
5.446326,0.055886,-0.560960,-0.502594,-0.007820,0.002480,-0.064660
5.456399,0.055886,-0.567063,-0.508316,-0.007820,0.002480,-0.064660
5.466548,0.055886,-0.579652,-0.520142,-0.007820,0.002480,-0.064660
5.476611,0.055886,-0.586137,-0.525864,-0.007820,0.002480,-0.064660
5.486679,0.055886,-0.598726,-0.537309,-0.007820,0.002480,-0.064660
5.496766,0.055886,-0.610933,-0.543031,-0.007820,0.002480,-0.064660
5.506839,0.055886,-0.617418,-0.554475,-0.007820,0.002480,-0.064660
5.516947,0.055886,-0.630007,-0.560197,-0.007820,0.002480,-0.064660
5.527062,0.055886,-0.636492,-0.571641,-0.007820,0.002480,-0.064660
5.537148,0.055886,-0.642595,-0.577363,-0.007820,0.002480,-0.064660
5.547260,0.055886,-0.655565,-0.588807,-0.007820,0.002480,-0.064660
5.557370,0.055886,-0.668155,-0.594530,-0.007820,0.002480,-0.064660
5.567482,0.055886,-0.674640,-0.605593,-0.007820,0.002480,-0.064660
5.577557,0.055886,-0.680743,-0.611315,-0.007820,0.002480,-0.064660
5.587628,0.055886,-0.693332,-0.622377,-0.007820,0.002480,-0.064660
5.597740,0.055886,-0.705920,-0.627718,-0.007820,0.002480,-0.064660
5.607808,0.055886,-0.712024,-0.638781,-0.007820,0.002480,-0.064660
5.617875,0.055886,-0.724613,-0.644121,-0.007820,0.002480,-0.064660
5.627943,0.055886,-0.731098,-0.654802,-0.007820,0.002480,-0.064660
5.638012,0.055886,-0.737583,-0.660525,-0.007820,0.002480,-0.064660
5.648123,0.055886,-0.750172,-0.671206,-0.007820,0.002480,-0.064660
5.658235,0.055886,-0.756657,-0.676547,-0.007820,0.002480,-0.064660
5.668308,0.055886,-0.769245,-0.686847,-0.007820,0.002480,-0.064660
5.678374,0.055886,-0.775349,-0.692187,-0.007820,0.002480,-0.064660
5.688439,0.055886,-0.787938,-0.702487,-0.007820,0.002480,-0.064660
5.698504,0.055886,-0.794042,-0.707446,-0.007820,0.002480,-0.064660
5.708582,0.055886,-0.806249,-0.717746,-0.007820,0.002480,-0.064660
5.718696,0.055886,-0.812352,-0.723087,-0.007820,0.002480,-0.064660
5.728805,0.055886,-0.824941,-0.733006,-0.007820,0.002480,-0.064660
5.738916,0.055886,-0.831044,-0.737965,-0.007820,0.002480,-0.064660
5.748987,0.055886,-0.843251,-0.747883,-0.007820,0.002480,-0.064660
5.759077,0.055886,-0.849356,-0.752842,-0.007820,0.002480,-0.064660
5.769165,0.055886,-0.861181,-0.762760,-0.007820,0.002480,-0.064660
5.779227,0.055886,-0.867285,-0.767719,-0.007820,0.002480,-0.064660
5.789290,0.055886,-0.879110,-0.777256,-0.007820,0.002480,-0.064660
5.799399,0.055886,-0.885214,-0.782216,-0.007820,0.002480,-0.064660
5.809529,0.055886,-0.897421,-0.791753,-0.007820,0.002480,-0.064660
5.819644,0.055886,-0.903524,-0.796712,-0.007820,0.002480,-0.064660
5.829755,0.055886,-0.915732,-0.805867,-0.007820,0.002480,-0.064660
5.839869,0.055886,-0.921836,-0.810445,-0.007820,0.002480,-0.064660
5.849980,0.055886,-0.933661,-0.819982,-0.007820,0.002480,-0.064660
5.860052,0.055886,-0.939765,-0.824941,-0.007820,0.002480,-0.064660
5.870163,0.055886,-0.951972,-0.834477,-0.007820,0.002480,-0.064660
5.880279,0.055886,-0.958457,-0.839437,-0.007820,0.002480,-0.064660
5.890349,0.055886,-0.970665,-0.849356,-0.007820,0.002480,-0.064660
5.900425,0.055886,-0.976768,-0.853933,-0.007820,0.002480,-0.064660
5.910489,0.055886,-0.989357,-0.863852,-0.007820,0.002480,-0.064660
5.920510,0.055886,-0.995461,-0.868429,-0.007820,0.002480,-0.064660
5.930591,0.055886,-1.007668,-0.877584,-0.007820,0.002480,-0.064660
5.940662,0.055886,-1.013771,-0.882162,-0.007820,0.002480,-0.064660
5.950775,0.055886,-1.025978,-0.891317,-0.007820,0.002480,-0.064660
5.960895,0.055886,-1.032083,-0.895895,-0.007820,0.002480,-0.064660
5.970963,0.055886,-1.044671,-0.904669,-0.007820,0.002480,-0.064660
5.981076,0.055886,-1.050775,-0.909247,-0.007820,0.002480,-0.064660
5.991146,0.055886,-1.062982,-0.918021,-0.007820,0.002480,-0.064660
6.001227,0.055886,-1.069085,-0.922599,-0.007820,0.002480,-0.064660
6.011341,0.055886,-1.081292,-0.931373,-0.007820,0.002480,-0.064660
6.021456,0.055886,-1.087396,-0.935569,-0.007820,0.002480,-0.064660
6.031570,0.055886,-1.099222,-0.943961,-0.007820,0.002480,-0.064660
6.041687,0.055886,-1.105326,-0.947776,-0.007820,0.002480,-0.064660
6.051801,0.055886,-1.116770,-0.956168,-0.007820,0.002480,-0.064660
6.061930,0.055886,-1.122873,-0.959983,-0.007820,0.002480,-0.064660
6.072044,0.055886,-1.134317,-0.967612,-0.007820,0.002480,-0.064660
6.082162,0.055886,-1.140039,-0.971428,-0.007820,0.002480,-0.064660
6.092275,0.055886,-1.151484,-0.978294,-0.007820,0.002480,-0.064660
6.102347,0.055886,-1.156825,-0.981728,-0.007820,0.002480,-0.064660
6.112412,0.055886,-1.167506,-0.988594,-0.007820,0.002480,-0.064660
6.122479,0.055886,-1.172847,-0.991646,-0.007820,0.002480,-0.064660
6.132580,0.055886,-1.183146,-0.997749,-0.007820,0.002480,-0.064660
6.142650,0.055886,-1.188106,-1.000801,-0.007820,0.002480,-0.064660
6.152717,0.055886,-1.198024,-1.007286,-0.007820,0.002480,-0.064660
6.162779,0.055886,-1.202983,-1.009956,-0.007820,0.002480,-0.064660
6.172850,0.055886,-1.212901,-1.016060,-0.007820,0.002480,-0.064660
6.182928,0.055886,-1.217860,-1.018730,-0.007820,0.002480,-0.064660
6.193044,0.055886,-1.227398,-1.024452,-0.007820,0.002480,-0.064660
6.203169,0.055886,-1.231976,-1.027122,-0.007439,0.002480,-0.064660
6.213282,0.055886,-1.241512,-1.032464,-0.007439,0.002480,-0.064660
6.223412,0.055886,-1.246090,-1.035134,-0.007439,0.002480,-0.064660
6.233526,0.055886,-1.255627,-1.040475,-0.006676,0.002480,-0.064279
6.243639,0.055886,-1.260204,-1.043527,-0.006294,0.002480,-0.064279
6.253729,0.055886,-1.269360,-1.049630,-0.005913,0.002480,-0.063516
6.263839,0.055886,-1.274319,-1.052682,-0.005913,0.002480,-0.063134
6.273951,0.055886,-1.283475,-1.058022,-0.005531,0.002480,-0.062753
6.284061,0.055886,-1.288434,-1.060693,-0.005150,0.002480,-0.062753
6.294173,0.055886,-1.297589,-1.066415,-0.004005,0.002480,-0.062753
6.304259,0.055886,-1.301785,-1.069467,-0.003624,0.002480,-0.062753
6.314339,0.055886,-1.310941,-1.075952,-0.002861,0.002480,-0.062753
6.324455,0.055886,-1.315518,-1.079003,-0.002098,0.002480,-0.062753
6.334570,0.055886,-1.324674,-1.085870,-0.000954,0.002480,-0.062753
6.344686,0.055886,-1.329251,-1.089684,-0.000572,0.002480,-0.062753
6.354774,0.055886,-1.338788,-1.096170,0.000954,0.002480,-0.062753
6.364886,0.055886,-1.343366,-1.099604,0.001335,0.002480,-0.062753
6.375074,0.055886,-1.352903,-1.106089,0.002480,0.002480,-0.062753
6.385198,0.055886,-1.357481,-1.109522,0.003242,0.002480,-0.062753
6.395313,0.055886,-1.366636,-1.116388,0.005150,0.002480,-0.062753
6.405399,0.055886,-1.371214,-1.119822,0.005531,0.002480,-0.062753
6.415525,0.055886,-1.379988,-1.127069,0.006676,0.002480,-0.062753
6.425609,0.055886,-1.384565,-1.130503,0.007057,0.002480,-0.062753
6.435729,0.055886,-1.393339,-1.136988,0.007820,0.002480,-0.062753
6.445842,0.055886,-1.397917,-1.140039,0.008202,0.002480,-0.062753
6.455955,0.055886,-1.406692,-1.146143,0.009346,0.002480,-0.062753
6.466066,0.055886,-1.411269,-1.149576,0.009727,0.002480,-0.062753
6.476177,0.055886,-1.420043,-1.156061,0.010109,0.002480,-0.062753
6.486330,0.055886,-1.424239,-1.159495,0.010872,0.002480,-0.062753
6.496762,0.055886,-1.433013,-1.166362,0.011635,0.002480,-0.062753
6.506881,0.055886,-1.441787,-1.169795,0.012016,0.002480,-0.062753
6.516994,0.055886,-1.446364,-1.176661,0.012016,0.002480,-0.062753
6.527105,0.055886,-1.455138,-1.180095,0.012016,0.002480,-0.062753
6.537217,0.055886,-1.459716,-1.186580,0.012398,0.002480,-0.062753
6.547329,0.055886,-1.463912,-1.189631,0.012398,0.002480,-0.062753
6.557449,0.055886,-1.472687,-1.196116,0.012016,0.002480,-0.062753
6.567561,0.055886,-1.477264,-1.199550,0.012016,0.002480,-0.062753
6.577669,0.055886,-1.486420,-1.206416,0.012016,0.002480,-0.062753
6.587749,0.055886,-1.490997,-1.209849,0.012016,0.002480,-0.062753
6.597829,0.055886,-1.499771,-1.217479,0.012016,0.002480,-0.062753
6.607902,0.055886,-1.504349,-1.221294,0.012016,0.002480,-0.062753
6.617971,0.055886,-1.513504,-1.228924,0.012016,0.002480,-0.062753
6.628050,0.055886,-1.518082,-1.232738,0.012016,0.002480,-0.062753
6.638117,0.055886,-1.526855,-1.240368,0.012016,0.002480,-0.062753
6.648228,0.055886,-1.531434,-1.244183,0.012016,0.002480,-0.062753
6.658342,0.055886,-1.540589,-1.251812,0.012016,0.002480,-0.062753
6.668459,0.055886,-1.545167,-1.255627,0.012016,0.002480,-0.062753
6.678567,0.055886,-1.554322,-1.263638,0.012016,0.002480,-0.062753
6.688677,0.055886,-1.558900,-1.267452,0.012016,0.002480,-0.062753
6.698788,0.055886,-1.568055,-1.275463,0.012016,0.002480,-0.062753
6.708858,0.055886,-1.572633,-1.279659,0.012016,0.002480,-0.062753
6.718921,0.055886,-1.581788,-1.287671,0.012016,0.002480,-0.062753
6.728982,0.055886,-1.586366,-1.291867,0.012016,0.002480,-0.062753
6.739050,0.055886,-1.595522,-1.300260,0.012016,0.002480,-0.062753
6.749116,0.055886,-1.600100,-1.304074,0.012016,0.002480,-0.062753
6.759196,0.055886,-1.609255,-1.312085,0.012016,0.002480,-0.062753
6.769303,0.055886,-1.613451,-1.315900,0.012016,0.002480,-0.062753
6.779377,0.055886,-1.622606,-1.323911,0.012398,0.002480,-0.062753
6.789443,0.055886,-1.627184,-1.327725,0.012398,0.002480,-0.062753
6.799555,0.055886,-1.635958,-1.335736,0.013161,0.002480,-0.062753
6.809666,0.055886,-1.640154,-1.339932,0.013161,0.002480,-0.062753
6.819785,0.055886,-1.649309,-1.347944,0.013924,0.002480,-0.062753
6.829896,0.055886,-1.653505,-1.352140,0.013924,0.002480,-0.062753
6.840010,0.055886,-1.662280,-1.360151,0.014305,0.002480,-0.062753
6.850122,0.055886,-1.666476,-1.363585,0.014687,0.002480,-0.062753
6.860236,0.055886,-1.674869,-1.371214,0.016212,0.002480,-0.062753
6.870346,0.055886,-1.679065,-1.375029,0.016975,0.002480,-0.062753
6.880457,0.055886,-1.687076,-1.383039,0.018501,0.002480,-0.062753
6.890567,0.055886,-1.690890,-1.387617,0.019646,0.002480,-0.062753
6.900685,0.055886,-1.698901,-1.395628,0.021553,0.002480,-0.062753
6.910802,0.055886,-1.702716,-1.399824,0.022697,0.002480,-0.062753
6.920913,0.055886,-1.710727,-1.407836,0.026131,0.002480,-0.062753
6.931023,0.055886,-1.714541,-1.412032,0.027275,0.002480,-0.062753
6.941140,0.055886,-1.722172,-1.420806,0.030327,0.002480,-0.062753
6.951536,0.055886,-1.725605,-1.425002,0.032235,0.002480,-0.062753
6.961657,0.055886,-1.732853,-1.433394,0.035287,0.002480,-0.062753
6.971801,0.056268,-1.736286,-1.437591,0.036813,0.002480,-0.062753
6.982143,0.056268,-1.743534,-1.445601,0.040627,0.002480,-0.062753
6.992802,0.056268,-1.750401,-1.453994,0.044061,0.002480,-0.062753
7.002913,0.056268,-1.753834,-1.457808,0.045968,0.002480,-0.062753
7.013027,0.056268,-1.760319,-1.465819,0.049020,0.002480,-0.062753
7.023139,0.056268,-1.763752,-1.469635,0.050927,0.002480,-0.062753
7.033523,0.056268,-1.770237,-1.477264,0.053979,0.002480,-0.062753
7.043932,0.056268,-1.773670,-1.480698,0.055123,0.002480,-0.062753
7.054019,0.056268,-1.780155,-1.487564,0.058175,0.002480,-0.062753
7.064126,0.056268,-1.783208,-1.490997,0.059701,0.002480,-0.062753
7.074303,0.056268,-1.789693,-1.497482,0.061227,0.002480,-0.062753
7.084397,0.056268,-1.793126,-1.500534,0.062371,0.002480,-0.063134
7.094530,0.056268,-1.799230,-1.505875,0.064660,0.002480,-0.063134
7.104608,0.056268,-1.802281,-1.508926,0.065042,0.002480,-0.063134
7.114677,0.056268,-1.808385,-1.514267,0.066186,0.002480,-0.063134
7.124743,0.056268,-1.811437,-1.516937,0.066186,0.002480,-0.063134
7.134828,0.056268,-1.817922,-1.521515,0.066567,0.002480,-0.063134
7.144911,0.056268,-1.820592,-1.523422,0.066186,0.002480,-0.063134
7.154977,0.056268,-1.826314,-1.526855,0.066186,0.002480,-0.063134
7.165089,0.056268,-1.828984,-1.528381,0.066186,0.002480,-0.063134
7.175154,0.056268,-1.834706,-1.531052,0.065804,0.002480,-0.063134
7.185218,0.056268,-1.837377,-1.532960,0.065804,0.002480,-0.063134
7.195282,0.056268,-1.842717,-1.536393,0.065042,0.002480,-0.063134
7.205351,0.056268,-1.845770,-1.537919,0.065042,0.002480,-0.062753
7.215415,0.056268,-1.851110,-1.541352,0.065042,0.002480,-0.062753
7.225484,0.056268,-1.854162,-1.543260,0.065042,0.002480,-0.062753
7.235516,0.056268,-1.859884,-1.547074,0.065042,0.002480,-0.062753
7.245595,0.056268,-1.862555,-1.549363,0.065042,0.002480,-0.062753
7.255665,0.056268,-1.868277,-1.551270,0.065042,0.002480,-0.062753
7.265732,0.056268,-1.871328,-1.555085,0.065042,0.002480,-0.062753
7.275803,0.056268,-1.877050,-1.556993,0.065423,0.002480,-0.062753
7.285916,0.056268,-1.879721,-1.560807,0.065423,0.002480,-0.062753
7.296033,0.056268,-1.885443,-1.562333,0.065423,0.002480,-0.062753
7.306125,0.056268,-1.888494,-1.565766,0.065423,0.002480,-0.062753
7.316236,0.056268,-1.894217,-1.567674,0.065423,0.002480,-0.062753
7.326348,0.056268,-1.896887,-1.571107,0.065423,0.002480,-0.062753
7.336462,0.056268,-1.899557,-1.572633,0.065423,0.002480,-0.062753
7.346805,0.056268,-1.905279,-1.576447,0.065423,0.002480,-0.062753
7.356891,0.056268,-1.911002,-1.578355,0.065423,0.002480,-0.062753
7.367228,0.056268,-1.914054,-1.582170,0.065423,0.002480,-0.062753
7.377341,0.056268,-1.919776,-1.585984,0.065423,0.002480,-0.062753
7.387448,0.056268,-1.922828,-1.588273,0.065423,0.002480,-0.062753
7.397563,0.056268,-1.928931,-1.590180,0.065423,0.002480,-0.062753
7.407634,0.056268,-1.931983,-1.594759,0.065423,0.002480,-0.062753
7.417698,0.056268,-1.938087,-1.596666,0.065423,0.002480,-0.062371
7.427767,0.056268,-1.940757,-1.601244,0.065423,0.002480,-0.061990
7.437838,0.056268,-1.943809,-1.603533,0.065423,0.002480,-0.061990
7.447900,0.056268,-1.950294,-1.608492,0.065423,0.002480,-0.061227
7.457965,0.056268,-1.953345,-1.611162,0.065423,0.002480,-0.060845
7.468035,0.056268,-1.959449,-1.616121,0.065423,0.002480,-0.059319
7.478147,0.056268,-1.962882,-1.618792,0.065423,0.002480,-0.058557
7.488263,0.056268,-1.968987,-1.624132,0.065423,0.002480,-0.056649
7.498375,0.056268,-1.972420,-1.626802,0.065423,0.002480,-0.055886
7.508463,0.056268,-1.980049,-1.633287,0.065423,0.002480,-0.055505
7.518511,0.056268,-1.983482,-1.635958,0.065423,0.002480,-0.055505
7.528573,0.056268,-1.989967,-1.641680,0.065423,0.002480,-0.055505
7.538634,0.056268,-1.993401,-1.644732,0.065423,0.002480,-0.055505
7.548695,0.056268,-2.000267,-1.650835,0.065423,0.002480,-0.055505
7.558816,0.056268,-2.004082,-1.653887,0.065423,0.002480,-0.055505
7.568930,0.056268,-2.010948,-1.659991,0.065423,0.002480,-0.055505
7.579018,0.056268,-2.014381,-1.663043,0.065423,0.002480,-0.055505
7.589080,0.056268,-2.021629,-1.669528,0.065423,0.002480,-0.055505
7.599191,0.056649,-2.025063,-1.672580,0.065804,0.002480,-0.055505
7.609253,0.057031,-2.031930,-1.679065,0.065804,0.002480,-0.055505
7.619314,0.057031,-2.035363,-1.682498,0.066186,0.002480,-0.055505
7.629380,0.057031,-2.042611,-1.685931,0.066186,0.002480,-0.055505
7.639442,0.057031,-2.046044,-1.692416,0.066567,0.002480,-0.055505
7.649516,0.057031,-2.052911,-1.698520,0.066567,0.002480,-0.055505
7.659635,0.057031,-2.055963,-1.701571,0.067330,0.002480,-0.055505
7.669702,0.057794,-2.062829,-1.708438,0.067712,0.002480,-0.055505
7.679775,0.058175,-2.066262,-1.712253,0.068856,0.002480,-0.055505
7.689849,0.060082,-2.073129,-1.719883,0.069238,0.002480,-0.055505
7.699917,0.060845,-2.076562,-1.723698,0.071145,0.002480,-0.055505
7.709993,0.062371,-2.083428,-1.732090,0.071908,0.002480,-0.055505
7.720104,0.062753,-2.086862,-1.736286,0.073815,0.002480,-0.055505
7.730179,0.063516,-2.093728,-1.744297,0.074960,0.002480,-0.055505
7.740331,0.063516,-2.097162,-1.748493,0.077630,0.002480,-0.055505
7.750440,0.063516,-2.104029,-1.757648,0.079919,0.002480,-0.055505
7.760551,0.063516,-2.107462,-1.761845,0.081445,0.002480,-0.055505
7.770760,0.063516,-2.114328,-1.770618,0.084496,0.002480,-0.055505
7.780872,0.063516,-2.118143,-1.774815,0.086022,0.002480,-0.055505
7.790970,0.063897,-2.125010,-1.783589,0.088693,0.002480,-0.055505
7.801090,0.064279,-2.128824,-1.788167,0.090219,0.002480,-0.055505
7.811202,0.066186,-2.135691,-1.796941,0.093270,0.002480,-0.055505
7.821322,0.066949,-2.139124,-1.801518,0.094416,0.002480,-0.055505
7.831438,0.068856,-2.146372,-1.809911,0.097849,0.002480,-0.055505
7.841536,0.069619,-2.149805,-1.814488,0.098993,0.002480,-0.055505
7.851625,0.070382,-2.157054,-1.822881,0.101664,0.002480,-0.055505
7.861727,0.070764,-2.160487,-1.827077,0.103189,0.002480,-0.055505
7.871839,0.071145,-2.167735,-1.835469,0.105860,0.002480,-0.055505
7.881931,0.071145,-2.171168,-1.839665,0.106623,0.002480,-0.055505
7.892044,0.071145,-2.178416,-1.847296,0.109674,0.002480,-0.055505
7.902130,0.071145,-2.181849,-1.850729,0.111200,0.002480,-0.055505
7.912202,0.071145,-2.188716,-1.858358,0.113108,0.002480,-0.055505
7.922280,0.071145,-2.191768,-1.861792,0.114252,0.002480,-0.055505
7.932393,0.071145,-2.198634,-1.868658,0.116922,0.002480,-0.055505
7.942525,0.071145,-2.201686,-1.872091,0.118067,0.002480,-0.055505
7.952637,0.071527,-2.208171,-1.878958,0.119593,0.002480,-0.055505
7.962750,0.071527,-2.211223,-1.882010,0.120737,0.002480,-0.055505
7.972836,0.072289,-2.217326,-1.888113,0.122644,0.002480,-0.055505
7.982948,0.072289,-2.220379,-1.890783,0.123789,0.002480,-0.055505
7.993064,0.072289,-2.226482,-1.896887,0.125315,0.002480,-0.055505
8.003176,0.072289,-2.229534,-1.899557,0.126078,0.002480,-0.055505
8.013290,0.072289,-2.235638,-1.904516,0.127604,0.002480,-0.055505
8.023376,0.072289,-2.238689,-1.907187,0.128366,0.002480,-0.055505
8.033489,0.071908,-2.244411,-1.911765,0.129892,0.002480,-0.055505
8.043602,0.071908,-2.247463,-1.914435,0.130274,0.002480,-0.055505
8.053714,0.071908,-2.253185,-1.919013,0.131418,0.002098,-0.055505
8.063826,0.071908,-2.255856,-1.921302,0.131800,0.002098,-0.055505
8.073912,0.071908,-2.261578,-1.925498,0.132944,0.001717,-0.055505
8.084023,0.071908,-2.264248,-1.927024,0.133707,0.001335,-0.055505
8.094137,0.071908,-2.269588,-1.931220,0.134851,0.000954,-0.055505
8.104223,0.071908,-2.272640,-1.933127,0.135614,0.000572,-0.055505
8.114335,0.071908,-2.277981,-1.937705,0.136377,0.000191,-0.055505
8.124433,0.071908,-2.280651,-1.939994,0.136759,-0.000191,-0.055123
8.134551,0.071908,-2.285993,-1.943427,0.137522,-0.000572,-0.055123
8.144640,0.071908,-2.288663,-1.945334,0.137903,-0.000572,-0.055123
8.154702,0.071908,-2.294003,-1.949149,0.138285,-0.001335,-0.055123
8.164813,0.071908,-2.296674,-1.951056,0.138285,-0.001717,-0.055123
8.174924,0.071908,-2.301633,-1.954108,0.138666,-0.003242,-0.055505
8.185039,0.071908,-2.303922,-1.955253,0.138666,-0.004387,-0.055505
8.195155,0.071908,-2.308881,-1.958304,0.138285,-0.006294,-0.055505
8.205266,0.071908,-2.311551,-1.959830,0.138285,-0.006676,-0.055505
8.215378,0.071908,-2.316129,-1.962882,0.137903,-0.007820,-0.055505
8.225465,0.071908,-2.318418,-1.964408,0.137903,-0.008202,-0.055505
8.235575,0.071908,-2.323377,-1.967841,0.137903,-0.009727,-0.055505
8.245689,0.071908,-2.325665,-1.969749,0.137903,-0.010490,-0.055505
8.255799,0.071908,-2.330243,-1.973564,0.137903,-0.011635,-0.055505
8.265914,0.071908,-2.332532,-1.975090,0.137903,-0.012016,-0.055505
8.276034,0.071908,-2.337491,-1.978905,0.138285,-0.011635,-0.055505
8.286145,0.071908,-2.339780,-1.980812,0.138285,-0.011635,-0.055505
8.296235,0.071908,-2.344358,-1.984245,0.138285,-0.011635,-0.055505
8.306336,0.071908,-2.346266,-1.985771,0.138285,-0.011635,-0.055505
8.316459,0.071908,-2.350843,-1.989204,0.138285,-0.011635,-0.055505
8.326591,0.071908,-2.353132,-1.991112,0.138285,-0.011635,-0.055505
8.336707,0.071908,-2.357328,-1.994545,0.138285,-0.011635,-0.055505
8.346822,0.071908,-2.359617,-1.996452,0.138285,-0.011635,-0.055505
8.356933,0.071908,-2.363813,-2.000267,0.138285,-0.011635,-0.055505
8.367047,0.071908,-2.366102,-2.002174,0.138285,-0.011635,-0.055505
8.377159,0.071908,-2.370298,-2.005608,0.138285,-0.011635,-0.055505
8.387271,0.071908,-2.372587,-2.007515,0.138285,-0.011635,-0.055505
8.397387,0.071908,-2.377165,-2.010948,0.138285,-0.011635,-0.055505
8.407474,0.071908,-2.379072,-2.012474,0.138285,-0.011635,-0.055505
8.417584,0.071908,-2.383268,-2.016289,0.138285,-0.011635,-0.055505
8.427692,0.071908,-2.385176,-2.018196,0.138285,-0.011635,-0.055505
8.437809,0.071908,-2.389372,-2.022011,0.138666,-0.011635,-0.055505
8.447919,0.071908,-2.391279,-2.023918,0.138666,-0.011635,-0.055505
8.458032,0.071908,-2.395094,-2.027733,0.139811,-0.011635,-0.055505
8.468144,0.071908,-2.397001,-2.030403,0.140192,-0.011253,-0.055123
8.478218,0.071908,-2.400816,-2.035363,0.141336,-0.011253,-0.055123
8.488295,0.071908,-2.402723,-2.038033,0.142481,-0.011253,-0.055123
8.498363,0.071908,-2.406920,-2.043756,0.144388,-0.011253,-0.055123
8.508431,0.071908,-2.409209,-2.046807,0.145151,-0.011253,-0.055123
8.518496,0.071908,-2.413405,-2.052529,0.147821,-0.010872,-0.055505
8.528534,0.071908,-2.415313,-2.055200,0.149729,-0.010872,-0.055505
8.538601,0.071908,-2.419509,-2.061685,0.152018,-0.010872,-0.055505
8.548667,0.071908,-2.421798,-2.064736,0.153543,-0.010872,-0.055505
8.558736,0.071908,-2.425994,-2.070840,0.156978,-0.010872,-0.055505
8.568819,0.071908,-2.427901,-2.073892,0.158122,-0.010872,-0.055505
8.578939,0.071908,-2.432479,-2.080377,0.161555,-0.010872,-0.055505
8.589025,0.071908,-2.434768,-2.083428,0.163081,-0.010872,-0.055505
8.599145,0.071908,-2.438964,-2.089913,0.165751,-0.010872,-0.055505
8.609233,0.071908,-2.441634,-2.092965,0.167659,-0.010872,-0.055505
8.619345,0.071908,-2.445830,-2.099070,0.170329,-0.010872,-0.055505
8.629457,0.071908,-2.448119,-2.102121,0.171474,-0.010872,-0.055505
8.639571,0.071908,-2.452697,-2.107462,0.173762,-0.010872,-0.055886
8.649683,0.071908,-2.455367,-2.110514,0.175288,-0.010872,-0.055886
8.659798,0.071908,-2.459563,-2.115854,0.176814,-0.010872,-0.056268
8.670257,0.071908,-2.461852,-2.118525,0.177577,-0.010872,-0.056268
8.680370,0.071908,-2.466430,-2.123484,0.178721,-0.010872,-0.056268
8.690485,0.071908,-2.468719,-2.125391,0.179484,-0.010872,-0.056268
8.700568,0.071908,-2.473297,-2.129969,0.181010,-0.010872,-0.056268
8.710713,0.071908,-2.475586,-2.132257,0.181773,-0.010872,-0.056268
8.720778,0.071908,-2.480164,-2.136835,0.182155,-0.010872,-0.056268
8.730840,0.071908,-2.482071,-2.138742,0.182536,-0.010872,-0.056268
8.740907,0.071908,-2.486649,-2.142557,0.183299,-0.010872,-0.056268
8.751016,0.071908,-2.488556,-2.144083,0.183681,-0.010872,-0.056268
8.761131,0.071908,-2.492752,-2.147516,0.184062,-0.010872,-0.056268
8.771242,0.071908,-2.494659,-2.149042,0.184062,-0.010872,-0.056268
8.781358,0.071908,-2.498474,-2.151331,0.184062,-0.010872,-0.056268
8.791546,0.071908,-2.500381,-2.152475,0.184062,-0.010872,-0.056268
8.801658,0.071908,-2.503815,-2.154383,0.184062,-0.010872,-0.056268
8.811738,0.071908,-2.505722,-2.155146,0.184062,-0.010872,-0.056268
8.821855,0.071908,-2.508774,-2.156672,0.184062,-0.010490,-0.056268
8.831966,0.071908,-2.510300,-2.157435,0.183681,-0.010490,-0.056268
8.842076,0.071908,-2.512970,-2.158961,0.183681,-0.010490,-0.056268
8.852187,0.071908,-2.514114,-2.159724,0.183681,-0.010490,-0.056268
8.862301,0.071908,-2.516785,-2.161632,0.184062,-0.010490,-0.056268
8.872412,0.071908,-2.518311,-2.162013,0.184062,-0.010490,-0.056268
8.882539,0.071908,-2.520981,-2.163157,0.184062,-0.010490,-0.056268
8.892651,0.071908,-2.522125,-2.163539,0.184062,-0.010490,-0.056268
8.902729,0.071908,-2.524414,-2.163539,0.184062,-0.010490,-0.056268
8.912799,0.071908,-2.525177,-2.163539,0.184062,-0.010490,-0.056268
8.922893,0.071908,-2.526703,-2.163539,0.184062,-0.010490,-0.056268
8.933001,0.071908,-2.527466,-2.163539,0.184062,-0.010490,-0.056268
8.943065,0.071908,-2.528992,-2.163539,0.184062,-0.010490,-0.056268
8.953138,0.071908,-2.529755,-2.163539,0.184062,-0.010490,-0.056268
8.963199,0.071908,-2.531281,-2.163539,0.184062,-0.010490,-0.056268
8.973261,0.071908,-2.532044,-2.163539,0.184062,-0.010490,-0.056268
8.983324,0.071908,-2.533189,-2.163539,0.184062,-0.010490,-0.056268
8.993391,0.071908,-2.533952,-2.163539,0.184443,-0.010490,-0.056268
9.003453,0.071908,-2.535478,-2.163539,0.184443,-0.010490,-0.056268
9.013513,0.071908,-2.536241,-2.163539,0.184825,-0.010490,-0.056268
9.023594,0.071908,-2.538148,-2.163539,0.184825,-0.010490,-0.056268
9.033708,0.071908,-2.539292,-2.163539,0.184825,-0.010490,-0.056268
9.043793,0.071908,-2.540818,-2.163539,0.184825,-0.010490,-0.056268
9.053861,0.071908,-2.541581,-2.163539,0.184825,-0.010490,-0.056268
9.063931,0.071908,-2.543107,-2.163539,0.184825,-0.010490,-0.056268
9.073997,0.071908,-2.543870,-2.163539,0.184825,-0.010490,-0.056268
9.084074,0.071908,-2.545396,-2.163539,0.184825,-0.010490,-0.056268
9.094142,0.071908,-2.546540,-2.163539,0.184825,-0.010490,-0.056268
9.104216,0.071908,-2.548066,-2.163539,0.184825,-0.010490,-0.056268
9.114284,0.071908,-2.549211,-2.163539,0.184825,-0.010490,-0.056268
9.124357,0.071908,-2.551499,-2.163539,0.184825,-0.010490,-0.056268
9.134423,0.071908,-2.552644,-2.163539,0.184825,-0.010490,-0.056268
9.144487,0.071908,-2.554551,-2.163539,0.184825,-0.010490,-0.056268
9.154552,0.071908,-2.555314,-2.163539,0.184825,-0.010490,-0.056268
9.164617,0.071908,-2.557603,-2.163539,0.184825,-0.010490,-0.056268
9.174680,0.071908,-2.558747,-2.163539,0.184825,-0.010490,-0.056268
9.184751,0.071908,-2.560655,-2.163539,0.184825,-0.010490,-0.056268
9.194830,0.071908,-2.561799,-2.163539,0.184825,-0.010872,-0.056268
9.204906,0.071908,-2.564851,-2.163539,0.184825,-0.010872,-0.056268
9.214974,0.071908,-2.565995,-2.163539,0.184825,-0.010872,-0.056268
9.225047,0.071908,-2.568284,-2.163539,0.184825,-0.010872,-0.056268
9.235116,0.071908,-2.569810,-2.163539,0.184825,-0.010872,-0.056268
9.245187,0.071908,-2.572099,-2.163539,0.184825,-0.010872,-0.056268
9.255252,0.071908,-2.573243,-2.163539,0.184825,-0.010872,-0.056268
9.265334,0.071908,-2.574769,-2.163539,0.184825,-0.010872,-0.056268
9.275397,0.071908,-2.577058,-2.163539,0.184825,-0.010872,-0.056268
9.285474,0.071908,-2.578584,-2.163539,0.184825,-0.010872,-0.056268
9.295590,0.071908,-2.580873,-2.163539,0.184825,-0.011253,-0.056268
9.305664,0.071908,-2.582017,-2.163539,0.184825,-0.011635,-0.056268
9.315738,0.071908,-2.584306,-2.163539,0.184825,-0.011635,-0.056268
9.325804,0.071908,-2.585832,-2.163539,0.184825,-0.011635,-0.056268
9.335872,0.071908,-2.587739,-2.163539,0.184825,-0.011635,-0.056268
9.345937,0.071908,-2.588883,-2.163539,0.184825,-0.011635,-0.056268
9.356048,0.071908,-2.591172,-2.163539,0.184825,-0.011635,-0.056268
9.366162,0.071908,-2.591935,-2.163539,0.184825,-0.011635,-0.056268
9.376264,0.071908,-2.593843,-2.163539,0.184825,-0.011635,-0.056268
9.386334,0.071908,-2.594606,-2.163539,0.184825,-0.011635,-0.056268
9.396418,0.071908,-2.597277,-2.163539,0.184825,-0.011635,-0.056268
9.406504,0.071908,-2.598421,-2.163539,0.184825,-0.011635,-0.056268
9.416585,0.071908,-2.599566,-2.164302,0.184825,-0.011635,-0.056268
9.426681,0.071908,-2.600328,-2.165065,0.184825,-0.011635,-0.056268
9.436795,0.071908,-2.602617,-2.166591,0.185206,-0.011635,-0.056268
9.446906,0.071908,-2.604143,-2.167735,0.185588,-0.011635,-0.056268
9.457017,0.071908,-2.606432,-2.170405,0.185969,-0.011635,-0.056268
9.467129,0.071908,-2.607958,-2.171550,0.186351,-0.011635,-0.056268
9.477215,0.071908,-2.611010,-2.174983,0.187495,-0.011635,-0.056268
9.487326,0.071908,-2.612535,-2.176890,0.188258,-0.011635,-0.056268
9.497414,0.071908,-2.615206,-2.181087,0.188640,-0.011635,-0.056268
9.507495,0.071908,-2.616732,-2.183757,0.189021,-0.011635,-0.056268
9.517527,0.071908,-2.620546,-2.187953,0.190166,-0.011635,-0.056268
9.527639,0.071908,-2.622072,-2.190242,0.190547,-0.011635,-0.056268
9.537730,0.071908,-2.625887,-2.195201,0.190928,-0.011635,-0.056268
9.547847,0.071908,-2.627794,-2.197108,0.190928,-0.011635,-0.056268
9.557937,0.071908,-2.631609,-2.201686,0.192073,-0.011635,-0.056268
9.568051,0.071908,-2.633516,-2.203975,0.192454,-0.011635,-0.056268
9.578144,0.071908,-2.636950,-2.208934,0.192836,-0.011635,-0.056268
9.588257,0.071908,-2.638857,-2.211223,0.192836,-0.011635,-0.056268
9.598379,0.071908,-2.642672,-2.215800,0.193217,-0.011635,-0.056268
9.608494,0.071908,-2.644579,-2.218089,0.193599,-0.011635,-0.056268
9.618532,0.071908,-2.648394,-2.223049,0.193980,-0.011635,-0.056268
9.628622,0.071908,-2.650682,-2.225338,0.194743,-0.011635,-0.056268
9.638689,0.071908,-2.654497,-2.230679,0.194743,-0.011635,-0.056268
9.648760,0.071908,-2.656405,-2.233349,0.195125,-0.011635,-0.056268
9.658844,0.071908,-2.660220,-2.238308,0.195125,-0.011635,-0.056268
9.668955,0.071908,-2.662509,-2.240597,0.195125,-0.011635,-0.056268
9.679052,0.071908,-2.666705,-2.244793,0.195506,-0.011635,-0.056268
9.689159,0.071908,-2.668612,-2.247082,0.195506,-0.011635,-0.056268
9.699267,0.071908,-2.672046,-2.250896,0.195506,-0.011635,-0.056268
9.709356,0.071908,-2.673953,-2.252804,0.195506,-0.011635,-0.056268
9.719466,0.071908,-2.677768,-2.256618,0.195506,-0.011635,-0.056268
9.729572,0.071908,-2.679294,-2.258144,0.195506,-0.011635,-0.056268
9.739683,0.071908,-2.682345,-2.261578,0.195506,-0.011635,-0.056268
9.750175,0.071908,-2.683871,-2.263103,0.195506,-0.011635,-0.056268
9.760288,0.071908,-2.686923,-2.266155,0.195125,-0.011635,-0.056268
9.770657,0.071908,-2.689975,-2.267681,0.195125,-0.011635,-0.056268
9.780768,0.071908,-2.691501,-2.269970,0.195125,-0.011635,-0.056268
9.790899,0.071908,-2.694171,-2.271114,0.195125,-0.011635,-0.056268
9.801010,0.071908,-2.695315,-2.273785,0.195125,-0.011635,-0.056268
9.811125,0.071908,-2.697986,-2.274548,0.195125,-0.011635,-0.055886
9.821235,0.071908,-2.699130,-2.276455,0.195125,-0.011635,-0.055886
9.831346,0.071908,-2.701800,-2.277218,0.195125,-0.011635,-0.055886
9.841528,0.071908,-2.702945,-2.278744,0.195125,-0.011635,-0.055505
9.851611,0.071908,-2.704852,-2.279125,0.195506,-0.011635,-0.055123
9.861711,0.071908,-2.705615,-2.279507,0.195125,-0.011635,-0.055123
9.871823,0.071908,-2.707904,-2.279125,0.195125,-0.011635,-0.055123
9.881943,0.071908,-2.709048,-2.279125,0.195125,-0.011635,-0.055123
9.892061,0.071908,-2.710574,-2.279125,0.195125,-0.011635,-0.055123
9.902127,0.071908,-2.710956,-2.279125,0.195506,-0.011635,-0.055123
9.912193,0.071908,-2.712100,-2.279125,0.195888,-0.011635,-0.055123
9.922301,0.071908,-2.712863,-2.279125,0.196269,-0.011635,-0.055123
9.932414,0.071908,-2.714770,-2.279125,0.197032,-0.011635,-0.055123
9.942540,0.071908,-2.715915,-2.279125,0.197032,-0.011635,-0.055123
9.952615,0.071908,-2.717441,-2.279125,0.197032,-0.011253,-0.055123
9.962685,0.071908,-2.718204,-2.279125,0.197413,-0.011253,-0.055123
9.972796,0.071908,-2.720112,-2.279125,0.197413,-0.011253,-0.055123
9.982871,0.071908,-2.720875,-2.279125,0.198176,-0.011253,-0.055123
9.992956,0.071908,-2.722782,-2.279125,0.198558,-0.011253,-0.055123
10.003066,0.071908,-2.723164,-2.279125,0.198939,-0.011253,-0.055123
10.013141,0.071908,-2.723545,-2.279125,0.198939,-0.011253,-0.055123
10.023207,0.071908,-2.724689,-2.279125,0.199321,-0.011253,-0.055123
10.033318,0.071908,-2.726597,-2.279125,0.199702,-0.011253,-0.055123
10.043406,0.071908,-2.727360,-2.279125,0.200084,-0.011253,-0.055123
10.053539,0.071908,-2.729267,-2.279125,0.200847,-0.011253,-0.055123
10.063650,0.071908,-2.730030,-2.279125,0.201610,-0.011253,-0.055123
10.073761,0.071908,-2.730793,-2.279125,0.201610,-0.011253,-0.055123
10.083869,0.071908,-2.731937,-2.279125,0.201610,-0.011253,-0.055123
10.093934,0.071908,-2.732319,-2.279125,0.201991,-0.011253,-0.055123
10.104007,0.071908,-2.733463,-2.279125,0.201991,-0.011253,-0.055123
10.114097,0.071908,-2.733845,-2.279125,0.202373,-0.011253,-0.055123
10.124206,0.071908,-2.734989,-2.279125,0.202754,-0.011253,-0.055123
10.134287,0.071908,-2.735752,-2.279125,0.202754,-0.011253,-0.055123
10.144353,0.071908,-2.736515,-2.279125,0.202754,-0.011253,-0.055123
10.154435,0.071908,-2.737278,-2.279125,0.202754,-0.011253,-0.055123
10.164503,0.071908,-2.738422,-2.279125,0.202754,-0.011253,-0.055123
10.174575,0.071908,-2.739185,-2.279125,0.202754,-0.011253,-0.055123
10.184638,0.071908,-2.740711,-2.279125,0.202754,-0.011253,-0.055123
10.194696,0.071908,-2.741474,-2.279125,0.202373,-0.011635,-0.055123
10.204805,0.071908,-2.743000,-2.279125,0.202373,-0.011635,-0.055123
10.214914,0.071908,-2.743382,-2.279125,0.201991,-0.011635,-0.055123
10.225029,0.071908,-2.743763,-2.279125,0.201610,-0.011635,-0.055123
10.235139,0.071908,-2.744526,-2.279125,0.201610,-0.011635,-0.055123
10.245209,0.071908,-2.745670,-2.279125,0.201610,-0.011635,-0.055123
10.255323,0.071908,-2.746815,-2.279125,0.201610,-0.011635,-0.055123
10.265435,0.071908,-2.748722,-2.279507,0.201228,-0.011635,-0.054742
10.275559,0.071908,-2.749485,-2.279507,0.201228,-0.011635,-0.054360
10.285644,0.071908,-2.750248,-2.279507,0.201228,-0.011635,-0.053216
10.295777,0.071908,-2.750629,-2.279507,0.201228,-0.011635,-0.052072
10.305846,0.071908,-2.752155,-2.279125,0.201610,-0.011635,-0.050164
10.315916,0.071908,-2.753300,-2.279125,0.201610,-0.011635,-0.049020
10.326026,0.071908,-2.755207,-2.279125,0.201610,-0.011635,-0.048257
10.336140,0.071908,-2.755970,-2.279125,0.201610,-0.011635,-0.047494
10.346243,0.071908,-2.757114,-2.279125,0.201610,-0.011635,-0.045968
10.356354,0.071908,-2.757877,-2.279125,0.201610,-0.011635,-0.045205
10.366441,0.071908,-2.759785,-2.279125,0.201610,-0.011635,-0.044061
10.376552,0.071908,-2.760929,-2.279125,0.201228,-0.011635,-0.043679
10.386645,0.071908,-2.762455,-2.279125,0.201228,-0.011635,-0.043679
10.396754,0.071908,-2.763599,-2.279125,0.201228,-0.011635,-0.043679
10.406835,0.071908,-2.765125,-2.279125,0.200847,-0.011635,-0.044061
10.416948,0.071908,-2.766270,-2.279507,0.200847,-0.011635,-0.044061
10.427123,0.071908,-2.767414,-2.279507,0.200847,-0.011635,-0.044061
10.437233,0.071908,-2.768177,-2.279507,0.200847,-0.011635,-0.044061
10.447301,0.071908,-2.768559,-2.279507,0.200847,-0.011635,-0.044061
10.457425,0.071908,-2.769321,-2.279507,0.200847,-0.011635,-0.043679
10.467563,0.071908,-2.770466,-2.279507,0.200465,-0.011635,-0.043679
10.477637,0.071908,-2.771229,-2.279507,0.200465,-0.011635,-0.043679
10.487703,0.071908,-2.773136,-2.279507,0.200465,-0.011635,-0.043679
10.497779,0.071908,-2.773899,-2.279507,0.200465,-0.011635,-0.043679
10.507858,0.071908,-2.775425,-2.279507,0.200465,-0.011635,-0.043679
10.517940,0.071908,-2.775806,-2.279507,0.200465,-0.011635,-0.043679
10.528029,0.071908,-2.776951,-2.279507,0.200465,-0.011635,-0.044061
10.538138,0.071908,-2.776951,-2.279507,0.200465,-0.011635,-0.044061
10.548253,0.071908,-2.778095,-2.279507,0.200465,-0.011635,-0.044061
10.558371,0.071908,-2.778477,-2.279507,0.200465,-0.011635,-0.044061
10.568485,0.071908,-2.780003,-2.279507,0.200465,-0.011635,-0.044061
10.578614,0.071908,-2.780766,-2.279507,0.200465,-0.011635,-0.044061
10.588736,0.071908,-2.781529,-2.279507,0.200465,-0.011635,-0.044061
10.598850,0.071908,-2.781911,-2.279507,0.200465,-0.011635,-0.044061
10.608969,0.071908,-2.782292,-2.279507,0.200465,-0.011635,-0.044061
10.619036,0.071908,-2.782292,-2.279507,0.200465,-0.011635,-0.044061
10.629112,0.071908,-2.783055,-2.279507,0.200465,-0.011635,-0.044061
10.639225,0.071908,-2.783437,-2.279507,0.200465,-0.011635,-0.044061
10.649292,0.071908,-2.784963,-2.279507,0.200465,-0.011635,-0.044061
10.659408,0.071908,-2.786107,-2.279507,0.200084,-0.011635,-0.044061
10.669535,0.071908,-2.788014,-2.279507,0.199321,-0.011635,-0.044061
10.679647,0.071908,-2.788396,-2.279507,0.198939,-0.011635,-0.044061
10.689734,0.071908,-2.788777,-2.279507,0.198558,-0.011635,-0.044061
10.699847,0.071908,-2.788777,-2.279507,0.197795,-0.011635,-0.044061
10.709923,0.071908,-2.789159,-2.279507,0.196651,-0.011635,-0.044061
10.719990,0.071908,-2.789922,-2.279507,0.196269,-0.011635,-0.044061
10.730055,0.071908,-2.791448,-2.279507,0.195506,-0.011635,-0.044061
10.740124,0.071908,-2.792592,-2.279507,0.194743,-0.011635,-0.044061
10.750189,0.071908,-2.794499,-2.279507,0.193599,-0.011635,-0.044061
10.760297,0.071908,-2.794881,-2.279507,0.193217,-0.011635,-0.044061
10.770415,0.071908,-2.795262,-2.280270,0.192073,-0.011635,-0.044061
10.780588,0.071908,-2.795262,-2.280651,0.191310,-0.011635,-0.044061
10.790702,0.071908,-2.796407,-2.281415,0.190166,-0.011635,-0.044061
10.800812,0.071908,-2.797170,-2.281796,0.189784,-0.011635,-0.044061
10.810898,0.071908,-2.799840,-2.283704,0.189021,-0.011635,-0.044061
10.821008,0.071908,-2.800984,-2.284848,0.188640,-0.011635,-0.044061
10.831120,0.071908,-2.802510,-2.287519,0.188258,-0.011635,-0.044061
10.841233,0.071908,-2.803655,-2.289044,0.188258,-0.011635,-0.044061
10.851358,0.071908,-2.805562,-2.292478,0.188258,-0.011635,-0.044061
10.861513,0.071908,-2.806706,-2.294766,0.188258,-0.011635,-0.044061
10.871586,0.071908,-2.809377,-2.298963,0.188258,-0.011635,-0.044061
10.881656,0.071908,-2.810903,-2.301251,0.188258,-0.011635,-0.044061
10.891721,0.071908,-2.814336,-2.305829,0.188258,-0.011635,-0.044061
10.901819,0.071908,-2.815862,-2.308118,0.188258,-0.011635,-0.044061
10.911883,0.071908,-2.818913,-2.313077,0.188640,-0.011635,-0.044061
10.921952,0.071908,-2.820439,-2.314984,0.188640,-0.011635,-0.044061
10.932030,0.071908,-2.823491,-2.319562,0.188640,-0.011635,-0.044061
10.942096,0.071908,-2.825017,-2.321851,0.188640,-0.011635,-0.044061
10.952162,0.071908,-2.828069,-2.326047,0.188640,-0.011635,-0.044061
10.962270,0.071908,-2.829213,-2.327954,0.188640,-0.011635,-0.044061
10.972382,0.071908,-2.831883,-2.331769,0.188640,-0.011635,-0.044061
10.982736,0.071908,-2.833409,-2.333676,0.188640,-0.011635,-0.044061
10.992844,0.071908,-2.835698,-2.336728,0.188640,-0.011635,-0.044061
11.002955,0.071908,-2.836843,-2.338635,0.188640,-0.011635,-0.044061
11.013065,0.071908,-2.839131,-2.341687,0.189021,-0.011635,-0.044061
11.023174,0.071908,-2.839894,-2.342832,0.189021,-0.011635,-0.044061
11.033255,0.071908,-2.841802,-2.345884,0.189403,-0.011635,-0.044061
11.043337,0.071908,-2.842565,-2.347029,0.189784,-0.011635,-0.044061
11.053403,0.071908,-2.844473,-2.348936,0.189784,-0.011635,-0.044061
11.063465,0.071908,-2.845236,-2.350080,0.190547,-0.011635,-0.044061
11.073513,0.071908,-2.846380,-2.351988,0.190547,-0.011635,-0.044061
11.083574,0.071908,-2.846762,-2.352751,0.190547,-0.011635,-0.044061
11.093674,0.071908,-2.847143,-2.353132,0.190928,-0.011635,-0.044061
11.103788,0.071908,-2.847143,-2.353132,0.191691,-0.011635,-0.044061
11.113876,0.071908,-2.847143,-2.353132,0.191691,-0.011635,-0.044061
11.123987,0.071908,-2.846762,-2.353132,0.192454,-0.011635,-0.044061
11.134100,0.071908,-2.846762,-2.353132,0.192836,-0.011635,-0.044061
11.144216,0.071908,-2.846762,-2.353132,0.193980,-0.011635,-0.044061
11.154328,0.071908,-2.846762,-2.353132,0.194743,-0.011635,-0.044061
11.164437,0.071908,-2.846762,-2.353132,0.195888,-0.011635,-0.044061
11.174551,0.071908,-2.846762,-2.353132,0.196651,-0.011635,-0.044061
11.184664,0.071908,-2.846762,-2.353132,0.197413,-0.011635,-0.044061
11.194776,0.071908,-2.846762,-2.353132,0.197795,-0.011635,-0.044061
11.204890,0.071908,-2.846762,-2.353132,0.199321,-0.011635,-0.044061
11.215002,0.071908,-2.846762,-2.353132,0.199702,-0.011635,-0.044061
11.225113,0.071908,-2.846762,-2.353132,0.201228,-0.011635,-0.044061
11.235223,0.071908,-2.846762,-2.353132,0.201991,-0.011635,-0.044061
11.245332,0.071908,-2.846762,-2.353132,0.201991,-0.011635,-0.044061
11.255443,0.071908,-2.846762,-2.353132,0.202373,-0.011635,-0.044061
11.265564,0.071908,-2.846762,-2.353132,0.202754,-0.011635,-0.044061
11.275675,0.071908,-2.846762,-2.353132,0.202754,-0.011635,-0.044061
11.285788,0.071908,-2.846762,-2.353132,0.202754,-0.011635,-0.044061
11.295906,0.071908,-2.846762,-2.353132,0.202754,-0.011635,-0.044061
11.306024,0.071908,-2.846762,-2.353132,0.202754,-0.011635,-0.044061
11.316092,0.071908,-2.846762,-2.353132,0.202754,-0.011635,-0.044061
11.326158,0.071908,-2.846762,-2.353132,0.202754,-0.011635,-0.044061
11.336183,0.071908,-2.846762,-2.353132,0.202754,-0.011635,-0.044061
11.346296,0.071908,-2.846762,-2.353132,0.202754,-0.011635,-0.044061
11.356418,0.071908,-2.846762,-2.353132,0.202754,-0.011635,-0.044061
11.366531,0.071908,-2.846762,-2.353132,0.202754,-0.011635,-0.044061
11.376644,0.071908,-2.847143,-2.353132,0.202754,-0.011635,-0.044061
11.386812,0.071908,-2.847143,-2.353132,0.202373,-0.011635,-0.044061
11.396925,0.071908,-2.847525,-2.353132,0.202373,-0.011635,-0.044061
11.407037,0.071908,-2.847906,-2.353132,0.202373,-0.011635,-0.044061
11.417150,0.071908,-2.848669,-2.353132,0.202373,-0.011635,-0.044061
11.427262,0.071908,-2.849051,-2.353132,0.202373,-0.011635,-0.044061
11.437375,0.071908,-2.849813,-2.353132,0.202373,-0.011635,-0.044061
11.447488,0.071908,-2.850195,-2.353132,0.202373,-0.011635,-0.044061
11.457530,0.071908,-2.850958,-2.353132,0.202373,-0.011635,-0.044061
11.467603,0.071908,-2.851721,-2.353132,0.202373,-0.011635,-0.044061
11.477715,0.071908,-2.852102,-2.353132,0.202373,-0.011635,-0.044061
11.487826,0.071908,-2.852865,-2.353132,0.202373,-0.011635,-0.044061
11.497936,0.071908,-2.853628,-2.353132,0.202373,-0.011635,-0.044061
11.508074,0.071908,-2.854391,-2.353132,0.202373,-0.011635,-0.044061
11.518185,0.071908,-2.855154,-2.353132,0.202754,-0.011635,-0.044061
11.528294,0.071908,-2.855917,-2.353132,0.202754,-0.011635,-0.044061
11.538641,0.071908,-2.856680,-2.353132,0.202754,-0.011635,-0.044061
11.548748,0.071908,-2.857443,-2.353132,0.202754,-0.011635,-0.044061
11.558859,0.071908,-2.857824,-2.353132,0.202754,-0.011635,-0.044061
11.568955,0.071908,-2.858969,-2.353132,0.202754,-0.011635,-0.044061
11.579039,0.071908,-2.859350,-2.353132,0.202754,-0.011635,-0.044061
11.589150,0.071908,-2.860495,-2.353132,0.202754,-0.011635,-0.044061
11.599260,0.071908,-2.860876,-2.353132,0.202754,-0.011635,-0.044061
11.609375,0.071908,-2.861258,-2.353132,0.202754,-0.011635,-0.044061
11.619489,0.071908,-2.862020,-2.353132,0.202754,-0.011635,-0.044061
11.629558,0.071908,-2.862402,-2.353132,0.202754,-0.011635,-0.044061
11.639669,0.071908,-2.862783,-2.353132,0.202754,-0.011635,-0.044061
11.652543,0.071908,-2.864309,-2.353132,0.202373,-0.011635,-0.044061
11.662638,0.071908,-2.865835,-2.353132,0.202373,-0.011635,-0.044061
11.672714,0.071908,-2.866598,-2.353132,0.202373,-0.011635,-0.044061
11.682795,0.071908,-2.866598,-2.353132,0.202373,-0.011635,-0.044061
11.692873,0.071908,-2.866598,-2.353132,0.201610,-0.011635,-0.044061
11.702960,0.071908,-2.866598,-2.353132,0.201610,-0.011635,-0.044061
11.713038,0.071908,-2.866598,-2.353132,0.201610,-0.011635,-0.044061
11.723122,0.071908,-2.866980,-2.353132,0.201610,-0.011635,-0.044061
11.733206,0.071908,-2.867361,-2.353132,0.201228,-0.011635,-0.044061
11.743284,0.071908,-2.867743,-2.353132,0.201228,-0.011635,-0.044061
11.753355,0.071908,-2.868505,-2.353132,0.201228,-0.011635,-0.044061
11.763434,0.071908,-2.868505,-2.353132,0.201228,-0.011635,-0.044061
11.773516,0.071908,-2.869268,-2.353132,0.201228,-0.011635,-0.044061
11.783642,0.071908,-2.869650,-2.353132,0.201228,-0.011635,-0.044061
11.793756,0.071908,-2.870794,-2.353132,0.201228,-0.011635,-0.044061
11.803848,0.071908,-2.871176,-2.353132,0.201228,-0.011635,-0.044061
11.813926,0.071908,-2.871939,-2.353132,0.201228,-0.011635,-0.044061
11.824007,0.071908,-2.871939,-2.353132,0.201228,-0.011635,-0.044061
11.834077,0.071908,-2.871939,-2.353132,0.201228,-0.011635,-0.044061
11.844159,0.071908,-2.871939,-2.353132,0.201228,-0.011635,-0.044061
11.854236,0.071908,-2.872320,-2.353132,0.201228,-0.011635,-0.044061
11.864319,0.071908,-2.872702,-2.353132,0.201228,-0.011635,-0.044061
11.874442,0.071908,-2.873465,-2.353132,0.201228,-0.011635,-0.044061
11.884537,0.071908,-2.873846,-2.353132,0.201228,-0.011635,-0.044061
11.894606,0.071908,-2.874609,-2.353132,0.201228,-0.011635,-0.044061
11.904685,0.071908,-2.874990,-2.353132,0.201228,-0.011635,-0.044061
11.914797,0.071908,-2.875753,-2.353132,0.201228,-0.011635,-0.044061
11.924908,0.071908,-2.876516,-2.353132,0.201228,-0.011635,-0.044061
11.934981,0.071908,-2.877279,-2.353132,0.201228,-0.011635,-0.044061
11.945089,0.071908,-2.877661,-2.353132,0.201228,-0.011635,-0.044061
11.955205,0.071908,-2.877661,-2.353132,0.201228,-0.011635,-0.044061
11.965377,0.071908,-2.877661,-2.353132,0.201228,-0.011635,-0.044061
11.975490,0.071908,-2.877661,-2.353132,0.201228,-0.011635,-0.044061
11.985622,0.071908,-2.877661,-2.353132,0.201228,-0.011635,-0.044061
11.995738,0.071908,-2.878042,-2.353132,0.201228,-0.011635,-0.044061
12.005852,0.071908,-2.878805,-2.353132,0.201228,-0.011635,-0.044061
12.016026,0.071908,-2.879187,-2.353132,0.201228,-0.011635,-0.044061
12.026140,0.071908,-2.879568,-2.353132,0.200847,-0.011635,-0.044061
12.036239,0.071908,-2.879568,-2.353132,0.200847,-0.011635,-0.044061
12.046350,0.071908,-2.879568,-2.353132,0.200847,-0.011635,-0.044061
12.056466,0.071908,-2.879568,-2.353132,0.200847,-0.011635,-0.044061
12.066579,0.071908,-2.880331,-2.353132,0.200847,-0.011635,-0.044061
12.076719,0.071908,-2.880713,-2.353132,0.200847,-0.011635,-0.044061
12.086835,0.071908,-2.882238,-2.353132,0.200847,-0.011635,-0.044061
12.096947,0.071908,-2.883001,-2.353132,0.200847,-0.011635,-0.044061
12.107063,0.071908,-2.883764,-2.353132,0.200847,-0.011635,-0.044061
12.117181,0.071908,-2.884146,-2.353132,0.200465,-0.011635,-0.044061
12.127296,0.071908,-2.884527,-2.353132,0.200465,-0.011635,-0.044061
12.137409,0.071908,-2.884909,-2.353132,0.200465,-0.011635,-0.044061
12.147496,0.071908,-2.885672,-2.353132,0.200465,-0.011635,-0.044442
12.157625,0.071908,-2.886053,-2.353132,0.200465,-0.011635,-0.044442
12.167737,0.071908,-2.886816,-2.353132,0.200465,-0.011635,-0.045205
12.177854,0.071908,-2.887197,-2.353132,0.200465,-0.011635,-0.045587
12.187942,0.071908,-2.888342,-2.353132,0.200465,-0.011635,-0.045968
12.198053,0.071908,-2.888723,-2.353132,0.200465,-0.011635,-0.045968
12.208170,0.071908,-2.889105,-2.353132,0.200465,-0.011635,-0.045968
12.218285,0.071908,-2.889486,-2.353132,0.200465,-0.011635,-0.045968
12.228400,0.071908,-2.889868,-2.353132,0.200847,-0.011635,-0.045968
12.238548,0.071908,-2.889868,-2.353132,0.200847,-0.011635,-0.045968
12.248662,0.071908,-2.889868,-2.353132,0.200847,-0.011635,-0.045968
12.258774,0.071908,-2.889868,-2.353132,0.200847,-0.011635,-0.045968
12.268886,0.071908,-2.889868,-2.353132,0.200847,-0.011635,-0.045968
12.278997,0.071908,-2.890249,-2.353132,0.200847,-0.011635,-0.045968
12.289064,0.071908,-2.890631,-2.353132,0.200847,-0.011635,-0.045968
12.299128,0.071908,-2.890631,-2.353132,0.200465,-0.011635,-0.045968
12.309238,0.071908,-2.890631,-2.353132,0.200465,-0.011635,-0.045968
12.319326,0.071908,-2.890631,-2.353132,0.200465,-0.011635,-0.045968
12.329423,0.071908,-2.890631,-2.353132,0.200465,-0.011635,-0.045968
12.339535,0.071908,-2.890631,-2.353132,0.200465,-0.011635,-0.045968
12.349648,0.071908,-2.890631,-2.353132,0.200465,-0.011635,-0.045968
12.359721,0.071908,-2.890631,-2.353132,0.200465,-0.011635,-0.045968
12.369787,0.071908,-2.890631,-2.353132,0.200847,-0.011635,-0.045968
12.379850,0.071908,-2.890631,-2.353132,0.200847,-0.011635,-0.045968
12.389964,0.071908,-2.890631,-2.353132,0.200847,-0.011635,-0.045968
12.400087,0.071908,-2.890631,-2.353132,0.200847,-0.011635,-0.045968
12.410522,0.071908,-2.890631,-2.353132,0.200847,-0.011635,-0.045968
12.420599,0.071908,-2.890631,-2.353132,0.200847,-0.011635,-0.045968
12.430664,0.071908,-2.890631,-2.353132,0.200847,-0.011635,-0.045968
12.440777,0.071908,-2.890631,-2.353132,0.200847,-0.011635,-0.045968
12.450862,0.071908,-2.890631,-2.353132,0.200847,-0.011635,-0.045968
12.460934,0.071908,-2.890631,-2.353132,0.200847,-0.011635,-0.045968
12.471006,0.071908,-2.890631,-2.353132,0.200847,-0.011635,-0.045968
12.481178,0.071908,-2.890631,-2.353132,0.200847,-0.011635,-0.045968
12.491244,0.071908,-2.890631,-2.353132,0.200847,-0.011635,-0.045968
12.501314,0.071908,-2.890631,-2.353132,0.200847,-0.011635,-0.045968
12.511390,0.071908,-2.890631,-2.353132,0.200847,-0.011635,-0.045968
12.521462,0.071908,-2.890631,-2.353132,0.200847,-0.011635,-0.045968
12.531510,0.071908,-2.890631,-2.353132,0.200847,-0.011635,-0.045968
12.541574,0.071908,-2.890631,-2.353132,0.200847,-0.011635,-0.045968
12.551635,0.071908,-2.890631,-2.353132,0.200847,-0.011635,-0.045968
12.561702,0.071908,-2.890631,-2.353132,0.200847,-0.011635,-0.045968
12.571764,0.071908,-2.890631,-2.353132,0.200847,-0.011635,-0.045968
12.581875,0.071908,-2.890631,-2.353132,0.200847,-0.011635,-0.045968
12.591990,0.071908,-2.890631,-2.353132,0.200847,-0.011635,-0.045968
12.602101,0.071908,-2.890631,-2.353132,0.200847,-0.011635,-0.045968
12.612216,0.071908,-2.890631,-2.353132,0.200847,-0.011635,-0.045968
12.622280,0.071908,-2.890631,-2.353132,0.200847,-0.011635,-0.045968
12.632342,0.071908,-2.890631,-2.353132,0.200847,-0.011635,-0.045968
12.642409,0.071908,-2.890631,-2.353132,0.200847,-0.011635,-0.045968
12.652484,0.071908,-2.890631,-2.353132,0.200465,-0.011635,-0.045968
12.662652,0.071908,-2.890631,-2.353132,0.200465,-0.011635,-0.045968
12.672721,0.071908,-2.890631,-2.353132,0.200465,-0.011635,-0.045968
12.682790,0.071908,-2.890631,-2.353132,0.200465,-0.011635,-0.045968
12.692859,0.071908,-2.890631,-2.353132,0.200465,-0.011635,-0.045968
12.702930,0.071908,-2.890631,-2.353132,0.200465,-0.011635,-0.045968
12.712995,0.071908,-2.890631,-2.353132,0.200465,-0.011635,-0.045968
12.723060,0.071908,-2.890631,-2.353132,0.200465,-0.011635,-0.045968
12.733125,0.071908,-2.890631,-2.353132,0.200465,-0.011635,-0.045968
12.743235,0.071908,-2.890631,-2.353132,0.200465,-0.011635,-0.045968
12.753346,0.071908,-2.890631,-2.353132,0.200465,-0.011635,-0.045968
12.763437,0.071908,-2.890631,-2.353132,0.200465,-0.011635,-0.045968
12.773549,0.071908,-2.890631,-2.353132,0.200465,-0.011635,-0.045968
12.783658,0.071908,-2.890631,-2.353132,0.200465,-0.011635,-0.045968
12.793786,0.071908,-2.890631,-2.353132,0.200465,-0.011635,-0.045968
12.803857,0.071908,-2.890631,-2.353132,0.200465,-0.011635,-0.045968
12.813924,0.071908,-2.890631,-2.353132,0.200465,-0.011635,-0.045968
12.823988,0.071908,-2.890631,-2.353132,0.200465,-0.011635,-0.045968
12.834056,0.071908,-2.890631,-2.353132,0.200465,-0.011635,-0.045968
12.844127,0.071908,-2.890631,-2.353132,0.200465,-0.011635,-0.045968
12.854191,0.071908,-2.890631,-2.353132,0.200465,-0.011635,-0.045968
12.864256,0.071908,-2.890631,-2.353132,0.200465,-0.011635,-0.045968
12.874318,0.071908,-2.890631,-2.353132,0.200465,-0.011635,-0.045968
12.884382,0.071908,-2.890631,-2.353132,0.200465,-0.011635,-0.045968
12.894444,0.071908,-2.890631,-2.353132,0.200465,-0.011635,-0.045968
12.904513,0.071908,-2.890631,-2.353132,0.200465,-0.011635,-0.045968
12.914577,0.071908,-2.890631,-2.353132,0.200847,-0.011635,-0.045968
12.924660,0.071908,-2.890631,-2.353132,0.200847,-0.011635,-0.045968
12.934775,0.071908,-2.890631,-2.353132,0.200847,-0.011635,-0.045968
12.944891,0.071908,-2.890631,-2.353132,0.200847,-0.011635,-0.045968
12.955012,0.071908,-2.890631,-2.353132,0.200847,-0.011635,-0.045968
12.965080,0.071908,-2.890631,-2.353132,0.200847,-0.011635,-0.045968
12.975193,0.071908,-2.890631,-2.353132,0.200847,-0.011635,-0.045968
12.985365,0.071908,-2.890631,-2.353132,0.200847,-0.011635,-0.045968
12.995462,0.071908,-2.890631,-2.353132,0.200847,-0.011635,-0.045968
13.005516,0.071908,-2.890631,-2.353132,0.200847,-0.011635,-0.045968
13.015576,0.071908,-2.890631,-2.353132,0.200847,-0.011635,-0.045968
13.025649,0.071908,-2.890631,-2.353132,0.200847,-0.011635,-0.045968
13.035716,0.071908,-2.890631,-2.353132,0.200847,-0.011635,-0.045968
13.046020,0.071908,-2.890631,-2.353132,0.200847,-0.011635,-0.045968
13.056134,0.071908,-2.890631,-2.353132,0.200847,-0.011635,-0.045968
13.066243,0.071908,-2.890631,-2.353132,0.200465,-0.011635,-0.045968
13.076356,0.071908,-2.890631,-2.353132,0.200465,-0.011635,-0.045968
13.086467,0.071908,-2.890631,-2.353132,0.200465,-0.011635,-0.045968
13.096535,0.071908,-2.890631,-2.353132,0.200465,-0.011635,-0.045968
13.106614,0.071908,-2.890631,-2.353132,0.200465,-0.011635,-0.045968
13.116699,0.071908,-2.890631,-2.353132,0.200465,-0.011635,-0.045968
13.126815,0.071908,-2.890631,-2.353132,0.200465,-0.011635,-0.045968
13.136901,0.071908,-2.890631,-2.353132,0.200465,-0.011635,-0.045968
13.146986,0.071908,-2.890631,-2.353132,0.200465,-0.011635,-0.045968
13.157099,0.071908,-2.890631,-2.353132,0.200465,-0.011635,-0.045968
13.167218,0.071908,-2.890631,-2.353132,0.200465,-0.011635,-0.045968
13.177333,0.071908,-2.890631,-2.353132,0.200465,-0.011635,-0.045968
13.187420,0.071908,-2.890631,-2.353132,0.200465,-0.011635,-0.045968
13.197511,0.071908,-2.890631,-2.353132,0.200465,-0.011635,-0.045968
13.207624,0.071908,-2.890631,-2.353132,0.200465,-0.011635,-0.045968
13.217733,0.071908,-2.890631,-2.353132,0.200465,-0.011635,-0.045968
13.227845,0.071908,-2.890631,-2.353132,0.200465,-0.011635,-0.045968
13.237931,0.071908,-2.890631,-2.353132,0.200465,-0.011635,-0.045968
13.247996,0.071908,-2.890631,-2.353132,0.200465,-0.011635,-0.045968
13.258082,0.071908,-2.890631,-2.353132,0.200465,-0.011635,-0.045968
13.268151,0.071908,-2.890631,-2.353132,0.200465,-0.011635,-0.045968
13.278263,0.071908,-2.890631,-2.353132,0.200465,-0.011635,-0.045968
13.288336,0.071908,-2.890631,-2.353132,0.200465,-0.011635,-0.045968
13.298400,0.071908,-2.890631,-2.353132,0.200465,-0.011635,-0.045968
13.308483,0.071908,-2.890631,-2.353132,0.200465,-0.011635,-0.045968
13.318518,0.071908,-2.890631,-2.353132,0.200465,-0.011635,-0.045968
13.328864,0.071908,-2.890631,-2.353132,0.200847,-0.011635,-0.045968
13.338978,0.071908,-2.890631,-2.353132,0.200847,-0.011635,-0.045968
13.349044,0.071908,-2.890631,-2.353132,0.200847,-0.011635,-0.045968
13.359113,0.071908,-2.890631,-2.353132,0.200847,-0.011635,-0.045968
13.369180,0.071908,-2.890631,-2.353132,0.200847,-0.011635,-0.045968
13.379240,0.071908,-2.890631,-2.353132,0.200847,-0.011635,-0.045968
13.389310,0.071908,-2.890631,-2.353132,0.200847,-0.011635,-0.045968
13.399372,0.071908,-2.890631,-2.353132,0.200847,-0.011635,-0.045968
13.409440,0.071908,-2.890631,-2.353132,0.200847,-0.011635,-0.045968
13.419503,0.071908,-2.890631,-2.353132,0.200847,-0.011635,-0.045968
13.429566,0.071908,-2.890631,-2.353132,0.200847,-0.011635,-0.045968
13.439678,0.071908,-2.890631,-2.353132,0.200847,-0.011635,-0.045968
13.449757,0.071908,-2.890631,-2.353132,0.200847,-0.011635,-0.045968
13.460096,0.071908,-2.890631,-2.353132,0.200847,-0.011635,-0.045968
13.470174,0.071908,-2.890631,-2.353132,0.200847,-0.011635,-0.045968
13.480285,0.071908,-2.890249,-2.353132,0.200847,-0.011635,-0.045968
13.490520,0.071908,-2.890249,-2.353132,0.200847,-0.011635,-0.045968
13.500587,0.071908,-2.889868,-2.353132,0.200847,-0.011635,-0.045968
13.510696,0.071908,-2.889105,-2.353132,0.200847,-0.011635,-0.045968
13.520766,0.071908,-2.886816,-2.353132,0.200847,-0.011635,-0.045968
13.530897,0.071908,-2.886053,-2.353132,0.200847,-0.011635,-0.045968
13.540989,0.071908,-2.883764,-2.353132,0.200847,-0.011635,-0.045968
13.551059,0.071908,-2.882620,-2.353132,0.200847,-0.011635,-0.045968
13.561122,0.071908,-2.880331,-2.353132,0.200847,-0.011635,-0.045968
13.571190,0.071908,-2.879187,-2.353132,0.200847,-0.011635,-0.045968
13.581319,0.071908,-2.876135,-2.353132,0.200847,-0.011635,-0.045968
13.591432,0.071908,-2.874990,-2.353132,0.201228,-0.011635,-0.045968
13.601545,0.071908,-2.872702,-2.353132,0.201228,-0.011635,-0.045968
13.611864,0.071908,-2.871176,-2.353132,0.201610,-0.011635,-0.045968
13.621977,0.071908,-2.868887,-2.353132,0.201610,-0.011635,-0.045968
13.632062,0.071908,-2.867743,-2.353132,0.201610,-0.011635,-0.045968
13.642122,0.071908,-2.865072,-2.353132,0.201610,-0.011635,-0.045968
13.652192,0.071908,-2.863928,-2.353132,0.201610,-0.011635,-0.045968
13.662303,0.071908,-2.862402,-2.353132,0.201610,-0.011635,-0.045968
13.672780,0.071908,-2.861258,-2.353132,0.201610,-0.011635,-0.045968
13.682866,0.071908,-2.859350,-2.353132,0.201610,-0.011635,-0.045968
13.692977,0.071908,-2.858206,-2.353132,0.201610,-0.011635,-0.045968
13.703066,0.071908,-2.856298,-2.353132,0.201610,-0.011635,-0.045968
13.713159,0.071908,-2.855536,-2.353132,0.201610,-0.011635,-0.045968
13.723276,0.071908,-2.853628,-2.353132,0.201610,-0.011635,-0.045968
13.733389,0.071908,-2.852484,-2.353132,0.201610,-0.011635,-0.045968
13.743523,0.071908,-2.850958,-2.353132,0.201610,-0.011635,-0.045968
13.753639,0.071908,-2.850195,-2.353132,0.201610,-0.011635,-0.045968
13.763751,0.071908,-2.848669,-2.353132,0.201610,-0.011635,-0.045968
13.773863,0.071908,-2.847906,-2.353132,0.201610,-0.011635,-0.045968
13.783941,0.071908,-2.845617,-2.353132,0.201610,-0.011635,-0.045968
13.794281,0.071908,-2.844473,-2.352751,0.201610,-0.011635,-0.045968
13.804858,0.071908,-2.842946,-2.352369,0.201610,-0.011635,-0.045968
13.814956,0.071908,-2.842183,-2.351988,0.201610,-0.011635,-0.045968
13.825294,0.071908,-2.840657,-2.351225,0.201610,-0.011635,-0.045968
13.835408,0.071908,-2.839513,-2.350843,0.201610,-0.011635,-0.045968
13.845522,0.071908,-2.837224,-2.350462,0.201610,-0.011635,-0.045968
13.855641,0.071908,-2.836080,-2.350462,0.201610,-0.011635,-0.045968
13.865728,0.071908,-2.833791,-2.350462,0.201610,-0.011635,-0.045968
13.875839,0.071908,-2.832646,-2.350462,0.201610,-0.011635,-0.045968
13.885902,0.071908,-2.830358,-2.350462,0.201610,-0.011635,-0.045968
13.895969,0.071908,-2.829595,-2.350462,0.201610,-0.011635,-0.045968
13.906031,0.071908,-2.827687,-2.350462,0.201610,-0.011635,-0.045968
13.916096,0.071908,-2.826543,-2.350462,0.201610,-0.011635,-0.045968
13.926165,0.071908,-2.824254,-2.350462,0.201610,-0.011635,-0.045968
13.936236,0.071908,-2.823491,-2.350462,0.201610,-0.011635,-0.045968
13.946346,0.071908,-2.820821,-2.350462,0.201610,-0.011635,-0.045968
13.956430,0.071908,-2.819676,-2.350462,0.201610,-0.011635,-0.045968
13.966529,0.071908,-2.817769,-2.350462,0.201610,-0.011635,-0.045968
13.976644,0.071908,-2.817006,-2.350462,0.201610,-0.011635,-0.045968
13.986726,0.071908,-2.815099,-2.350462,0.201610,-0.011635,-0.045968
13.996837,0.071908,-2.813954,-2.350462,0.201610,-0.011635,-0.045968
14.006911,0.071908,-2.811666,-2.350462,0.201610,-0.011635,-0.045968
14.016979,0.071908,-2.810521,-2.350462,0.201610,-0.011635,-0.045968
14.027091,0.071908,-2.808614,-2.350462,0.201610,-0.011635,-0.045968
14.037157,0.071908,-2.807851,-2.350462,0.201991,-0.011635,-0.045968
14.047217,0.071908,-2.805943,-2.350462,0.201991,-0.011635,-0.045968
14.057299,0.071908,-2.804799,-2.350462,0.201991,-0.011635,-0.045968
14.067365,0.071908,-2.803273,-2.350462,0.201991,-0.011635,-0.045968
14.077479,0.071908,-2.802129,-2.350462,0.201991,-0.011635,-0.045968
14.087520,0.071908,-2.799840,-2.350462,0.201991,-0.011635,-0.045968
14.097611,0.071908,-2.798696,-2.350462,0.201991,-0.011635,-0.045968
14.107728,0.071908,-2.796788,-2.350462,0.201991,-0.011635,-0.045968
14.117813,0.071908,-2.796025,-2.350462,0.201991,-0.011635,-0.045968
14.127925,0.071908,-2.794499,-2.350462,0.201991,-0.011635,-0.045968
14.138018,0.071908,-2.793355,-2.350462,0.201991,-0.011635,-0.045968
14.148104,0.071908,-2.791448,-2.350462,0.202373,-0.011635,-0.045968
14.158187,0.071908,-2.790303,-2.350462,0.202754,-0.011635,-0.045968
14.168312,0.071908,-2.788014,-2.350462,0.202754,-0.011635,-0.045968
14.178391,0.071908,-2.786870,-2.350462,0.202754,-0.011635,-0.045968
14.188458,0.071908,-2.784581,-2.350462,0.203135,-0.011635,-0.045968
14.198567,0.071908,-2.783818,-2.350462,0.203517,-0.011635,-0.045968
14.208681,0.071908,-2.781529,-2.350462,0.203898,-0.011635,-0.045968
14.218770,0.071908,-2.780384,-2.350462,0.204280,-0.011635,-0.045968
14.228883,0.071908,-2.777714,-2.350080,0.205424,-0.011635,-0.045968
14.238997,0.071908,-2.776569,-2.350462,0.205806,-0.011635,-0.045968
14.249107,0.071908,-2.773518,-2.350462,0.206950,-0.011635,-0.045968
14.259222,0.071908,-2.771992,-2.350462,0.207713,-0.011635,-0.045968
14.269289,0.071908,-2.769321,-2.350462,0.208476,-0.011635,-0.045968
14.279400,0.071908,-2.767796,-2.350080,0.209239,-0.011635,-0.045968
14.289483,0.071908,-2.764744,-2.350080,0.210383,-0.011635,-0.045968
14.299516,0.071908,-2.763599,-2.350080,0.210765,-0.011635,-0.045968
14.309641,0.071908,-2.760548,-2.350080,0.212291,-0.011635,-0.045968
14.319712,0.071908,-2.759403,-2.350080,0.213054,-0.011635,-0.045968
14.329825,0.071908,-2.756733,-2.350080,0.214580,-0.011635,-0.045968
14.339893,0.071908,-2.754826,-2.350462,0.214961,-0.011635,-0.045968
14.349967,0.071908,-2.751392,-2.350080,0.215343,-0.011635,-0.045968
14.360080,0.071908,-2.750248,-2.350080,0.215724,-0.011635,-0.045968
14.370192,0.071908,-2.746815,-2.350080,0.216105,-0.011635,-0.045968
14.380303,0.071908,-2.745670,-2.350080,0.216487,-0.011635,-0.046350
14.390420,0.071908,-2.743000,-2.350080,0.216487,-0.011635,-0.046350
14.400541,0.071908,-2.741474,-2.350080,0.216487,-0.011635,-0.047494
14.410655,0.071908,-2.739185,-2.349699,0.216487,-0.011635,-0.048257
14.420769,0.071908,-2.738041,-2.349318,0.216487,-0.011635,-0.050164
14.430885,0.071908,-2.735752,-2.349318,0.216487,-0.011635,-0.051690
14.440953,0.071908,-2.734608,-2.349318,0.216105,-0.011635,-0.053216
14.451019,0.071908,-2.732700,-2.349318,0.215724,-0.011635,-0.053979
14.461132,0.071908,-2.731937,-2.349318,0.215724,-0.011635,-0.055123
14.471243,0.071908,-2.730030,-2.349318,0.215724,-0.011635,-0.055886
14.481356,0.071908,-2.729267,-2.349318,0.215724,-0.011635,-0.057031
14.491471,0.071908,-2.728123,-2.349318,0.215724,-0.011635,-0.057412
14.501534,0.071908,-2.727360,-2.349318,0.215724,-0.011635,-0.057412
14.511647,0.071908,-2.726215,-2.349318,0.215724,-0.011635,-0.057412
14.521761,0.071908,-2.725834,-2.349318,0.215724,-0.011635,-0.057412
14.531874,0.071908,-2.725071,-2.349318,0.215724,-0.011635,-0.057412
14.541988,0.071908,-2.724689,-2.349318,0.215724,-0.011635,-0.057412
14.552074,0.071908,-2.723927,-2.349318,0.215724,-0.011635,-0.057412
14.562417,0.071908,-2.723545,-2.349318,0.215724,-0.011635,-0.057412
14.572530,0.071908,-2.722401,-2.349318,0.215724,-0.011635,-0.057412
14.582616,0.071908,-2.722019,-2.349318,0.215724,-0.011635,-0.057412
14.592730,0.071908,-2.721638,-2.349318,0.215724,-0.011635,-0.057412
14.602823,0.071908,-2.721256,-2.348936,0.215724,-0.011635,-0.057412
14.612946,0.071908,-2.721256,-2.348936,0.215724,-0.011635,-0.057412
14.623062,0.071908,-2.720875,-2.348555,0.215724,-0.011635,-0.057412
14.633150,0.071908,-2.720875,-2.347410,0.215724,-0.011635,-0.057412
14.643262,0.071908,-2.720875,-2.346647,0.215724,-0.011635,-0.057412
14.653350,0.071908,-2.720493,-2.344358,0.215724,-0.011635,-0.057412
14.663460,0.071908,-2.720112,-2.343595,0.215343,-0.011635,-0.057412
14.673573,0.071908,-2.719730,-2.342069,0.215343,-0.011635,-0.057412
14.683683,0.071908,-2.719349,-2.340924,0.214961,-0.011635,-0.057412
14.693796,0.071908,-2.719349,-2.339017,0.214580,-0.011635,-0.057412
14.703887,0.071908,-2.719349,-2.337873,0.214580,-0.011635,-0.057412
14.713960,0.071908,-2.719349,-2.337110,0.214580,-0.011635,-0.057412
14.724030,0.071908,-2.719349,-2.335584,0.214580,-0.011635,-0.057031
14.734109,0.071908,-2.719349,-2.334821,0.214961,-0.011635,-0.057031
14.744222,0.071908,-2.719349,-2.332532,0.214961,-0.011635,-0.056649
14.754337,0.071908,-2.719349,-2.331388,0.214580,-0.011635,-0.056268
14.764449,0.071908,-2.719349,-2.329099,0.214580,-0.011635,-0.056268
14.774532,0.071908,-2.719349,-2.327954,0.214580,-0.011635,-0.056268
14.784618,0.071908,-2.719349,-2.326047,0.214580,-0.012016,-0.056268
14.794679,0.071908,-2.719349,-2.325284,0.214580,-0.012016,-0.056268
14.804745,0.071908,-2.719349,-2.322995,0.214580,-0.012398,-0.056268
