meetsitaram/go2-rebot/recordings/test_20260423_095828.csv
t,joint1,joint2,joint3,joint4,joint5,joint6,gripper
0.001318,0.003242,0.008202,0.005150,0.006294,-0.004768,-0.053979,0.003242
0.011382,0.003242,0.008202,0.005150,0.006294,-0.004768,-0.051690,0.003242
0.021451,0.003242,0.008202,0.005150,0.006294,-0.004387,-0.045205,0.003242
0.031519,0.003242,0.008202,0.005150,0.006294,-0.004387,-0.041390,0.003242
0.041583,0.003242,0.008202,0.005150,0.005913,-0.004387,-0.032235,0.003242
0.051643,0.003242,0.008202,0.005150,0.005913,-0.004387,-0.027657,0.003242
0.061708,0.003242,0.008202,0.005150,0.005913,-0.004768,-0.018501,0.003242
0.071791,0.003242,0.008202,0.005150,0.005531,-0.004768,-0.013924,0.003242
0.081857,0.003242,0.008202,0.005150,0.004768,-0.005150,-0.005150,0.003242
0.091919,0.003242,0.008202,0.005150,0.004768,-0.005150,-0.000954,0.003242
0.101983,0.003242,0.008202,0.005150,0.005150,-0.005913,0.006294,0.003242
0.112024,0.003242,0.008202,0.005150,0.005150,-0.005913,0.009727,0.003242
0.122087,0.003242,0.008202,0.005150,0.005150,-0.006676,0.015068,0.003242
0.132158,0.003242,0.008202,0.005150,0.005150,-0.006676,0.017357,0.003242
0.142224,0.003242,0.008202,0.005150,0.005150,-0.006676,0.021172,0.003242
0.152305,0.003242,0.008202,0.005150,0.005150,-0.006676,0.022697,0.003242
0.162377,0.003242,0.008202,0.005150,0.004768,-0.006676,0.024223,0.003242
0.172458,0.003242,0.008202,0.005150,0.004768,-0.006676,0.024605,0.003242
0.182525,0.003242,0.008202,0.005150,0.005150,-0.006676,0.024223,0.003242
0.192606,0.003242,0.008202,0.005150,0.005150,-0.006676,0.024223,0.003242
0.202674,0.003242,0.008202,0.005150,0.005150,-0.006294,0.024223,0.003242
0.212740,0.003242,0.008202,0.005150,0.005150,-0.006294,0.024223,0.003242
0.222802,0.003242,0.008202,0.005150,0.005150,-0.005913,0.023842,0.003242
0.232867,0.003242,0.008202,0.005150,0.005150,-0.005913,0.023842,0.003242
0.242929,0.003242,0.008202,0.005150,0.004768,-0.005913,0.021935,0.003242
0.253001,0.003242,0.008202,0.005150,0.004768,-0.005913,0.020790,0.003242
0.263157,0.003242,0.008202,0.005150,0.004768,-0.005913,0.018120,0.003242
0.273268,0.003242,0.008202,0.005150,0.004768,-0.005913,0.016212,0.003242
0.283388,0.003242,0.008202,0.005150,0.004768,-0.005913,0.011635,0.003242
0.293500,0.003242,0.008202,0.005150,0.004768,-0.005913,0.008965,0.003242
0.303571,0.003242,0.008202,0.005150,0.004768,-0.005913,0.003242,0.003242
0.313644,0.003242,0.008202,0.005150,0.004768,-0.005913,0.000191,0.003242
0.323711,0.003242,0.008202,0.005150,0.004768,-0.005913,-0.005913,0.003242
0.333781,0.003242,0.008202,0.005150,0.004768,-0.005531,-0.009346,0.003242
0.343843,0.003242,0.008202,0.005150,0.004768,-0.005531,-0.015831,0.003242
0.353915,0.003242,0.008202,0.005150,0.004768,-0.005531,-0.019264,0.003242
0.363982,0.003242,0.008202,0.005150,0.004768,-0.005531,-0.026512,0.003242
0.374056,0.003242,0.008202,0.005150,0.004768,-0.005531,-0.029945,0.003242
0.384127,0.003242,0.008202,0.005150,0.004768,-0.005531,-0.036813,0.003242
0.394290,0.003242,0.008202,0.005150,0.004768,-0.005531,-0.039865,0.003242
0.404404,0.003242,0.008202,0.005150,0.004768,-0.005531,-0.046350,0.003242
0.414522,0.003242,0.008202,0.005150,0.004768,-0.005531,-0.049401,0.003242
0.424634,0.003242,0.008202,0.005150,0.004768,-0.005531,-0.055123,0.003242
0.434747,0.003242,0.008202,0.005150,0.004768,-0.005531,-0.057794,0.003242
0.444870,0.003242,0.008202,0.005150,0.004768,-0.005531,-0.062753,0.003242
0.454990,0.003242,0.008202,0.005150,0.004768,-0.005531,-0.065042,0.003242
0.465064,0.003242,0.008202,0.005150,0.004768,-0.005531,-0.068475,0.003242
0.475173,0.003242,0.008202,0.005150,0.004768,-0.005913,-0.070001,0.003242
0.485282,0.003242,0.008202,0.005150,0.004768,-0.005913,-0.072289,0.003242
0.495363,0.003242,0.008202,0.005150,0.004768,-0.005913,-0.072671,0.003242
0.505470,0.003242,0.008202,0.005150,0.004768,-0.005913,-0.072289,0.003242
0.515585,0.003242,0.008202,0.005150,0.004768,-0.005913,-0.072289,0.003242
0.525655,0.003242,0.008202,0.005150,0.004768,-0.005913,-0.071527,0.003242
0.535724,0.003242,0.008202,0.005150,0.004768,-0.005531,-0.071145,0.003242
0.545832,0.003242,0.008202,0.005150,0.005150,-0.005531,-0.070382,0.003242
0.555948,0.003242,0.008202,0.005150,0.005150,-0.005531,-0.069619,0.003242
0.566071,0.003242,0.008202,0.005150,0.005150,-0.005150,-0.068475,0.003242
0.576180,0.003242,0.008202,0.005150,0.005150,-0.004768,-0.067712,0.003242
0.586292,0.003242,0.008202,0.005150,0.005150,-0.004768,-0.065804,0.003242
0.596379,0.003242,0.008202,0.005150,0.005150,-0.004768,-0.064279,0.003242
0.606494,0.003242,0.008202,0.005150,0.005150,-0.004768,-0.061608,0.003242
0.616613,0.003242,0.008202,0.005150,0.005150,-0.004768,-0.060082,0.003242
0.626724,0.003242,0.008202,0.005150,0.005150,-0.004768,-0.056649,0.003242
0.636796,0.003242,0.008202,0.005150,0.005150,-0.004768,-0.055505,0.003242
0.646914,0.003242,0.008202,0.005150,0.005150,-0.004768,-0.053216,0.003242
0.657036,0.003242,0.008202,0.005150,0.005150,-0.005150,-0.052072,0.003242
0.667126,0.003242,0.008202,0.005150,0.005150,-0.005150,-0.050164,0.003242
0.677238,0.003242,0.008202,0.005150,0.005150,-0.005150,-0.049401,0.003242
0.687347,0.003242,0.008202,0.005150,0.005150,-0.005150,-0.048638,0.003242
0.697433,0.003242,0.008202,0.005150,0.005150,-0.005150,-0.048638,0.003242
0.707540,0.003242,0.008202,0.005150,0.005150,-0.005150,-0.047494,0.003242
0.717650,0.003242,0.008202,0.005150,0.005150,-0.005150,-0.047112,0.003242
0.727736,0.003242,0.008202,0.005150,0.005150,-0.005150,-0.046350,0.003242
0.737858,0.003242,0.008202,0.005150,0.005150,-0.005150,-0.045587,0.003242
0.748020,0.003242,0.008202,0.005150,0.005150,-0.005150,-0.045205,0.003242
0.758130,0.003242,0.008202,0.005150,0.005150,-0.005150,-0.045205,0.003242
0.768246,0.003242,0.008202,0.005150,0.004768,-0.005531,-0.045205,0.003242
0.778328,0.003242,0.008202,0.005150,0.004768,-0.005531,-0.045205,0.003242
0.788403,0.003242,0.008202,0.005150,0.004768,-0.005913,-0.045205,0.003242
0.798473,0.003242,0.008202,0.005150,0.004768,-0.005913,-0.045205,0.003242
0.808583,0.003242,0.008202,0.005150,0.004768,-0.005913,-0.045205,0.003242
0.818905,0.003242,0.008202,0.005150,0.004768,-0.005913,-0.045205,0.003242
0.829005,0.003242,0.008202,0.005150,0.004768,-0.005913,-0.045205,0.003242
0.839036,0.003242,0.008202,0.005150,0.004768,-0.005913,-0.045205,0.003242
0.849103,0.003242,0.008202,0.005150,0.005150,-0.005913,-0.045205,0.003242
0.859213,0.003242,0.008202,0.005150,0.005150,-0.005913,-0.045205,0.003242
0.869336,0.003242,0.008202,0.005150,0.005150,-0.005913,-0.045205,0.003242
0.879456,0.003242,0.008202,0.005150,0.005150,-0.005913,-0.045205,0.003242
0.889569,0.003242,0.008202,0.005150,0.005150,-0.005913,-0.045205,0.003242
0.899680,0.003242,0.008202,0.005150,0.005150,-0.005913,-0.045205,0.003242
0.909807,0.003242,0.008202,0.005150,0.005150,-0.005913,-0.045205,0.003242
0.919924,0.003242,0.008202,0.005150,0.005150,-0.005913,-0.045205,0.003242
0.930004,0.003242,0.008202,0.005150,0.005150,-0.005913,-0.045205,0.003242
0.940118,0.003242,0.008202,0.005150,0.005150,-0.005913,-0.045205,0.003242
0.950229,0.003242,0.008202,0.005150,0.005150,-0.005913,-0.045205,0.003242
0.960348,0.003242,0.008202,0.005150,0.005150,-0.005913,-0.045205,0.003242
0.970412,0.003242,0.008202,0.005150,0.005150,-0.005913,-0.045205,0.003242
0.980475,0.003242,0.008202,0.005150,0.005150,-0.005913,-0.045205,0.003242
0.990538,0.003242,0.008202,0.005150,0.005150,-0.005913,-0.045205,0.003242
1.000598,0.003242,0.008202,0.005150,0.005150,-0.005913,-0.045205,0.003242
1.010660,0.003242,0.008202,0.005150,0.005150,-0.005913,-0.045205,0.003242
1.020723,0.003242,0.008202,0.005150,0.005150,-0.005913,-0.045205,0.003242
1.030795,0.003242,0.008202,0.005150,0.005150,-0.005913,-0.045205,0.003242
1.040858,0.003242,0.008202,0.005150,0.005150,-0.005913,-0.045205,0.003242
1.050929,0.003242,0.008202,0.005150,0.005150,-0.005913,-0.045205,0.003242
1.060995,0.003242,0.008202,0.005150,0.005150,-0.005913,-0.045205,0.003242
1.071110,0.003242,0.008202,0.005150,0.005150,-0.005913,-0.045205,0.003242
1.081198,0.003242,0.008202,0.005150,0.005150,-0.005913,-0.045205,0.003242
1.091309,0.003242,0.008202,0.005150,0.005150,-0.005913,-0.045205,0.003242
1.101418,0.003242,0.008202,0.005150,0.005150,-0.005913,-0.045205,0.003242
1.111527,0.003242,0.008202,0.005150,0.005150,-0.005913,-0.045205,0.003242
1.121649,0.003242,0.008202,0.005150,0.005150,-0.005913,-0.045205,0.003242
1.131717,0.003242,0.008202,0.005150,0.005150,-0.005913,-0.045205,0.003242
1.141782,0.003242,0.008202,0.005150,0.005150,-0.005913,-0.045205,0.003242
1.151844,0.003242,0.008202,0.005150,0.005150,-0.005913,-0.045205,0.003242
1.161960,0.003242,0.008202,0.005150,0.005150,-0.005913,-0.045205,0.003242
1.172077,0.003242,0.008202,0.005150,0.005150,-0.005913,-0.045205,0.003242
1.182190,0.003242,0.008202,0.005150,0.005150,-0.005913,-0.045205,0.003242
1.192313,0.003242,0.008202,0.005150,0.005150,-0.005913,-0.045205,0.003242
1.202425,0.003242,0.008202,0.005150,0.005150,-0.005913,-0.045205,0.003242
1.212541,0.003242,0.008202,0.005150,0.005150,-0.005913,-0.045205,0.003242
1.222655,0.003242,0.008202,0.005150,0.005150,-0.005913,-0.045205,0.003242
1.232832,0.003242,0.008202,0.005150,0.005150,-0.005913,-0.045205,0.003242
1.242943,0.003242,0.008202,0.005150,0.005150,-0.005913,-0.045205,0.003242
1.253113,0.003242,0.008202,0.005150,0.005150,-0.005913,-0.045205,0.003242
1.263197,0.003242,0.008202,0.005150,0.005150,-0.005913,-0.045205,0.003242
1.273328,0.003242,0.008202,0.005150,0.005150,-0.005913,-0.045205,0.003242
1.283439,0.003242,0.008202,0.005150,0.005150,-0.005913,-0.045205,0.003242
1.293527,0.003242,0.008202,0.005150,0.005150,-0.005913,-0.045205,0.003242
1.303652,0.003242,0.008202,0.005150,0.005150,-0.005913,-0.045205,0.003242
1.313764,0.003242,0.008202,0.005150,0.005150,-0.005913,-0.045205,0.003242
1.323847,0.003242,0.008202,0.005150,0.005150,-0.005913,-0.045205,0.003242
1.333958,0.003242,0.008202,0.005150,0.005150,-0.005913,-0.045205,0.003242
1.344073,0.003242,0.008202,0.005150,0.005150,-0.005913,-0.045205,0.003242
1.354193,0.003242,0.008202,0.005150,0.005150,-0.005913,-0.045205,0.003242
1.364303,0.003242,0.008202,0.005150,0.005150,-0.005913,-0.045205,0.003242
1.374417,0.003242,0.008202,0.005150,0.005150,-0.005913,-0.045205,0.003242
1.384530,0.003242,0.008202,0.005150,0.005150,-0.005913,-0.045205,0.003242
1.394646,0.003242,0.008202,0.005150,0.005150,-0.005913,-0.045205,0.003242
1.404762,0.003242,0.008202,0.005150,0.005150,-0.005913,-0.045205,0.003242
1.414877,0.003242,0.008202,0.005150,0.005150,-0.005913,-0.045205,0.003242
1.424997,0.003242,0.008202,0.005150,0.005150,-0.005913,-0.045205,0.003242
1.435113,0.003242,0.008202,0.005150,0.005150,-0.005913,-0.045205,0.003242
1.445275,0.003242,0.008202,0.005150,0.005150,-0.005913,-0.045205,0.003242
1.455395,0.003242,0.008202,0.005150,0.005150,-0.005913,-0.045205,0.003242
1.465463,0.003242,0.008202,0.005150,0.005150,-0.005913,-0.045205,0.003242
1.475550,0.003242,0.008202,0.005150,0.005150,-0.005913,-0.045205,0.003242
1.485659,0.003242,0.008202,0.005150,0.005150,-0.005913,-0.045205,0.003242
1.495769,0.003242,0.008202,0.005150,0.005150,-0.005913,-0.045205,0.003242
1.505870,0.003242,0.008202,0.005150,0.005150,-0.005913,-0.045205,0.003242
1.516025,0.003242,0.008202,0.005150,0.005150,-0.005913,-0.045205,0.003242
1.526142,0.003242,0.008202,0.005150,0.005150,-0.005913,-0.045205,0.003242
1.536230,0.003242,0.008202,0.005150,0.005150,-0.005913,-0.045205,0.003242
1.546361,0.003242,0.008202,0.005150,0.005150,-0.005913,-0.045205,0.003242
1.556471,0.003242,0.008202,0.005150,0.005150,-0.005913,-0.045205,0.003242
1.566586,0.003242,0.008202,0.005150,0.005150,-0.005913,-0.045205,0.003242
1.576698,0.003242,0.008202,0.005150,0.005150,-0.005913,-0.045205,0.003242
1.586817,0.003242,0.008202,0.005150,0.005150,-0.005913,-0.045205,0.003242
1.596929,0.003242,0.008202,0.005150,0.005150,-0.005913,-0.045205,0.003242
1.607043,0.003242,0.008202,0.005150,0.005150,-0.005913,-0.045205,0.003242
1.617126,0.003242,0.008202,0.005150,0.005150,-0.005913,-0.045205,0.003242
1.627237,0.003242,0.008202,0.005150,0.005150,-0.005913,-0.045205,0.003242
1.637349,0.003242,0.008202,0.005150,0.005150,-0.005913,-0.045205,0.003242
1.647427,0.003242,0.008202,0.005150,0.005150,-0.005913,-0.045205,0.003242
1.657536,0.003242,0.008202,0.005150,0.005150,-0.005913,-0.045205,0.003242
1.667615,0.003242,0.008202,0.005150,0.005150,-0.005913,-0.045205,0.003242
1.677730,0.003242,0.008202,0.005150,0.005150,-0.005913,-0.045205,0.003242
1.687844,0.003242,0.008202,0.005150,0.005150,-0.005913,-0.045205,0.003242
1.697954,0.003242,0.008202,0.005150,0.005150,-0.005913,-0.045205,0.003242
1.708067,0.003242,0.008202,0.005150,0.005150,-0.005913,-0.045205,0.003242
1.718182,0.003242,0.008202,0.005150,0.005150,-0.005913,-0.045205,0.003242
1.728251,0.003242,0.008202,0.005150,0.005150,-0.005913,-0.045205,0.003242
1.738319,0.003242,0.008202,0.005150,0.005150,-0.005913,-0.045205,0.003242
1.748395,0.003242,0.008202,0.005150,0.005150,-0.005913,-0.045205,0.003242
1.758503,0.003242,0.008202,0.005150,0.005150,-0.005913,-0.045205,0.003242
1.768618,0.003242,0.008202,0.005150,0.005150,-0.005913,-0.045205,0.003242
1.778731,0.003242,0.008202,0.005150,0.005150,-0.005913,-0.045205,0.003242
1.788842,0.003242,0.008202,0.005150,0.005150,-0.005913,-0.045205,0.003242
1.799156,0.003242,0.008202,0.005150,0.005150,-0.005913,-0.045205,0.003242
1.809265,0.003242,0.008202,0.005150,0.005150,-0.005913,-0.045205,0.003242
1.819351,0.003242,0.008202,0.005150,0.005150,-0.005913,-0.045205,0.003242
1.829464,0.003242,0.008202,0.005150,0.005150,-0.005913,-0.045205,0.003242
1.839582,0.003242,0.008202,0.005150,0.005150,-0.005913,-0.045205,0.003242
1.849695,0.003242,0.008202,0.005150,0.005150,-0.005913,-0.045205,0.003242
1.859807,0.003242,0.008202,0.005150,0.005150,-0.005913,-0.045205,0.003242
1.869919,0.003242,0.008202,0.005150,0.005150,-0.005913,-0.045205,0.003242
1.880049,0.003242,0.008202,0.005150,0.005150,-0.005913,-0.045205,0.002098
1.890168,0.003242,0.008202,0.005150,0.005150,-0.005913,-0.045205,0.001335
1.900278,0.003242,0.008202,0.005150,0.005150,-0.005913,-0.045205,-0.000191
1.910401,0.003242,0.008202,0.005150,0.005150,-0.005913,-0.045205,-0.000572
1.920510,0.003242,0.008202,0.005150,0.005150,-0.005913,-0.045205,-0.002098
1.930586,0.003242,0.008202,0.005150,0.005150,-0.005913,-0.045205,-0.002861
1.940657,0.003242,0.008202,0.005150,0.005150,-0.005913,-0.045205,-0.004768
1.950743,0.003242,0.008202,0.005150,0.005150,-0.005913,-0.045205,-0.006294
1.960854,0.003242,0.008202,0.005150,0.005150,-0.005913,-0.045205,-0.009346
1.970948,0.003242,0.008202,0.005150,0.005150,-0.005913,-0.045205,-0.010872
1.981039,0.003242,0.008202,0.005150,0.005150,-0.005913,-0.045205,-0.015068
1.991124,0.003242,0.008202,0.005150,0.005150,-0.005913,-0.045205,-0.017357
2.001212,0.003242,0.008202,0.005150,0.005150,-0.005913,-0.045205,-0.022316
2.011324,0.003242,0.008202,0.005150,0.005150,-0.005913,-0.045205,-0.025368
2.021400,0.003242,0.008202,0.005150,0.005150,-0.005913,-0.045205,-0.031472
2.031516,0.003242,0.008202,0.005150,0.005150,-0.005913,-0.045205,-0.034905
2.041631,0.003242,0.008202,0.005150,0.005150,-0.005913,-0.045205,-0.042535
2.051748,0.003242,0.008202,0.005150,0.005150,-0.005913,-0.045205,-0.046731
2.061864,0.003242,0.008202,0.005150,0.005150,-0.005913,-0.045205,-0.055886
2.071949,0.003242,0.008202,0.005150,0.005150,-0.005913,-0.045205,-0.060845
2.082125,0.003242,0.008202,0.005150,0.005150,-0.005913,-0.045205,-0.071527
2.092200,0.003242,0.008202,0.005150,0.005150,-0.005913,-0.045205,-0.077249
2.102271,0.003242,0.008202,0.005150,0.005150,-0.005913,-0.045205,-0.089837
2.112338,0.003242,0.008202,0.005150,0.005150,-0.005913,-0.045205,-0.096323
2.122424,0.003242,0.008202,0.005150,0.005150,-0.005913,-0.045205,-0.110056
2.132492,0.003242,0.008202,0.005150,0.005150,-0.005913,-0.045205,-0.117304
2.142603,0.003242,0.008202,0.005150,0.005150,-0.005913,-0.045205,-0.132181
2.152687,0.003242,0.008202,0.005150,0.005150,-0.005913,-0.045205,-0.139429
2.162813,0.003242,0.008202,0.005150,0.005150,-0.005913,-0.045205,-0.155451
2.172927,0.003242,0.008202,0.005150,0.005150,-0.005913,-0.045205,-0.163463
2.183036,0.003242,0.008202,0.005150,0.005150,-0.005913,-0.045205,-0.180629
2.193147,0.003242,0.008202,0.005150,0.005150,-0.005913,-0.045205,-0.189403
2.203267,0.003242,0.008202,0.005150,0.005150,-0.005913,-0.045205,-0.207332
2.213394,0.003242,0.008202,0.005150,0.005150,-0.005913,-0.045205,-0.216105
2.223504,0.003242,0.008202,0.005150,0.005150,-0.005913,-0.045205,-0.233654
2.233615,0.003242,0.008202,0.005150,0.005150,-0.005913,-0.045205,-0.242809
2.243731,0.003242,0.008202,0.005150,0.005150,-0.005913,-0.045587,-0.260738
2.253847,0.003242,0.008202,0.005150,0.005150,-0.005913,-0.045968,-0.269894
2.263955,0.003242,0.008202,0.005150,0.005150,-0.005913,-0.045968,-0.289731
2.274072,0.003242,0.008202,0.005150,0.005150,-0.005913,-0.045968,-0.298886
2.284144,0.003242,0.008202,0.005150,0.005150,-0.005913,-0.045968,-0.317578
2.294257,0.003242,0.008202,0.005150,0.005150,-0.005913,-0.045968,-0.326352
2.304384,0.003242,0.008202,0.005150,0.005150,-0.005913,-0.045968,-0.343901
2.314502,0.003242,0.008202,0.005150,0.005150,-0.005913,-0.045968,-0.352674
2.324618,0.003242,0.008202,0.005150,0.005150,-0.005913,-0.045968,-0.370604
2.334733,0.003242,0.008202,0.005150,0.005150,-0.005913,-0.045968,-0.379377
2.344861,0.003242,0.008202,0.005150,0.005150,-0.005913,-0.046350,-0.397688
2.354974,0.003242,0.008202,0.005150,0.005150,-0.005913,-0.046731,-0.406080
2.365070,0.003242,0.008202,0.005150,0.005150,-0.006294,-0.048257,-0.422484
2.375183,0.003242,0.008202,0.005150,0.005150,-0.006294,-0.049020,-0.430114
2.385296,0.003242,0.008202,0.005150,0.005150,-0.006676,-0.050546,-0.445373
2.395409,0.003242,0.008202,0.005150,0.005150,-0.007057,-0.051309,-0.453002
2.405519,0.003242,0.008202,0.005150,0.005150,-0.007057,-0.052453,-0.468261
2.415629,0.003242,0.008202,0.005150,0.005150,-0.007057,-0.052453,-0.475510
2.425740,0.003242,0.008202,0.005150,0.005150,-0.006676,-0.052453,-0.490387
2.435850,0.003242,0.008202,0.005150,0.005150,-0.006676,-0.052453,-0.497253
2.445961,0.003242,0.008202,0.005150,0.005150,-0.006676,-0.052453,-0.510223
2.456026,0.003242,0.008202,0.005150,0.005150,-0.006676,-0.052453,-0.515945
2.466108,0.003242,0.008202,0.005150,0.005150,-0.006676,-0.052453,-0.527008
2.476225,0.003242,0.008202,0.005150,0.005150,-0.006676,-0.052453,-0.532350
2.486334,0.003242,0.008202,0.005150,0.004768,-0.006676,-0.052453,-0.542268
2.496777,0.003242,0.008202,0.005150,0.004768,-0.006676,-0.052453,-0.547227
2.506865,0.003242,0.008202,0.005150,0.004768,-0.006676,-0.052453,-0.556764
2.516930,0.003242,0.008202,0.005150,0.004768,-0.006676,-0.052453,-0.560960
2.527027,0.003242,0.008202,0.005150,0.004768,-0.006676,-0.052453,-0.569734
2.537074,0.003242,0.008202,0.005150,0.004768,-0.006676,-0.052453,-0.573930
2.547184,0.003242,0.008202,0.005150,0.004768,-0.006676,-0.052453,-0.581559
2.557295,0.003242,0.008202,0.005150,0.004768,-0.006676,-0.052453,-0.585374
2.567363,0.003242,0.008202,0.005150,0.005150,-0.006676,-0.052453,-0.592240
2.577477,0.003242,0.008202,0.005150,0.005150,-0.006676,-0.052453,-0.595293
2.587605,0.003242,0.008202,0.005150,0.005150,-0.006676,-0.052453,-0.600634
2.597718,0.003242,0.008202,0.005150,0.005150,-0.006676,-0.052453,-0.602922
2.607832,0.003242,0.008202,0.005150,0.005150,-0.006676,-0.052453,-0.606356
2.617943,0.003242,0.008202,0.005150,0.005150,-0.006676,-0.052453,-0.607500
2.628056,0.003242,0.008202,0.005150,0.005150,-0.006676,-0.052453,-0.609026
2.638146,0.003242,0.008202,0.005150,0.005150,-0.006676,-0.052453,-0.609407
2.648256,0.003242,0.008202,0.005150,0.005150,-0.006676,-0.052453,-0.609026
2.658366,0.003242,0.008202,0.005150,0.005150,-0.006676,-0.052453,-0.609026
2.668479,0.003242,0.008202,0.005150,0.005150,-0.006676,-0.052453,-0.609026
2.678592,0.003242,0.008202,0.005150,0.005150,-0.006676,-0.052453,-0.609026
2.688721,0.003242,0.008202,0.005150,0.005150,-0.006676,-0.052453,-0.609026
2.698821,0.003242,0.008202,0.005150,0.005150,-0.006676,-0.052453,-0.609026
2.708995,0.003242,0.008202,0.005150,0.005150,-0.006676,-0.052453,-0.609026
2.719078,0.003242,0.008202,0.005150,0.005150,-0.006676,-0.052453,-0.609026
2.729195,0.003242,0.008202,0.005150,0.005150,-0.006676,-0.052453,-0.609026
2.739277,0.003242,0.008202,0.005150,0.004768,-0.006676,-0.052453,-0.609026
2.749387,0.003242,0.008202,0.005150,0.004768,-0.006676,-0.052453,-0.609026
2.759500,0.003242,0.008202,0.005150,0.004768,-0.006676,-0.052453,-0.609026
2.769608,0.003242,0.008202,0.005150,0.004768,-0.006676,-0.052453,-0.609026
2.779719,0.003242,0.008202,0.005150,0.004768,-0.006676,-0.052453,-0.609026
2.789810,0.003242,0.008202,0.005150,0.004768,-0.006676,-0.052453,-0.609026
2.799997,0.003242,0.008202,0.005150,0.004768,-0.006676,-0.052453,-0.609026
2.810111,0.003242,0.008202,0.005150,0.004768,-0.006676,-0.052453,-0.609026
2.820300,0.003242,0.008202,0.005150,0.004768,-0.006676,-0.052453,-0.609026
2.830803,0.003242,0.008202,0.005150,0.004768,-0.006676,-0.052453,-0.609026
2.840913,0.003242,0.008202,0.005150,0.004768,-0.006676,-0.052453,-0.609026
2.850983,0.003242,0.008202,0.005150,0.004768,-0.006676,-0.052453,-0.609026
2.861021,0.003242,0.008202,0.005150,0.004768,-0.006676,-0.052453,-0.609026
2.871133,0.003242,0.008202,0.005150,0.004768,-0.006676,-0.052453,-0.609026
2.881246,0.003242,0.008202,0.005150,0.004768,-0.006676,-0.052453,-0.609026
2.891360,0.003242,0.008202,0.005150,0.004768,-0.006676,-0.052453,-0.609026
2.901536,0.003242,0.008202,0.005150,0.004768,-0.006676,-0.052453,-0.609026
2.911649,0.003242,0.008202,0.005150,0.004768,-0.006676,-0.052453,-0.609026
2.921762,0.003242,0.008202,0.005150,0.004768,-0.006676,-0.052453,-0.609026
2.931853,0.003242,0.008202,0.005150,0.004768,-0.006676,-0.052072,-0.609026
2.941921,0.003242,0.008202,0.005150,0.004768,-0.006676,-0.052072,-0.609026
2.952039,0.003242,0.008202,0.005150,0.004768,-0.006676,-0.052072,-0.609026
2.962400,0.003242,0.008202,0.005150,0.004768,-0.006676,-0.052072,-0.609026
2.972486,0.003242,0.008202,0.005150,0.004768,-0.006676,-0.052072,-0.609026
2.982595,0.003242,0.008202,0.005150,0.004768,-0.006676,-0.052072,-0.609026
2.992707,0.003242,0.008202,0.005150,0.004768,-0.006676,-0.051690,-0.609026
3.002818,0.003242,0.008202,0.005150,0.004768,-0.006676,-0.051690,-0.609026
3.012930,0.003242,0.008202,0.005150,0.004768,-0.006676,-0.051690,-0.609026
3.023064,0.003242,0.008202,0.005150,0.004768,-0.006676,-0.051690,-0.609026
3.033175,0.003242,0.008202,0.005150,0.004768,-0.006676,-0.051690,-0.609026
3.043291,0.003242,0.008202,0.005150,0.004768,-0.006676,-0.051690,-0.609026
3.053399,0.003242,0.008202,0.005150,0.004768,-0.006676,-0.051690,-0.609026
3.063517,0.003242,0.008202,0.005150,0.004768,-0.006676,-0.051690,-0.609026
3.073628,0.003242,0.008202,0.005150,0.004768,-0.006676,-0.051690,-0.609026
3.083739,0.003242,0.008202,0.005150,0.004768,-0.006676,-0.051690,-0.609026
3.093850,0.003242,0.008202,0.005150,0.004768,-0.006676,-0.052072,-0.609026
3.103974,0.003242,0.008202,0.005150,0.004768,-0.006676,-0.052072,-0.609026
3.114045,0.003242,0.008202,0.005150,0.004768,-0.006676,-0.052072,-0.609026
3.124151,0.003242,0.008202,0.005150,0.004768,-0.006676,-0.052072,-0.609026
3.134238,0.003242,0.008202,0.005150,0.004768,-0.006676,-0.052072,-0.609026
3.144352,0.003242,0.008202,0.005150,0.004768,-0.006676,-0.052072,-0.609026
3.154465,0.003242,0.008202,0.005150,0.004768,-0.006676,-0.052072,-0.609026
3.164576,0.003242,0.008202,0.005150,0.004768,-0.006676,-0.052072,-0.609026
3.174691,0.003242,0.008202,0.005150,0.004768,-0.006676,-0.052072,-0.609026
3.184803,0.003242,0.008202,0.005150,0.004768,-0.006676,-0.052072,-0.609026
3.194917,0.003242,0.008202,0.005150,0.004768,-0.006676,-0.052072,-0.609026
3.205043,0.003242,0.008202,0.005150,0.004768,-0.006676,-0.052072,-0.609026
3.215170,0.003242,0.008202,0.005150,0.004768,-0.006676,-0.052453,-0.609026
3.225284,0.003242,0.008202,0.005150,0.004768,-0.006676,-0.052453,-0.609026
3.235463,0.003242,0.008202,0.005150,0.004768,-0.006676,-0.052453,-0.609026
3.245573,0.003242,0.008202,0.005150,0.004768,-0.006676,-0.052453,-0.609026
3.255684,0.003242,0.008202,0.005150,0.004768,-0.006676,-0.052453,-0.609026
3.265811,0.003242,0.008202,0.005150,0.004768,-0.006676,-0.052453,-0.609026
3.275925,0.003242,0.008202,0.005150,0.004768,-0.006676,-0.052453,-0.609026
3.286037,0.003242,0.008202,0.005150,0.004768,-0.006676,-0.052453,-0.609026
3.296155,0.003242,0.008202,0.005150,0.004768,-0.006676,-0.052453,-0.609026
3.306278,0.003242,0.008202,0.005150,0.004768,-0.006676,-0.052453,-0.609026
3.316389,0.003242,0.008202,0.005150,0.004768,-0.006676,-0.052453,-0.609026
3.326478,0.003242,0.008202,0.005150,0.004768,-0.006676,-0.052453,-0.609026
3.336588,0.003242,0.008202,0.005150,0.004768,-0.006676,-0.052453,-0.609026
3.346714,0.003242,0.008202,0.005150,0.004768,-0.006676,-0.052453,-0.609026
3.356833,0.003242,0.008202,0.005150,0.004768,-0.006676,-0.052453,-0.609026
3.366945,0.003242,0.008202,0.005150,0.004768,-0.006676,-0.052453,-0.609026
3.377067,0.003242,0.008202,0.005150,0.004768,-0.006676,-0.052453,-0.609026
3.387182,0.003242,0.008202,0.005150,0.004768,-0.006676,-0.052453,-0.609026
3.397292,0.003242,0.008202,0.005150,0.005150,-0.006676,-0.052453,-0.609026
3.407403,0.003242,0.008202,0.005150,0.005150,-0.006676,-0.052453,-0.609026
3.417574,0.003242,0.008202,0.005150,0.005150,-0.006676,-0.052453,-0.609026
3.427688,0.003242,0.008202,0.005150,0.005150,-0.006676,-0.052453,-0.609026
3.437877,0.003242,0.008202,0.005150,0.005150,-0.007057,-0.052453,-0.609026
3.447990,0.003242,0.008202,0.005150,0.005150,-0.007057,-0.052453,-0.609026
3.458100,0.003242,0.008202,0.005150,0.004768,-0.007057,-0.052453,-0.609026
3.468212,0.003242,0.008202,0.005150,0.004768,-0.007439,-0.052453,-0.609026
3.478323,0.003242,0.008202,0.005150,0.004768,-0.007820,-0.052453,-0.609026
3.488408,0.003242,0.008202,0.005150,0.004768,-0.008202,-0.052453,-0.609026
3.498484,0.003242,0.008202,0.005150,0.004768,-0.008965,-0.052072,-0.609026
3.508547,0.003242,0.008202,0.005150,0.004768,-0.009346,-0.051690,-0.609026
3.518611,0.003242,0.008202,0.005150,0.004768,-0.009727,-0.051690,-0.609026
3.528677,0.003242,0.008202,0.005150,0.004768,-0.009727,-0.051690,-0.609026
3.538746,0.003242,0.008202,0.005150,0.004768,-0.009727,-0.051690,-0.609026
3.548886,0.003242,0.008202,0.005150,0.004768,-0.009727,-0.051690,-0.609026
3.558997,0.003242,0.008202,0.005150,0.004768,-0.009727,-0.051690,-0.609026
3.569097,0.003242,0.008202,0.005150,0.004768,-0.009727,-0.051690,-0.609026
3.579208,0.003242,0.008202,0.005150,0.004768,-0.009727,-0.051690,-0.609026
3.589318,0.003242,0.008202,0.005150,0.004768,-0.009727,-0.051690,-0.609026
3.599427,0.003242,0.008202,0.005150,0.004768,-0.009727,-0.051690,-0.609026
3.609550,0.003242,0.008202,0.005150,0.004768,-0.009727,-0.051690,-0.609026
3.619636,0.003242,0.008202,0.005150,0.004768,-0.009727,-0.051690,-0.609026
3.629748,0.003242,0.008202,0.005150,0.004768,-0.009727,-0.051690,-0.609026
3.639861,0.003242,0.008202,0.005150,0.004768,-0.009727,-0.051690,-0.609026
3.649976,0.003242,0.008202,0.005150,0.004768,-0.009727,-0.051690,-0.609026
3.660047,0.003242,0.008202,0.005150,0.004768,-0.009727,-0.051690,-0.609026
3.670124,0.003242,0.008202,0.005150,0.004768,-0.009727,-0.051690,-0.609026
3.680187,0.003242,0.008202,0.005150,0.004768,-0.009727,-0.051690,-0.609026
3.690250,0.003242,0.008202,0.005150,0.004768,-0.009727,-0.051690,-0.609026
3.700320,0.003242,0.008202,0.005150,0.004768,-0.009727,-0.051690,-0.609026
3.710406,0.003242,0.008202,0.005150,0.004768,-0.009727,-0.051690,-0.609026
3.720479,0.003242,0.008202,0.005150,0.004768,-0.009727,-0.051690,-0.609026
3.730570,0.003242,0.008202,0.005150,0.004768,-0.009727,-0.051690,-0.609026
3.740641,0.003242,0.008202,0.005150,0.004768,-0.009727,-0.051690,-0.609026
3.750750,0.003242,0.008202,0.005150,0.004768,-0.009727,-0.051690,-0.609026
3.760860,0.003242,0.008202,0.005150,0.004768,-0.009727,-0.051690,-0.609026
3.770924,0.003242,0.008202,0.005150,0.004768,-0.009727,-0.051690,-0.609026
3.780988,0.003242,0.008202,0.005150,0.004768,-0.009727,-0.051690,-0.609026
3.791027,0.003242,0.008202,0.005150,0.004768,-0.009727,-0.051690,-0.609026
3.801075,0.003242,0.008202,0.005150,0.004768,-0.009727,-0.051690,-0.609026
3.811137,0.003242,0.008202,0.005150,0.004768,-0.009727,-0.051690,-0.609026
3.821205,0.003242,0.008202,0.005150,0.004768,-0.009727,-0.051690,-0.609026
3.831316,0.003242,0.008202,0.005150,0.004768,-0.009727,-0.051690,-0.609026
3.841428,0.003242,0.008202,0.005150,0.004768,-0.009727,-0.051690,-0.609026
3.851530,0.003242,0.008202,0.005150,0.004768,-0.009727,-0.051690,-0.609026
3.861645,0.003242,0.008202,0.005150,0.004768,-0.009727,-0.051690,-0.609026
3.871722,0.003242,0.008202,0.005150,0.004768,-0.009727,-0.051690,-0.609026
3.881798,0.003242,0.008202,0.005150,0.004768,-0.009727,-0.051690,-0.609026
3.891860,0.003242,0.008202,0.005150,0.004768,-0.009727,-0.051690,-0.609026
3.901925,0.003242,0.008202,0.005150,0.004768,-0.009727,-0.051690,-0.609026
3.911986,0.003242,0.008202,0.005150,0.004768,-0.009727,-0.051690,-0.609026
3.922056,0.003242,0.008202,0.005150,0.004768,-0.009727,-0.051690,-0.609026
3.932126,0.003242,0.008202,0.005150,0.004768,-0.009727,-0.051690,-0.609026
3.942193,0.003242,0.008202,0.005150,0.004768,-0.009727,-0.051690,-0.609026
3.952270,0.003242,0.008202,0.005150,0.004768,-0.009727,-0.051690,-0.609026
3.962391,0.003242,0.008202,0.005150,0.004768,-0.009727,-0.051690,-0.609026
3.972478,0.003242,0.008202,0.005150,0.004768,-0.009727,-0.051690,-0.609026
3.982560,0.003242,0.008202,0.005150,0.004768,-0.009727,-0.051690,-0.609026
3.992891,0.003242,0.008202,0.005150,0.004768,-0.009727,-0.051690,-0.609026
4.003001,0.003242,0.008202,0.005150,0.004768,-0.009727,-0.051690,-0.609026
4.013114,0.003242,0.008202,0.005150,0.004768,-0.009727,-0.051690,-0.609026
4.023225,0.003242,0.008202,0.005150,0.004768,-0.009727,-0.051690,-0.609026
4.033365,0.003242,0.008202,0.005150,0.004768,-0.009727,-0.051690,-0.609026
4.043433,0.003242,0.008202,0.005150,0.004768,-0.009727,-0.051690,-0.609026
4.053499,0.003242,0.008202,0.005150,0.004768,-0.009727,-0.051690,-0.609026
4.063607,0.003242,0.008202,0.005150,0.004768,-0.009727,-0.051690,-0.609026
4.073673,0.003242,0.008202,0.005150,0.004768,-0.009727,-0.051690,-0.609026
4.083762,0.003242,0.008202,0.005150,0.004768,-0.009727,-0.051690,-0.609026
4.093826,0.003242,0.008202,0.005150,0.004768,-0.009727,-0.051690,-0.609026
4.103893,0.003242,0.008202,0.005150,0.004768,-0.009727,-0.051690,-0.609026
4.113956,0.003242,0.008202,0.005150,0.004768,-0.009727,-0.051690,-0.609026
4.124032,0.003242,0.008202,0.005150,0.004768,-0.009727,-0.051690,-0.609026
4.134096,0.003242,0.008202,0.005150,0.004768,-0.009727,-0.051690,-0.609026
4.144189,0.003242,0.008202,0.005150,0.004768,-0.009727,-0.051690,-0.609026
4.154263,0.003242,0.008202,0.005150,0.004768,-0.009727,-0.051690,-0.609026
4.164328,0.003242,0.008202,0.005150,0.004768,-0.009727,-0.051690,-0.609026
4.174390,0.003242,0.008202,0.005150,0.004768,-0.009727,-0.051690,-0.609026
4.184462,0.003242,0.008202,0.005150,0.004768,-0.009727,-0.051690,-0.609026
4.194524,0.003242,0.008202,0.005150,0.004768,-0.009727,-0.051690,-0.609026
4.204586,0.003242,0.008202,0.005150,0.004768,-0.009727,-0.051690,-0.609026
4.214649,0.003242,0.008202,0.005150,0.004768,-0.009727,-0.051690,-0.609026
4.224718,0.003242,0.008202,0.005150,0.004768,-0.009727,-0.051690,-0.609026
4.234787,0.003242,0.008202,0.005150,0.004768,-0.009727,-0.051690,-0.609026
4.244870,0.003242,0.008202,0.005150,0.004768,-0.009727,-0.051690,-0.609026
4.254935,0.003242,0.008202,0.005150,0.004768,-0.009727,-0.051690,-0.609026
4.265267,0.003242,0.008202,0.005150,0.004768,-0.009727,-0.051690,-0.609026
4.275386,0.003242,0.008202,0.005150,0.004768,-0.009727,-0.051690,-0.609026
4.285494,0.003242,0.008202,0.005150,0.004768,-0.009727,-0.051690,-0.609026
4.295841,0.003242,0.008202,0.005150,0.004768,-0.009727,-0.051690,-0.609026
4.305952,0.003242,0.008202,0.005150,0.004768,-0.009727,-0.051690,-0.609026
4.316351,0.003242,0.008202,0.005150,0.004768,-0.009727,-0.051690,-0.609026
4.326467,0.003242,0.008202,0.005150,0.004768,-0.009727,-0.051690,-0.609026
4.336537,0.003242,0.008202,0.005150,0.004768,-0.009727,-0.051690,-0.609026
4.346648,0.003242,0.008202,0.005150,0.004768,-0.009727,-0.051690,-0.609026
4.356760,0.003242,0.008202,0.005150,0.004768,-0.009727,-0.051690,-0.609026
4.366909,0.003242,0.008202,0.005150,0.004768,-0.009727,-0.051690,-0.609026
4.377035,0.003242,0.008202,0.005150,0.004768,-0.009727,-0.051690,-0.609026
4.387234,0.003242,0.008202,0.005150,0.004768,-0.009727,-0.051690,-0.609026
4.397354,0.003242,0.008202,0.005150,0.004768,-0.009727,-0.051690,-0.609026
4.407433,0.003242,0.008202,0.005150,0.005150,-0.009727,-0.051690,-0.609026
4.417542,0.003242,0.008202,0.005150,0.005150,-0.009727,-0.051690,-0.609026
4.427653,0.003242,0.008202,0.005150,0.005150,-0.009346,-0.051690,-0.609026
4.437763,0.003242,0.008202,0.005150,0.005150,-0.009346,-0.051690,-0.609026
4.447877,0.003242,0.008202,0.005150,0.005150,-0.008965,-0.051690,-0.609026
4.457990,0.003242,0.008202,0.005150,0.005150,-0.008965,-0.051690,-0.609026
4.468108,0.003242,0.008202,0.005150,0.005150,-0.008202,-0.051690,-0.609026
4.478222,0.003242,0.008202,0.005150,0.005150,-0.008202,-0.051690,-0.609026
4.488334,0.003242,0.008202,0.005150,0.005150,-0.007439,-0.051690,-0.609026
4.498671,0.003242,0.008202,0.005150,0.005150,-0.007057,-0.051690,-0.609026
4.508780,0.003242,0.008202,0.005150,0.005150,-0.006294,-0.051690,-0.609026
4.518857,0.003242,0.008202,0.005150,0.005150,-0.005913,-0.052072,-0.609026
4.528953,0.003242,0.008202,0.005150,0.005150,-0.005913,-0.052072,-0.609026
4.539027,0.003242,0.008202,0.005150,0.005150,-0.005913,-0.052072,-0.609026
4.549090,0.003242,0.008202,0.005150,0.005150,-0.005913,-0.052453,-0.609026
4.559158,0.003242,0.008202,0.005150,0.005150,-0.005531,-0.052453,-0.609026
4.569234,0.003242,0.008202,0.005150,0.005150,-0.005531,-0.052453,-0.609026
4.579306,0.003242,0.008202,0.005150,0.005150,-0.005531,-0.052453,-0.609026
4.589371,0.003242,0.008202,0.005150,0.005150,-0.005531,-0.052453,-0.609026
4.599436,0.003242,0.008202,0.005150,0.005150,-0.005531,-0.052453,-0.609026
4.609496,0.003242,0.008202,0.005150,0.005150,-0.005531,-0.052453,-0.609026
4.619558,0.003242,0.008202,0.005150,0.005150,-0.005531,-0.052453,-0.609026
4.629668,0.003242,0.008202,0.005150,0.005150,-0.005531,-0.052453,-0.609026
4.639778,0.003242,0.008202,0.005150,0.005150,-0.005531,-0.052453,-0.609026
4.650115,0.003242,0.008202,0.005150,0.005150,-0.005531,-0.052453,-0.609026
4.660226,0.003242,0.008202,0.005150,0.005150,-0.005531,-0.052453,-0.609026
4.670335,0.003242,0.008202,0.005150,0.005150,-0.005531,-0.052453,-0.609026
4.680447,0.003242,0.008202,0.005150,0.005150,-0.005531,-0.052835,-0.609026
4.690562,0.003242,0.008202,0.005150,0.005150,-0.005531,-0.052835,-0.609026
4.700673,0.003242,0.008202,0.005150,0.005150,-0.005913,-0.053216,-0.609026
4.710784,0.003242,0.008202,0.005150,0.005150,-0.005913,-0.053979,-0.609026
4.720894,0.003242,0.008202,0.005150,0.005150,-0.005913,-0.054360,-0.609026
4.730995,0.003242,0.008202,0.005150,0.005150,-0.005913,-0.054742,-0.609407
4.741077,0.003242,0.008202,0.005150,0.005150,-0.005913,-0.055123,-0.609407
4.751209,0.003242,0.008202,0.005150,0.005150,-0.005913,-0.055886,-0.609407
4.761321,0.003242,0.008202,0.005150,0.005150,-0.005913,-0.056268,-0.609407
4.771442,0.003242,0.008202,0.005150,0.005150,-0.005913,-0.056649,-0.610170
4.781778,0.003242,0.008202,0.005150,0.005150,-0.005913,-0.056649,-0.610933
4.791891,0.003242,0.008202,0.005150,0.005150,-0.005913,-0.056649,-0.613222
4.802003,0.003242,0.008202,0.005150,0.005150,-0.005913,-0.057031,-0.614748
4.812349,0.003242,0.008202,0.005150,0.005150,-0.005913,-0.057031,-0.617800
4.822435,0.003242,0.008202,0.005150,0.005150,-0.005913,-0.057031,-0.619707
4.832542,0.003242,0.008202,0.005150,0.005150,-0.005913,-0.057412,-0.623522
4.842612,0.003242,0.008202,0.005150,0.005150,-0.005913,-0.057412,-0.625811
4.852700,0.003242,0.008202,0.005150,0.005150,-0.005913,-0.057412,-0.630388
4.862781,0.003242,0.008202,0.005150,0.005150,-0.005913,-0.057412,-0.632677
4.872859,0.003242,0.008202,0.005150,0.005150,-0.005913,-0.057412,-0.638018
4.883197,0.003242,0.008202,0.005150,0.005150,-0.005913,-0.057412,-0.640688
4.893538,0.003242,0.008202,0.005150,0.005150,-0.005913,-0.057412,-0.646410
4.903624,0.003242,0.008202,0.005150,0.005150,-0.005913,-0.057412,-0.649462
4.913736,0.003242,0.008202,0.005150,0.005150,-0.005913,-0.057412,-0.655565
4.923847,0.003242,0.008202,0.005150,0.005150,-0.005913,-0.057412,-0.661670
4.933937,0.003242,0.008202,0.005150,0.005150,-0.005913,-0.057412,-0.664721
4.944007,0.003242,0.008202,0.005150,0.005150,-0.005913,-0.057412,-0.670062
4.954022,0.003242,0.008202,0.005150,0.005150,-0.005913,-0.057412,-0.672732
4.964097,0.003242,0.008202,0.005150,0.005150,-0.005913,-0.057412,-0.677691
4.974211,0.003242,0.008202,0.005150,0.005150,-0.005913,-0.057412,-0.679980
4.984323,0.003242,0.008202,0.005150,0.005150,-0.006294,-0.057412,-0.684176
4.994440,0.003242,0.008202,0.005150,0.005150,-0.006294,-0.057412,-0.686465
5.004526,0.003242,0.008202,0.005150,0.005150,-0.006294,-0.057794,-0.690280
5.014639,0.003242,0.008202,0.005150,0.005150,-0.006294,-0.057794,-0.692187
5.024756,0.003242,0.008202,0.005150,0.005150,-0.006294,-0.058175,-0.695621
5.034866,0.003242,0.008202,0.005150,0.005150,-0.006294,-0.058175,-0.697146
5.044978,0.003242,0.008202,0.005150,0.005150,-0.006294,-0.058175,-0.699435
5.055049,0.003242,0.008202,0.005150,0.005150,-0.006294,-0.058175,-0.700580
5.065160,0.003242,0.008202,0.005150,0.005150,-0.006294,-0.058175,-0.702106
5.075280,0.003242,0.008202,0.005150,0.005150,-0.006294,-0.058175,-0.702487
5.085422,0.003242,0.008202,0.005150,0.005150,-0.006294,-0.058175,-0.703250
5.095530,0.003242,0.008202,0.005150,0.004768,-0.006294,-0.058175,-0.703631
5.105644,0.003242,0.008202,0.005150,0.004768,-0.006294,-0.058557,-0.704394
5.115755,0.003242,0.008202,0.005150,0.004768,-0.006294,-0.058557,-0.704776
5.125869,0.003242,0.008202,0.005150,0.004768,-0.006294,-0.058557,-0.705920
5.135946,0.003242,0.008202,0.005150,0.004768,-0.006294,-0.058938,-0.706683
5.146030,0.003242,0.008202,0.005150,0.004768,-0.006294,-0.059319,-0.707446
5.156139,0.003242,0.008202,0.005150,0.004768,-0.006294,-0.059319,-0.707446
5.166252,0.003242,0.008202,0.005150,0.004768,-0.006294,-0.059319,-0.707446
5.176321,0.003242,0.008202,0.005150,0.004768,-0.005913,-0.059319,-0.707446
5.186390,0.003242,0.008202,0.005150,0.004768,-0.005913,-0.059319,-0.707446
5.196459,0.003242,0.008202,0.005150,0.004768,-0.005913,-0.059319,-0.707446
5.206527,0.003242,0.008202,0.005150,0.004768,-0.005913,-0.059319,-0.707446
5.216633,0.003242,0.008202,0.005150,0.004768,-0.005913,-0.059319,-0.707446
5.226746,0.003242,0.008202,0.005150,0.004768,-0.005913,-0.059319,-0.707446
5.236831,0.003242,0.008202,0.005150,0.004768,-0.005913,-0.059319,-0.707446
5.246942,0.003242,0.008202,0.005150,0.004768,-0.005913,-0.059701,-0.707446
5.257079,0.003242,0.008202,0.005150,0.004768,-0.005913,-0.060082,-0.707446
5.267191,0.003242,0.008202,0.005150,0.004768,-0.005913,-0.060845,-0.707446
5.277274,0.003242,0.008202,0.005150,0.004768,-0.006294,-0.061227,-0.707446
5.287389,0.003242,0.008202,0.005150,0.004768,-0.006294,-0.061608,-0.707446
5.297503,0.003242,0.008202,0.005150,0.004768,-0.006294,-0.061608,-0.707446
5.307591,0.003242,0.008202,0.005150,0.004768,-0.005913,-0.062371,-0.707446
5.317702,0.003242,0.008202,0.005150,0.004768,-0.005913,-0.062753,-0.707446
5.327782,0.003242,0.008202,0.005150,0.004768,-0.005913,-0.063134,-0.707446
5.337852,0.003242,0.008202,0.005150,0.004768,-0.005913,-0.063134,-0.707446
5.347964,0.003242,0.008202,0.005150,0.004768,-0.005913,-0.063134,-0.707446
5.358019,0.003242,0.008202,0.005150,0.004768,-0.005913,-0.063134,-0.707446
5.368080,0.003242,0.008202,0.005150,0.004768,-0.005913,-0.063134,-0.707446
5.378139,0.003242,0.008202,0.005150,0.004768,-0.005913,-0.063134,-0.707446
5.388218,0.003242,0.008202,0.005150,0.004768,-0.005913,-0.063134,-0.707446
5.398279,0.003242,0.008202,0.005150,0.004768,-0.005913,-0.063134,-0.707446
5.408349,0.003242,0.008202,0.005150,0.004768,-0.005913,-0.063134,-0.707446
5.418408,0.003242,0.008202,0.005150,0.004768,-0.005913,-0.063134,-0.707446
5.428481,0.003242,0.008202,0.005150,0.004768,-0.005913,-0.063134,-0.707446
5.438571,0.003242,0.008202,0.005150,0.004768,-0.005913,-0.063134,-0.707446
5.448684,0.003242,0.008202,0.005150,0.004768,-0.005913,-0.063134,-0.707446
5.458749,0.003242,0.008202,0.005150,0.004768,-0.005913,-0.063134,-0.707446
5.468860,0.003242,0.008202,0.005150,0.004768,-0.005913,-0.063134,-0.707446
5.478928,0.003242,0.008202,0.005150,0.004768,-0.005913,-0.062753,-0.707446
5.488995,0.003242,0.008202,0.005150,0.004768,-0.005913,-0.062753,-0.707446
5.499023,0.003242,0.008202,0.005150,0.004768,-0.005913,-0.062371,-0.707446
5.509100,0.003242,0.008202,0.005150,0.004768,-0.005913,-0.061990,-0.707065
5.519210,0.003242,0.008202,0.005150,0.004768,-0.005913,-0.060845,-0.707065
5.529320,0.003242,0.008202,0.005150,0.004768,-0.005913,-0.060082,-0.707065
5.539389,0.003242,0.008202,0.005150,0.004768,-0.005913,-0.058175,-0.707065
5.549499,0.003242,0.008202,0.005150,0.004768,-0.005913,-0.057412,-0.706683
5.559612,0.003242,0.008202,0.005150,0.004768,-0.005913,-0.056268,-0.705920
5.569801,0.003242,0.008202,0.005150,0.004768,-0.005913,-0.056268,-0.705539
5.579886,0.003242,0.008202,0.005150,0.004768,-0.005913,-0.056268,-0.704394
5.589966,0.003242,0.008202,0.005150,0.004768,-0.006294,-0.056268,-0.704013
5.600093,0.003242,0.008202,0.005150,0.004768,-0.006676,-0.056268,-0.702868
5.610205,0.003242,0.008202,0.005150,0.004768,-0.006676,-0.056268,-0.702106
5.620270,0.003242,0.008202,0.005150,0.004768,-0.007439,-0.056268,-0.700198
5.630336,0.003242,0.008202,0.005150,0.004768,-0.007439,-0.056268,-0.699054
5.640399,0.003242,0.008202,0.005150,0.004768,-0.007820,-0.056268,-0.697146
5.650465,0.003242,0.008202,0.005150,0.004768,-0.008202,-0.056268,-0.696383
5.660578,0.003242,0.008202,0.005150,0.004768,-0.008202,-0.056268,-0.694095
5.670705,0.003242,0.008202,0.005150,0.004768,-0.008202,-0.056268,-0.692950
5.680776,0.003242,0.008202,0.005150,0.004768,-0.008202,-0.056268,-0.690280
5.690842,0.003242,0.008202,0.005150,0.004768,-0.008202,-0.056268,-0.689136
5.700906,0.003242,0.008202,0.005150,0.004768,-0.008202,-0.056268,-0.686465
5.711037,0.003242,0.008202,0.005150,0.004768,-0.008202,-0.056268,-0.685321
5.721125,0.003242,0.008202,0.005150,0.004768,-0.007820,-0.056268,-0.683032
5.731211,0.003242,0.008202,0.005150,0.004768,-0.007820,-0.056268,-0.681888
5.741289,0.003242,0.008202,0.005150,0.004768,-0.007820,-0.056268,-0.679599
5.751401,0.003242,0.008202,0.005150,0.004768,-0.007820,-0.056268,-0.678454
5.761473,0.003242,0.008202,0.005150,0.004768,-0.007820,-0.056268,-0.676547
5.771538,0.003242,0.008202,0.005150,0.004768,-0.007820,-0.056268,-0.675784
5.781605,0.003242,0.008202,0.005150,0.004768,-0.007820,-0.056268,-0.674640
5.791675,0.003242,0.008202,0.005150,0.004768,-0.007820,-0.056268,-0.674258
5.801786,0.003242,0.008202,0.005150,0.004768,-0.007820,-0.056649,-0.673114
5.811898,0.003242,0.008202,0.005150,0.004768,-0.007820,-0.056649,-0.673114
5.821966,0.003242,0.008202,0.005150,0.004768,-0.007820,-0.056649,-0.673114
5.832084,0.003242,0.008202,0.005150,0.004768,-0.007820,-0.056649,-0.673114
5.842197,0.003242,0.008202,0.005150,0.004768,-0.007820,-0.056649,-0.673114
5.852309,0.003242,0.008202,0.005150,0.004768,-0.007820,-0.056649,-0.673114
5.862419,0.003242,0.008202,0.005150,0.004768,-0.008202,-0.056649,-0.673114
5.872505,0.003242,0.008202,0.005150,0.004768,-0.008202,-0.056649,-0.673114
5.882615,0.003242,0.008202,0.005150,0.004768,-0.008202,-0.056649,-0.673495
5.892729,0.003242,0.008202,0.005150,0.004768,-0.008583,-0.056649,-0.673495
5.902843,0.003242,0.008202,0.005150,0.004768,-0.008583,-0.056649,-0.673495
5.912956,0.003242,0.008202,0.005150,0.004768,-0.008583,-0.056649,-0.673495
5.923195,0.003242,0.008202,0.005150,0.004768,-0.008583,-0.056649,-0.673495
5.933285,0.003242,0.008202,0.005150,0.004768,-0.008583,-0.056649,-0.673495
5.943357,0.003242,0.008202,0.005150,0.004768,-0.008583,-0.056268,-0.673495
5.953423,0.003242,0.008202,0.005150,0.004768,-0.008583,-0.056268,-0.673495
5.963486,0.003242,0.008202,0.005150,0.004768,-0.008583,-0.056268,-0.673495
5.973551,0.003242,0.008202,0.005150,0.004768,-0.008583,-0.056268,-0.673495
5.983612,0.003242,0.008202,0.005150,0.004768,-0.008583,-0.056268,-0.673495
5.993690,0.003242,0.008202,0.005150,0.004768,-0.008583,-0.056268,-0.673495
6.003770,0.003242,0.008202,0.005150,0.004768,-0.008583,-0.056268,-0.673495
6.014076,0.003242,0.008202,0.005150,0.004768,-0.008202,-0.056268,-0.673495
6.024151,0.003242,0.008202,0.005150,0.004768,-0.008202,-0.056268,-0.673495
6.034216,0.003242,0.008202,0.005150,0.004768,-0.007820,-0.056268,-0.673495
6.044281,0.003242,0.008202,0.005150,0.004768,-0.007439,-0.056268,-0.673495
6.054346,0.003242,0.008202,0.005150,0.004768,-0.007439,-0.056268,-0.673114
6.064411,0.003242,0.008202,0.005150,0.004768,-0.006676,-0.056268,-0.673114
6.074478,0.003242,0.008202,0.005150,0.004768,-0.006676,-0.056268,-0.673114
6.084543,0.003242,0.008202,0.005150,0.004768,-0.006676,-0.056268,-0.673114
6.094609,0.003242,0.008202,0.005150,0.004768,-0.006676,-0.056268,-0.673114
6.104670,0.003242,0.008202,0.005150,0.004768,-0.006676,-0.056268,-0.673114
6.114740,0.003242,0.008202,0.005150,0.004768,-0.006294,-0.056268,-0.673114
6.124812,0.003242,0.008202,0.005150,0.004768,-0.006294,-0.056649,-0.673114
6.134901,0.003242,0.008202,0.005150,0.004768,-0.005913,-0.056649,-0.673114
6.144968,0.003242,0.008202,0.005150,0.004768,-0.005913,-0.056649,-0.673114
6.155038,0.003242,0.008202,0.005150,0.004768,-0.005913,-0.056649,-0.672732
6.165117,0.003242,0.008202,0.005150,0.004768,-0.005913,-0.056268,-0.671969
6.175230,0.003242,0.008202,0.005150,0.004768,-0.005913,-0.056268,-0.671969
6.185340,0.003242,0.008202,0.005150,0.004768,-0.005913,-0.056268,-0.671206
6.195454,0.003242,0.008202,0.005150,0.004768,-0.005913,-0.056268,-0.670825
6.205565,0.003242,0.008202,0.005150,0.004768,-0.005913,-0.056268,-0.670062
6.215845,0.003242,0.008202,0.005150,0.004768,-0.005913,-0.056268,-0.669299
6.225954,0.003242,0.008202,0.005150,0.004768,-0.005913,-0.056268,-0.667773
6.236065,0.003242,0.008202,0.005150,0.004768,-0.005913,-0.056268,-0.667010
6.246177,0.003242,0.008202,0.005150,0.004768,-0.005913,-0.056268,-0.665866
6.256326,0.003242,0.008202,0.005150,0.004768,-0.005913,-0.056649,-0.664721
6.266445,0.003242,0.008202,0.005150,0.004768,-0.005913,-0.056649,-0.664721
6.276555,0.003242,0.008202,0.005150,0.004768,-0.005913,-0.056649,-0.664721
6.286665,0.003242,0.008202,0.005150,0.004768,-0.005913,-0.056649,-0.664721
6.296753,0.003242,0.008202,0.005150,0.004768,-0.005913,-0.057031,-0.664721
6.306838,0.003242,0.008202,0.005150,0.004768,-0.005913,-0.057031,-0.664721
6.316947,0.003242,0.008202,0.005150,0.004768,-0.005913,-0.057412,-0.664721
6.327075,0.003242,0.008202,0.005150,0.004768,-0.005913,-0.057412,-0.664721
6.337150,0.003242,0.008202,0.005150,0.004768,-0.005913,-0.057412,-0.665103
6.347232,0.003242,0.008202,0.005150,0.004768,-0.006294,-0.057412,-0.665103
6.357320,0.003242,0.008202,0.005150,0.004768,-0.006676,-0.057412,-0.665103
6.367429,0.003242,0.008202,0.005150,0.004768,-0.007057,-0.057412,-0.665103
6.377539,0.003242,0.008202,0.005150,0.004768,-0.007057,-0.057412,-0.665103
6.387651,0.003242,0.008202,0.005150,0.004768,-0.007057,-0.057412,-0.665103
6.397759,0.003242,0.008202,0.005150,0.004768,-0.007439,-0.057412,-0.665103
6.407872,0.003242,0.008202,0.005150,0.004768,-0.007439,-0.057412,-0.666247
6.417982,0.003242,0.008202,0.005150,0.004768,-0.007820,-0.057412,-0.667010
6.428096,0.003242,0.008202,0.005150,0.004768,-0.007820,-0.057412,-0.668536
6.438196,0.003242,0.008202,0.005150,0.004768,-0.008202,-0.057412,-0.669299
6.448308,0.003242,0.008202,0.005150,0.004768,-0.008583,-0.057412,-0.671588
6.458418,0.003242,0.008202,0.005150,0.004768,-0.008965,-0.057412,-0.673114
6.468530,0.003242,0.008202,0.005150,0.004768,-0.008965,-0.057412,-0.676166
6.478603,0.003242,0.008202,0.005150,0.004768,-0.008965,-0.057412,-0.678073
6.488668,0.003242,0.008202,0.005150,0.004768,-0.008965,-0.057412,-0.682269
6.498745,0.003242,0.008202,0.005150,0.004768,-0.008965,-0.057412,-0.684558
6.508810,0.003242,0.008202,0.005150,0.004768,-0.009346,-0.057412,-0.689898
6.518873,0.003242,0.008202,0.005150,0.004768,-0.009346,-0.057412,-0.692569
6.528986,0.003242,0.008202,0.005150,0.004768,-0.009727,-0.057412,-0.697909
6.539053,0.003242,0.008202,0.005150,0.004768,-0.009727,-0.057412,-0.700961
6.549167,0.003242,0.008202,0.005150,0.004768,-0.009727,-0.057412,-0.706683
6.559278,0.003242,0.008202,0.005150,0.004768,-0.009727,-0.057412,-0.709353
6.569616,0.003242,0.008202,0.005150,0.004768,-0.009727,-0.057031,-0.715075
6.579727,0.003242,0.008202,0.005150,0.004768,-0.009727,-0.057031,-0.717746
6.589827,0.003242,0.008202,0.005150,0.004768,-0.009727,-0.057031,-0.723469
6.599941,0.003242,0.008202,0.005150,0.004768,-0.009727,-0.057031,-0.726521
6.610056,0.003242,0.008202,0.005150,0.004768,-0.009727,-0.057031,-0.733006
6.620135,0.003242,0.008202,0.005150,0.004768,-0.009727,-0.057031,-0.736057
6.630250,0.003242,0.008202,0.005150,0.004768,-0.009727,-0.057412,-0.742924
6.640327,0.003242,0.008202,0.005150,0.004768,-0.009727,-0.057412,-0.745975
6.650392,0.003242,0.008202,0.005150,0.004768,-0.009727,-0.057412,-0.752460
6.660456,0.003242,0.008202,0.005150,0.004768,-0.009727,-0.057412,-0.755512
6.670525,0.003242,0.008202,0.005150,0.004768,-0.009727,-0.057412,-0.761616
6.680598,0.003242,0.008202,0.005150,0.004768,-0.009727,-0.057412,-0.764286
6.690709,0.003242,0.008202,0.005150,0.004768,-0.009727,-0.057412,-0.769245
6.700818,0.003242,0.008202,0.005150,0.004768,-0.009727,-0.057412,-0.773823
6.710931,0.003242,0.008202,0.005150,0.004768,-0.009727,-0.057412,-0.775730
6.721004,0.003242,0.008202,0.005150,0.004768,-0.009727,-0.057412,-0.779163
6.731023,0.003242,0.008202,0.005150,0.004387,-0.009727,-0.057412,-0.781071
6.741090,0.003242,0.008202,0.005150,0.004387,-0.009727,-0.057412,-0.784123
6.751161,0.003242,0.008202,0.005150,0.004387,-0.009727,-0.057412,-0.785649
6.761223,0.003242,0.008202,0.005150,0.004387,-0.009727,-0.057412,-0.788320
6.771335,0.003242,0.008202,0.005150,0.004387,-0.009727,-0.057412,-0.789845
6.781398,0.003242,0.008202,0.005150,0.004387,-0.009727,-0.057412,-0.792897
6.791466,0.003242,0.008202,0.005150,0.004387,-0.009727,-0.057412,-0.794042
6.801529,0.003242,0.008202,0.005150,0.004387,-0.009727,-0.057412,-0.796712
6.811600,0.003242,0.008202,0.005150,0.004387,-0.009727,-0.057412,-0.798238
6.821663,0.003242,0.008202,0.005150,0.004387,-0.009727,-0.057412,-0.800908
6.831726,0.003242,0.008202,0.005150,0.004387,-0.009727,-0.057412,-0.802052
6.841792,0.003242,0.008202,0.005150,0.004387,-0.009727,-0.057412,-0.805104
6.851858,0.003242,0.008202,0.005150,0.004387,-0.009727,-0.057412,-0.806249
6.861924,0.003242,0.008202,0.005150,0.004387,-0.009727,-0.057412,-0.808919
6.871990,0.003242,0.008202,0.005150,0.004387,-0.009727,-0.057031,-0.810063
6.882025,0.003242,0.008202,0.005150,0.004387,-0.009727,-0.057031,-0.813115
6.892093,0.003242,0.008202,0.005150,0.004387,-0.009727,-0.057031,-0.814641
6.902167,0.003242,0.008202,0.005150,0.004387,-0.009727,-0.057031,-0.818456
6.912279,0.003242,0.008202,0.005150,0.004387,-0.009727,-0.057031,-0.820363
6.922351,0.003242,0.008202,0.005150,0.004387,-0.009727,-0.057031,-0.824559
6.932431,0.003242,0.008202,0.005150,0.004387,-0.009727,-0.057031,-0.826848
6.942501,0.003242,0.008202,0.005150,0.004387,-0.009727,-0.057412,-0.831044
6.952565,0.003242,0.008202,0.005150,0.004387,-0.009727,-0.057412,-0.833333
6.962631,0.003242,0.008202,0.005150,0.004387,-0.009727,-0.057412,-0.837911
6.972696,0.003242,0.008202,0.005150,0.004387,-0.009727,-0.057412,-0.839818
6.982763,0.003242,0.008202,0.005150,0.004387,-0.009727,-0.057412,-0.843251
6.992827,0.003242,0.008202,0.005150,0.004387,-0.009727,-0.057412,-0.845160
7.002894,0.003242,0.008202,0.005150,0.004387,-0.009727,-0.057412,-0.847448
7.012972,0.003242,0.008202,0.005150,0.004387,-0.009727,-0.057412,-0.848593
7.023031,0.003242,0.008202,0.005150,0.004387,-0.009727,-0.057412,-0.849737
7.033134,0.003242,0.008202,0.005150,0.004387,-0.009727,-0.057412,-0.850119
7.043247,0.003242,0.008202,0.005150,0.004387,-0.009727,-0.057031,-0.850500
7.053527,0.003242,0.008202,0.005150,0.004387,-0.009727,-0.057031,-0.850119
7.063639,0.003242,0.008202,0.005150,0.004387,-0.009727,-0.056268,-0.850119
7.073840,0.003242,0.008202,0.005150,0.004387,-0.009727,-0.056268,-0.850119
7.083956,0.003242,0.008202,0.005150,0.004387,-0.009727,-0.056268,-0.850119
7.094081,0.003242,0.008202,0.005150,0.004387,-0.009727,-0.056268,-0.849737
7.104175,0.003242,0.008202,0.005150,0.004387,-0.009727,-0.056268,-0.848974
7.114286,0.003242,0.008202,0.005150,0.004387,-0.009727,-0.056268,-0.848593
7.124395,0.003242,0.008202,0.005150,0.004387,-0.009727,-0.056268,-0.847448
7.134464,0.003242,0.008202,0.005150,0.004387,-0.009727,-0.056649,-0.845541
7.144532,0.003242,0.008202,0.005150,0.004387,-0.009727,-0.056649,-0.844397
7.154640,0.003242,0.008202,0.005150,0.004387,-0.009727,-0.056649,-0.841725
7.164749,0.003242,0.008202,0.005150,0.004387,-0.009727,-0.056649,-0.839818
7.174818,0.003242,0.008202,0.005150,0.004387,-0.009727,-0.056649,-0.834859
7.184882,0.003242,0.008202,0.005150,0.004387,-0.009727,-0.056649,-0.832189
7.194945,0.003242,0.008202,0.005150,0.004387,-0.009727,-0.056649,-0.825704
7.205030,0.003242,0.008202,0.005150,0.004387,-0.009727,-0.056268,-0.822270
7.215178,0.003242,0.008202,0.005150,0.004387,-0.009727,-0.056268,-0.814641
7.225287,0.003242,0.008202,0.005150,0.004387,-0.009727,-0.056268,-0.810826
7.235399,0.003242,0.008202,0.005150,0.004387,-0.009727,-0.056268,-0.802434
7.245509,0.003242,0.008202,0.005150,0.004387,-0.009727,-0.056268,-0.797856
7.255596,0.003242,0.008202,0.005150,0.004387,-0.009727,-0.055886,-0.788701
7.265663,0.003242,0.008202,0.005150,0.004387,-0.009727,-0.055505,-0.783742
7.275735,0.003242,0.008202,0.005150,0.004387,-0.009727,-0.055505,-0.773823
7.285801,0.003242,0.008202,0.005150,0.004387,-0.009727,-0.055505,-0.768864
7.295868,0.003242,0.008202,0.005150,0.004387,-0.009727,-0.055886,-0.758564
7.305941,0.003242,0.008202,0.005150,0.004387,-0.009727,-0.055886,-0.753605
7.316054,0.003242,0.008202,0.005150,0.004387,-0.009727,-0.055886,-0.744068
7.326147,0.003242,0.008202,0.005150,0.004387,-0.009727,-0.055886,-0.739491
7.336233,0.003242,0.008202,0.005150,0.004387,-0.009727,-0.056268,-0.730717
7.346347,0.003242,0.008202,0.005150,0.004387,-0.009727,-0.056268,-0.726902
7.356416,0.003242,0.008202,0.005150,0.004387,-0.009727,-0.056268,-0.719654
7.366486,0.003242,0.008202,0.005150,0.004387,-0.009727,-0.056268,-0.716220
7.376551,0.003242,0.008202,0.005150,0.004387,-0.009727,-0.056268,-0.710116
7.386613,0.003242,0.008202,0.005150,0.004387,-0.009727,-0.056268,-0.707065
7.396677,0.003242,0.008202,0.005150,0.004387,-0.009727,-0.056268,-0.702106
7.406764,0.003242,0.008202,0.005150,0.004387,-0.009727,-0.056268,-0.699435
7.416849,0.003242,0.008202,0.005150,0.004387,-0.009727,-0.056268,-0.694858
7.426921,0.003242,0.008202,0.005150,0.004387,-0.009727,-0.056268,-0.692569
7.436992,0.003242,0.008202,0.005150,0.004387,-0.009727,-0.056268,-0.688373
7.447023,0.003242,0.008202,0.005150,0.004387,-0.009727,-0.056268,-0.686465
7.457092,0.003242,0.008202,0.005150,0.004387,-0.009727,-0.056268,-0.682651
7.467153,0.003242,0.008202,0.005150,0.004387,-0.009727,-0.056268,-0.680743
7.477225,0.003242,0.008202,0.005150,0.004387,-0.009727,-0.056268,-0.676929
7.487285,0.003242,0.008202,0.005150,0.004387,-0.009727,-0.056268,-0.675403
7.497355,0.003242,0.008202,0.005150,0.004387,-0.009727,-0.056268,-0.672351
7.507418,0.003242,0.008202,0.005150,0.004387,-0.009727,-0.056268,-0.671206
7.517481,0.003242,0.008202,0.005150,0.004387,-0.009727,-0.056268,-0.668536
7.527540,0.003242,0.008202,0.005150,0.004387,-0.009727,-0.056268,-0.667392
7.537605,0.003242,0.008202,0.005150,0.004387,-0.009727,-0.056268,-0.665103
7.547668,0.003242,0.008202,0.005150,0.004387,-0.009727,-0.056268,-0.664340
7.557733,0.003242,0.008202,0.005150,0.004387,-0.009727,-0.056268,-0.662814
7.567792,0.003242,0.008202,0.005150,0.004387,-0.009727,-0.056268,-0.662051
7.577856,0.003242,0.008202,0.005150,0.004387,-0.009727,-0.056268,-0.660525
7.587917,0.003242,0.008202,0.005150,0.004387,-0.009727,-0.056268,-0.659762
7.597981,0.003242,0.008202,0.005150,0.004387,-0.009727,-0.056268,-0.658999
7.608027,0.003242,0.008202,0.005150,0.004387,-0.009727,-0.056268,-0.658618
7.618109,0.003242,0.008202,0.005150,0.004387,-0.009727,-0.056268,-0.658237
7.628221,0.003242,0.008202,0.005150,0.004387,-0.009727,-0.056268,-0.658237
7.638366,0.003242,0.008202,0.005150,0.004387,-0.009727,-0.056268,-0.658237
7.648488,0.003242,0.008202,0.005150,0.004387,-0.009727,-0.056268,-0.658237
7.658574,0.003242,0.008202,0.005150,0.004387,-0.009727,-0.056268,-0.658237
7.668682,0.003242,0.008202,0.005150,0.004387,-0.009727,-0.056268,-0.658237
7.678791,0.003242,0.008202,0.005150,0.004387,-0.009727,-0.056268,-0.658237
7.688875,0.003242,0.008202,0.005150,0.004387,-0.009727,-0.056268,-0.658237
7.698968,0.003242,0.008202,0.005150,0.004387,-0.009727,-0.056268,-0.658237
7.709031,0.003242,0.008202,0.005150,0.004387,-0.009727,-0.056268,-0.658237
7.719095,0.003242,0.008202,0.005150,0.004387,-0.009727,-0.056268,-0.658237
7.729157,0.003242,0.008202,0.005150,0.004387,-0.009727,-0.056268,-0.658237
7.739225,0.003242,0.008202,0.005150,0.004387,-0.009727,-0.056268,-0.658237
7.749300,0.003242,0.008202,0.005150,0.004387,-0.009727,-0.056268,-0.658237
7.759415,0.003242,0.008202,0.005150,0.004387,-0.009727,-0.056268,-0.658237
7.769526,0.003242,0.008202,0.005150,0.004387,-0.009727,-0.056268,-0.658237
7.779638,0.003242,0.008202,0.005150,0.004387,-0.009727,-0.056268,-0.658237
7.789746,0.003242,0.008202,0.005150,0.004387,-0.009727,-0.056268,-0.658237
7.799855,0.003242,0.008202,0.005150,0.004387,-0.009727,-0.056268,-0.658237
7.809967,0.003242,0.008202,0.005150,0.004387,-0.009727,-0.056268,-0.658237
7.820078,0.003242,0.008202,0.005150,0.004387,-0.009727,-0.056268,-0.658237
7.830163,0.003242,0.008202,0.005150,0.004387,-0.009727,-0.056268,-0.658237
7.840234,0.003242,0.008202,0.005150,0.004387,-0.009727,-0.056268,-0.658237
7.850301,0.003242,0.008202,0.005150,0.004387,-0.009727,-0.056268,-0.658237
7.860388,0.003242,0.008202,0.005150,0.004387,-0.009727,-0.056268,-0.658237
7.870491,0.003242,0.008202,0.005150,0.004387,-0.009727,-0.056268,-0.658237
7.880601,0.003242,0.008202,0.005150,0.004387,-0.009727,-0.056268,-0.658237
7.890675,0.003242,0.008202,0.005150,0.004387,-0.009727,-0.056268,-0.658237
7.900786,0.003242,0.008202,0.005150,0.004387,-0.009727,-0.056268,-0.658237
7.910897,0.003242,0.008202,0.005150,0.004387,-0.009727,-0.056268,-0.658237
7.921007,0.003242,0.008202,0.005150,0.004387,-0.009727,-0.056268,-0.658237
7.931041,0.003242,0.008202,0.005150,0.004387,-0.009727,-0.056268,-0.658237
7.941116,0.003242,0.008202,0.005150,0.004387,-0.009727,-0.056268,-0.658237
7.951231,0.003242,0.008202,0.005150,0.004387,-0.009727,-0.056268,-0.658237
7.961342,0.003242,0.008202,0.005150,0.004387,-0.009727,-0.056268,-0.658237
7.971454,0.003242,0.008202,0.005150,0.004387,-0.009727,-0.056268,-0.658237
7.981566,0.003242,0.008202,0.005150,0.004387,-0.009727,-0.056268,-0.658237
7.991681,0.003242,0.008202,0.005150,0.004387,-0.009727,-0.056268,-0.658237
8.001799,0.003242,0.008202,0.005150,0.004387,-0.009727,-0.056268,-0.658237
8.011869,0.003242,0.008202,0.005150,0.004387,-0.009727,-0.056268,-0.658237
8.022036,0.003242,0.008202,0.005150,0.004387,-0.009727,-0.056268,-0.658237
8.032230,0.003242,0.008202,0.005150,0.004387,-0.009727,-0.056268,-0.658237
8.042317,0.003242,0.008202,0.005150,0.004387,-0.009727,-0.056268,-0.658237
8.052424,0.003242,0.008202,0.005150,0.004387,-0.009727,-0.056268,-0.658237
8.062537,0.003242,0.008202,0.005150,0.004387,-0.009727,-0.056268,-0.658237
8.072646,0.003242,0.008202,0.005150,0.004387,-0.009727,-0.056268,-0.658237
8.082725,0.003242,0.008202,0.005150,0.004387,-0.009727,-0.056268,-0.658237
8.092834,0.003242,0.008202,0.005150,0.004387,-0.009727,-0.056268,-0.658237
8.102948,0.003242,0.008202,0.005150,0.004387,-0.009727,-0.056268,-0.658237
8.113074,0.003242,0.008202,0.005150,0.004387,-0.009727,-0.056268,-0.658237
8.123159,0.003242,0.008202,0.005150,0.004387,-0.009727,-0.056268,-0.658237
8.133243,0.003242,0.008202,0.005150,0.004387,-0.009727,-0.056268,-0.658237
8.143307,0.003242,0.008202,0.005150,0.004387,-0.009727,-0.056268,-0.658237
8.153380,0.003242,0.008202,0.005150,0.004387,-0.009727,-0.056268,-0.658237
8.163447,0.003242,0.008202,0.005150,0.004387,-0.009727,-0.056268,-0.658237
8.173511,0.003242,0.008202,0.005150,0.004387,-0.009727,-0.056268,-0.658237
8.183574,0.003242,0.008202,0.005150,0.004387,-0.009727,-0.056268,-0.658237
8.193636,0.003242,0.008202,0.005150,0.004387,-0.009727,-0.056268,-0.658237
8.203699,0.003242,0.008202,0.005150,0.004387,-0.009727,-0.056268,-0.658237
8.213760,0.003242,0.008202,0.005150,0.004387,-0.009727,-0.056268,-0.658237
8.223821,0.003242,0.008202,0.005150,0.004387,-0.009727,-0.056268,-0.658237
8.233882,0.003242,0.008202,0.005150,0.004387,-0.009727,-0.056268,-0.658237
8.243943,0.003242,0.008202,0.005150,0.004387,-0.009727,-0.056268,-0.658237
8.254004,0.003242,0.008202,0.005150,0.004387,-0.009727,-0.056268,-0.658237
8.264070,0.003242,0.008202,0.005150,0.004387,-0.009727,-0.056268,-0.658237
8.274194,0.003242,0.008202,0.005150,0.004387,-0.009727,-0.056268,-0.658237
8.284270,0.003242,0.008202,0.005150,0.004387,-0.009727,-0.056268,-0.658237
8.294335,0.003242,0.008202,0.005150,0.004387,-0.009727,-0.056268,-0.658237
8.304405,0.003242,0.008202,0.005150,0.004387,-0.009727,-0.056268,-0.658237
8.314468,0.003242,0.008202,0.005150,0.004387,-0.009727,-0.056268,-0.658237
8.324532,0.003242,0.008202,0.005150,0.004387,-0.009727,-0.056268,-0.658237
8.334602,0.003242,0.008202,0.005150,0.004387,-0.009727,-0.056268,-0.658237
8.344665,0.003242,0.008202,0.005150,0.004387,-0.009727,-0.056268,-0.658237
8.354733,0.003242,0.008202,0.005150,0.004387,-0.009727,-0.056268,-0.658237
8.364797,0.003242,0.008202,0.005150,0.004387,-0.009727,-0.056268,-0.658237
8.374866,0.003242,0.008202,0.005150,0.004387,-0.009727,-0.056268,-0.658237
8.384929,0.003242,0.008202,0.005150,0.004387,-0.009727,-0.056268,-0.658237
8.394997,0.003242,0.008202,0.005150,0.004387,-0.009727,-0.056268,-0.658237
8.405041,0.003242,0.008202,0.005150,0.004387,-0.009727,-0.056268,-0.658237
8.415123,0.003242,0.008202,0.005150,0.004387,-0.009727,-0.056268,-0.658237
8.425209,0.003242,0.008202,0.005150,0.004387,-0.009727,-0.056268,-0.658237
8.435317,0.003242,0.008202,0.005150,0.004387,-0.009727,-0.056268,-0.658237
8.445406,0.003242,0.008202,0.005150,0.004387,-0.009727,-0.056268,-0.658237
8.455514,0.003242,0.008202,0.005150,0.004387,-0.009727,-0.056268,-0.658237
8.465626,0.003242,0.008202,0.005150,0.004387,-0.009727,-0.056268,-0.658237
8.475735,0.003242,0.008202,0.005150,0.004387,-0.009727,-0.056268,-0.658237
8.485846,0.003242,0.008202,0.005150,0.004387,-0.009727,-0.056268,-0.658237
8.495962,0.003242,0.008202,0.005150,0.004387,-0.009727,-0.056268,-0.658237
8.506081,0.003242,0.008202,0.005150,0.004387,-0.009727,-0.056268,-0.658237
8.516195,0.003242,0.008202,0.005150,0.004387,-0.009727,-0.056268,-0.658237
8.526310,0.003242,0.008202,0.005150,0.004387,-0.009727,-0.056268,-0.658237
8.536401,0.003242,0.008202,0.005150,0.004387,-0.009727,-0.056268,-0.658237
8.546519,0.003242,0.008202,0.005150,0.004387,-0.009727,-0.056268,-0.658237
8.556694,0.003242,0.008202,0.005150,0.004387,-0.009727,-0.056268,-0.658237
8.566806,0.003242,0.008202,0.005150,0.004387,-0.009727,-0.056268,-0.658237
8.576920,0.003242,0.008202,0.005150,0.004387,-0.009727,-0.056268,-0.658237
8.587041,0.003242,0.008202,0.005150,0.004387,-0.009727,-0.056268,-0.658237
8.597154,0.003242,0.008202,0.005150,0.004387,-0.009727,-0.056268,-0.658237
8.607273,0.003242,0.008202,0.005150,0.004387,-0.009727,-0.056268,-0.658237
8.617388,0.003242,0.008202,0.005150,0.004387,-0.009727,-0.056268,-0.658237
8.627499,0.003242,0.008202,0.005150,0.004387,-0.009727,-0.056268,-0.658237
8.637611,0.003242,0.008202,0.005150,0.004387,-0.009727,-0.056268,-0.658237
8.647729,0.003242,0.008202,0.005150,0.004387,-0.009727,-0.056268,-0.658237
8.657828,0.003242,0.008202,0.005150,0.004387,-0.009727,-0.056268,-0.658237
8.667941,0.003242,0.008202,0.005150,0.004387,-0.009727,-0.056268,-0.658237
8.678058,0.003242,0.008202,0.005150,0.004387,-0.009727,-0.056268,-0.658237
8.688171,0.003242,0.008202,0.005150,0.004387,-0.009727,-0.056268,-0.658237
8.698281,0.003242,0.008202,0.005150,0.004387,-0.009727,-0.056268,-0.658237
8.708390,0.003242,0.008202,0.005150,0.004387,-0.009727,-0.056268,-0.658237
8.718501,0.003242,0.008202,0.005150,0.004387,-0.009727,-0.056268,-0.658237
8.728611,0.003242,0.008202,0.005150,0.004387,-0.009727,-0.056268,-0.658237
8.738722,0.003242,0.008202,0.005150,0.004387,-0.009727,-0.056268,-0.658237
8.748834,0.003242,0.008202,0.005150,0.004387,-0.009727,-0.056268,-0.658237
8.758944,0.003242,0.008202,0.005150,0.004387,-0.009727,-0.056268,-0.658237
8.769036,0.003242,0.008202,0.005150,0.004387,-0.009727,-0.056268,-0.658237
8.779106,0.003242,0.008202,0.005150,0.004387,-0.009727,-0.056268,-0.658237
8.789175,0.003242,0.008202,0.005150,0.004387,-0.009727,-0.056268,-0.658237
8.799255,0.003242,0.008202,0.005150,0.004387,-0.009727,-0.056268,-0.658237
8.809319,0.003242,0.008202,0.005150,0.004387,-0.009727,-0.056268,-0.658237
8.819429,0.003242,0.008202,0.005150,0.004387,-0.009727,-0.056268,-0.658237
8.829542,0.003242,0.008202,0.005150,0.004387,-0.009727,-0.056268,-0.658237
8.839655,0.003242,0.008202,0.005150,0.004387,-0.009727,-0.056268,-0.658237
8.849764,0.003242,0.008202,0.005150,0.004387,-0.009727,-0.056268,-0.658237
8.859874,0.003242,0.008202,0.005150,0.004387,-0.009727,-0.056268,-0.658237
8.869983,0.003242,0.008202,0.005150,0.004387,-0.009727,-0.056268,-0.658237
8.880082,0.003242,0.008202,0.005150,0.004387,-0.009727,-0.056268,-0.658237
8.890197,0.003242,0.008202,0.005150,0.004387,-0.009727,-0.056268,-0.658237
8.900314,0.003242,0.008202,0.005150,0.004387,-0.009727,-0.056268,-0.658237
8.910427,0.003242,0.008202,0.005150,0.004387,-0.009727,-0.056268,-0.658237
8.920539,0.003242,0.008202,0.005150,0.004387,-0.009727,-0.056268,-0.658237
8.930651,0.003242,0.008202,0.005150,0.004387,-0.009727,-0.056268,-0.658237
8.940765,0.003242,0.008202,0.005150,0.004387,-0.009727,-0.056268,-0.658237
8.950881,0.003242,0.008202,0.005150,0.004387,-0.009727,-0.056268,-0.658237
8.960995,0.003242,0.008202,0.005150,0.004387,-0.009727,-0.056268,-0.658237
8.971109,0.003242,0.008202,0.005150,0.004387,-0.009727,-0.056268,-0.658237
8.981217,0.003242,0.008202,0.005150,0.004387,-0.009727,-0.056268,-0.658237
8.991328,0.003242,0.008202,0.005150,0.004387,-0.009727,-0.056268,-0.658237
9.001439,0.003242,0.008202,0.005150,0.004387,-0.009727,-0.056268,-0.658237
9.011552,0.003242,0.008202,0.005150,0.004387,-0.009727,-0.056268,-0.658237
9.021665,0.003242,0.008202,0.005150,0.004387,-0.009727,-0.056268,-0.658237
9.031777,0.003242,0.008202,0.005150,0.004387,-0.009727,-0.056268,-0.658237
9.041887,0.003242,0.008202,0.005150,0.004387,-0.009727,-0.056268,-0.658237
9.051998,0.003242,0.008202,0.005150,0.004387,-0.009727,-0.056268,-0.658237
9.062080,0.003242,0.008202,0.005150,0.004387,-0.009727,-0.056268,-0.658237
9.072191,0.003242,0.008202,0.005150,0.004387,-0.009727,-0.056268,-0.658237
9.082270,0.003242,0.008202,0.005150,0.004387,-0.009727,-0.056268,-0.658237
9.092341,0.003242,0.008202,0.005150,0.004387,-0.009727,-0.056268,-0.658237
9.102450,0.003242,0.008202,0.005150,0.004387,-0.009727,-0.056268,-0.658237
9.112563,0.003242,0.008202,0.005150,0.004387,-0.009727,-0.056268,-0.658237
9.122680,0.003242,0.008202,0.005150,0.004387,-0.009727,-0.056268,-0.658237
9.132795,0.003242,0.008202,0.005150,0.004387,-0.009727,-0.056268,-0.658237
9.142907,0.003242,0.008202,0.005150,0.004387,-0.009727,-0.056268,-0.658237
9.153041,0.003242,0.008202,0.005150,0.004387,-0.009727,-0.056268,-0.658237
9.163154,0.003242,0.008202,0.005150,0.004387,-0.009727,-0.056268,-0.658237
9.173267,0.003242,0.008202,0.005150,0.004387,-0.009727,-0.056268,-0.658237
9.183353,0.003242,0.008202,0.005150,0.004387,-0.009727,-0.056268,-0.658237
9.193442,0.003242,0.008202,0.005150,0.004387,-0.009727,-0.056268,-0.658237
9.203550,0.003242,0.008202,0.005150,0.004387,-0.009727,-0.056268,-0.658237
9.213653,0.003242,0.008202,0.005150,0.004387,-0.009727,-0.056268,-0.658237
9.223852,0.003242,0.008202,0.005150,0.004387,-0.009727,-0.056268,-0.658237
9.233966,0.003242,0.008202,0.005150,0.004387,-0.009727,-0.056268,-0.658237
9.244132,0.003242,0.008202,0.005150,0.004387,-0.009727,-0.056268,-0.658237
9.254241,0.003242,0.008202,0.005150,0.004387,-0.009727,-0.056268,-0.658237
9.264353,0.003242,0.008202,0.005150,0.004387,-0.009727,-0.056268,-0.658237
9.274507,0.003242,0.008202,0.005150,0.004387,-0.009727,-0.056268,-0.658237
9.284593,0.003242,0.008202,0.005150,0.004387,-0.009727,-0.056268,-0.658237
9.294765,0.003242,0.008202,0.005150,0.004387,-0.009727,-0.056268,-0.658237
9.304876,0.003242,0.008202,0.005150,0.004387,-0.009727,-0.056268,-0.658237
9.314979,0.003242,0.008202,0.005150,0.004387,-0.009727,-0.056268,-0.658237
9.325091,0.003242,0.008202,0.005150,0.004387,-0.009727,-0.056268,-0.658237
9.335174,0.003242,0.008202,0.005150,0.004387,-0.009727,-0.056268,-0.658237
9.345265,0.003242,0.008202,0.005150,0.004387,-0.009727,-0.056268,-0.658237
9.355377,0.003242,0.008202,0.005150,0.004387,-0.009727,-0.056268,-0.658237
9.365489,0.003242,0.008202,0.005150,0.004387,-0.009727,-0.056268,-0.658237
9.375599,0.003242,0.008202,0.005150,0.004387,-0.009727,-0.056268,-0.658237
9.385709,0.003242,0.008202,0.005150,0.004387,-0.009727,-0.056268,-0.658237
9.395797,0.003242,0.008202,0.005150,0.004387,-0.009727,-0.056268,-0.658237
9.405866,0.003242,0.008202,0.005150,0.004387,-0.009727,-0.056268,-0.658237
9.415932,0.003242,0.008202,0.005150,0.004387,-0.009727,-0.056268,-0.658237
9.426021,0.003242,0.008202,0.005150,0.004387,-0.009727,-0.056268,-0.658237
9.436094,0.003242,0.008202,0.005150,0.004387,-0.009727,-0.056268,-0.658237
9.446201,0.003242,0.008202,0.005150,0.004387,-0.009727,-0.056268,-0.658237
9.456542,0.003242,0.008202,0.005150,0.004387,-0.009727,-0.056268,-0.658237
9.466653,0.003242,0.008202,0.005150,0.004387,-0.009727,-0.056268,-0.658237
9.476829,0.003242,0.008202,0.005150,0.004387,-0.009727,-0.056268,-0.658237
9.486940,0.003242,0.008202,0.005150,0.004387,-0.009727,-0.056268,-0.658237
9.497036,0.003242,0.008202,0.005150,0.004387,-0.009727,-0.056268,-0.658237
9.507117,0.003242,0.008202,0.005150,0.004387,-0.009727,-0.056268,-0.658237
9.517232,0.003242,0.008202,0.005150,0.004387,-0.009727,-0.056268,-0.658237
9.527346,0.003242,0.008202,0.005150,0.004387,-0.009727,-0.056268,-0.658237
9.537456,0.003242,0.008202,0.005150,0.004387,-0.009727,-0.056268,-0.658237
9.547569,0.003242,0.008202,0.005150,0.004387,-0.009727,-0.056268,-0.658237
9.557814,0.003242,0.008202,0.005150,0.004387,-0.009727,-0.056268,-0.658237
9.567927,0.003242,0.008202,0.005150,0.004387,-0.009727,-0.056268,-0.658237
9.578021,0.003242,0.008202,0.005150,0.004387,-0.009727,-0.056268,-0.658237
9.588078,0.003242,0.008202,0.005150,0.004387,-0.009727,-0.056268,-0.658237
9.598427,0.003242,0.008202,0.005150,0.004387,-0.009727,-0.056268,-0.658237
9.608565,0.003242,0.008202,0.005150,0.004387,-0.009727,-0.056268,-0.658237
9.618676,0.003242,0.008202,0.005150,0.004387,-0.009727,-0.056268,-0.658237
9.628790,0.003242,0.008202,0.005150,0.004387,-0.009727,-0.056268,-0.658237
9.638904,0.003242,0.008202,0.005150,0.004387,-0.009727,-0.056268,-0.658237
9.649030,0.003242,0.008202,0.005150,0.004387,-0.009727,-0.056268,-0.658237
9.659110,0.003242,0.008202,0.005150,0.004387,-0.009727,-0.056268,-0.658237
9.669223,0.003242,0.008202,0.005150,0.004387,-0.009727,-0.056268,-0.658237
9.679336,0.003242,0.008202,0.005150,0.004387,-0.009727,-0.056268,-0.658237
9.689446,0.003242,0.008202,0.005150,0.004387,-0.009727,-0.056268,-0.658237
9.699535,0.003242,0.008202,0.005150,0.004387,-0.009727,-0.056268,-0.658237
9.709612,0.003242,0.008202,0.005150,0.004387,-0.009727,-0.056268,-0.658237
9.719679,0.003242,0.008202,0.005150,0.004387,-0.009727,-0.056268,-0.658237
9.729748,0.003242,0.008202,0.005150,0.004387,-0.009727,-0.056268,-0.658237
9.739863,0.003242,0.008202,0.005150,0.004387,-0.009727,-0.056268,-0.658237
9.749987,0.003242,0.008202,0.005150,0.004387,-0.009727,-0.056268,-0.658237
9.760098,0.003242,0.008202,0.005150,0.004387,-0.009727,-0.056268,-0.658237
9.770212,0.003242,0.008202,0.005150,0.004387,-0.009727,-0.056268,-0.658237
9.780301,0.003242,0.008202,0.005150,0.004387,-0.009727,-0.056268,-0.658237
9.790410,0.003242,0.008202,0.005150,0.004387,-0.009727,-0.056268,-0.658237
9.800500,0.003242,0.008202,0.005150,0.004387,-0.009727,-0.056268,-0.658237
9.810569,0.003242,0.008202,0.005150,0.004387,-0.009727,-0.056268,-0.658237
9.820682,0.003242,0.008202,0.005150,0.004387,-0.009727,-0.056268,-0.658237
9.830752,0.003242,0.008202,0.005150,0.004387,-0.009727,-0.056268,-0.658237
9.840822,0.003242,0.008202,0.005150,0.004387,-0.009727,-0.056268,-0.658237
9.850895,0.003242,0.008202,0.005150,0.004387,-0.009727,-0.056268,-0.658237
9.860985,0.003242,0.008202,0.005150,0.004387,-0.009727,-0.056268,-0.658237
9.871100,0.003242,0.008202,0.005150,0.004387,-0.009727,-0.056268,-0.658237
9.881213,0.003242,0.008202,0.005150,0.004387,-0.009727,-0.056268,-0.658237
9.891324,0.003242,0.008202,0.005150,0.004387,-0.009727,-0.056268,-0.658237
9.901439,0.003242,0.008202,0.005150,0.004387,-0.009727,-0.056268,-0.658237
9.911513,0.003242,0.008202,0.005150,0.004387,-0.009727,-0.056268,-0.658237
9.921632,0.003242,0.008202,0.005150,0.004387,-0.009727,-0.056268,-0.658237
9.931720,0.003242,0.008202,0.005150,0.004387,-0.009727,-0.056268,-0.658237
9.941787,0.003242,0.008202,0.005150,0.004387,-0.009727,-0.056268,-0.658237
9.951870,0.003242,0.008202,0.005150,0.004387,-0.009727,-0.056268,-0.658237
9.961966,0.003242,0.008202,0.005150,0.004387,-0.009727,-0.056268,-0.658237
9.972077,0.003242,0.008202,0.005150,0.004387,-0.009727,-0.056268,-0.658237
9.982164,0.003242,0.008202,0.005150,0.004387,-0.009727,-0.056268,-0.658237
9.992280,0.003242,0.008202,0.005150,0.004387,-0.009727,-0.056268,-0.658237
10.002393,0.003242,0.008202,0.005150,0.004387,-0.009727,-0.056268,-0.658237
10.012506,0.003242,0.008202,0.005150,0.004387,-0.009727,-0.056268,-0.658237
10.022577,0.003242,0.008202,0.005150,0.004387,-0.009727,-0.056268,-0.658237
10.032661,0.003242,0.008202,0.005150,0.004387,-0.009727,-0.056268,-0.658237
10.042734,0.003242,0.008202,0.005150,0.004387,-0.009727,-0.056268,-0.658237
10.052796,0.003242,0.008202,0.005150,0.004387,-0.009727,-0.056268,-0.658237
10.062859,0.003242,0.008202,0.005150,0.004387,-0.009727,-0.056268,-0.658237
10.072921,0.003242,0.008202,0.005150,0.004387,-0.009727,-0.056268,-0.658237
10.082982,0.003242,0.008202,0.005150,0.004387,-0.009727,-0.056268,-0.658237
10.093023,0.003242,0.008202,0.005150,0.004387,-0.009727,-0.056268,-0.658237
10.103088,0.003242,0.008202,0.005150,0.004387,-0.009727,-0.056268,-0.658237
10.113153,0.003242,0.008202,0.005150,0.004387,-0.009727,-0.056268,-0.658237
10.123215,0.003242,0.008202,0.005150,0.004387,-0.009727,-0.056268,-0.658237
10.133280,0.003242,0.008202,0.005150,0.004387,-0.009727,-0.056268,-0.658237
10.143347,0.003242,0.008202,0.005150,0.004387,-0.009727,-0.056268,-0.658237
10.153409,0.003242,0.008202,0.005150,0.004387,-0.009727,-0.056268,-0.658237
10.163473,0.003242,0.008202,0.005150,0.004387,-0.009727,-0.056268,-0.658237
10.173537,0.003242,0.008202,0.005150,0.004387,-0.009727,-0.056268,-0.658237
10.183650,0.003242,0.008202,0.005150,0.004387,-0.009727,-0.056268,-0.658237
10.193759,0.003242,0.008202,0.005150,0.004387,-0.009727,-0.056268,-0.658237
10.203871,0.003242,0.008202,0.005150,0.004387,-0.009727,-0.056268,-0.658237
10.213981,0.003242,0.008202,0.005150,0.004387,-0.009727,-0.056268,-0.658237
10.224095,0.003242,0.008202,0.005150,0.004387,-0.009727,-0.056268,-0.658237
10.234210,0.003242,0.008202,0.005150,0.004387,-0.009727,-0.056268,-0.658237
10.244319,0.003242,0.008202,0.005150,0.004387,-0.009727,-0.056268,-0.658237
10.254438,0.003242,0.008202,0.005150,0.004387,-0.009727,-0.056268,-0.658237
10.264549,0.003242,0.008202,0.005150,0.004387,-0.009727,-0.056268,-0.658237
10.274661,0.003242,0.008202,0.005150,0.004387,-0.009727,-0.056268,-0.658237
10.284773,0.003242,0.008202,0.005150,0.004387,-0.009727,-0.056268,-0.658237
10.294883,0.003242,0.008202,0.005150,0.004387,-0.009727,-0.056268,-0.658237
10.304999,0.003242,0.008202,0.005150,0.004387,-0.009727,-0.056268,-0.658237
10.315079,0.003242,0.008202,0.005150,0.004387,-0.009727,-0.056268,-0.658237
10.325148,0.003242,0.008202,0.005150,0.004387,-0.009727,-0.056268,-0.658237
10.335215,0.003242,0.008202,0.005150,0.004387,-0.009727,-0.056268,-0.658237
10.345282,0.003242,0.008202,0.005150,0.004387,-0.009727,-0.056268,-0.658237
10.355390,0.003242,0.008202,0.005150,0.004387,-0.009727,-0.056268,-0.658237
10.365503,0.003242,0.008202,0.005150,0.004387,-0.009727,-0.056268,-0.658237
10.375611,0.003242,0.008202,0.005150,0.004387,-0.009727,-0.056268,-0.658237
10.385720,0.003242,0.008202,0.005150,0.004387,-0.009727,-0.056268,-0.658237
10.395831,0.003242,0.008202,0.005150,0.004387,-0.009727,-0.056268,-0.658237
10.405944,0.003242,0.008202,0.005150,0.004387,-0.009727,-0.056268,-0.658237
10.416035,0.003242,0.008202,0.005150,0.004387,-0.009727,-0.056268,-0.658237
10.426145,0.003242,0.008202,0.005150,0.004387,-0.009727,-0.056268,-0.658237
10.436262,0.003242,0.008202,0.005150,0.004387,-0.009727,-0.056268,-0.658237
10.446437,0.003242,0.008202,0.005150,0.004387,-0.009727,-0.056268,-0.658237
10.456547,0.003242,0.008202,0.005150,0.004387,-0.009727,-0.056268,-0.658237
10.466658,0.003242,0.008202,0.005150,0.004387,-0.009727,-0.056268,-0.658237
10.476773,0.003242,0.008202,0.005150,0.004387,-0.009727,-0.056268,-0.658237
10.486857,0.003242,0.008202,0.005150,0.004387,-0.009727,-0.056268,-0.658237
10.496970,0.003242,0.008202,0.005150,0.004387,-0.009727,-0.056268,-0.658237
10.507045,0.003242,0.008202,0.005150,0.004387,-0.009727,-0.056268,-0.658237
10.517110,0.003242,0.008202,0.005150,0.004387,-0.009727,-0.056268,-0.658237
10.527180,0.003242,0.008202,0.005150,0.004387,-0.009727,-0.056268,-0.658237
10.537246,0.003242,0.008202,0.005150,0.004387,-0.009727,-0.056268,-0.658237
10.547321,0.003242,0.008202,0.005150,0.004387,-0.009727,-0.056268,-0.658237
10.557389,0.003242,0.008202,0.005150,0.004387,-0.009727,-0.056268,-0.658237
10.567454,0.003242,0.008202,0.005150,0.004387,-0.009727,-0.056268,-0.658237
10.577516,0.003242,0.008202,0.005150,0.004387,-0.009727,-0.056268,-0.658237
10.587579,0.003242,0.008202,0.005150,0.004387,-0.009727,-0.056268,-0.658237
10.597747,0.003242,0.008202,0.005150,0.004387,-0.009727,-0.056268,-0.658237
10.608244,0.003242,0.008202,0.005150,0.004387,-0.009727,-0.056268,-0.658237
10.618357,0.003242,0.008202,0.005150,0.004387,-0.009727,-0.056268,-0.658237
10.628466,0.003242,0.008202,0.005150,0.004387,-0.009727,-0.056268,-0.658237
10.638577,0.003242,0.008202,0.005150,0.004387,-0.009727,-0.056268,-0.658237
10.648650,0.003242,0.008202,0.005150,0.004387,-0.009727,-0.056268,-0.658237
10.658715,0.003242,0.008202,0.005150,0.004387,-0.009727,-0.056268,-0.658237
10.668780,0.003242,0.008202,0.005150,0.004387,-0.009727,-0.056268,-0.658237
10.678842,0.003242,0.008202,0.005150,0.004387,-0.009727,-0.056268,-0.658237
10.688904,0.003242,0.008202,0.005150,0.004387,-0.009727,-0.056268,-0.658237
10.698970,0.003242,0.008202,0.005150,0.004387,-0.009727,-0.056268,-0.658237
10.709040,0.003242,0.008202,0.005150,0.004387,-0.009727,-0.056268,-0.658237
10.719104,0.003242,0.008202,0.005150,0.004387,-0.009727,-0.056268,-0.658237
10.729233,0.003242,0.008202,0.005150,0.004387,-0.009727,-0.056268,-0.658237
10.739302,0.003242,0.008202,0.005150,0.004387,-0.009727,-0.056268,-0.658237
10.749372,0.003242,0.008202,0.005150,0.004387,-0.009727,-0.056268,-0.658237
10.759453,0.003242,0.008202,0.005150,0.004387,-0.009727,-0.056268,-0.658237
10.769575,0.003242,0.008202,0.005150,0.004387,-0.009727,-0.056268,-0.658237
10.779688,0.003242,0.008202,0.005150,0.004387,-0.009727,-0.056268,-0.658237
10.789798,0.003242,0.008202,0.005150,0.004387,-0.009727,-0.056268,-0.658237
10.799911,0.003242,0.008202,0.005150,0.004387,-0.009727,-0.056268,-0.658237
10.810056,0.003242,0.008202,0.005150,0.004387,-0.009727,-0.056268,-0.658237
10.820136,0.003242,0.008202,0.005150,0.004387,-0.009727,-0.056268,-0.658237
10.830207,0.003242,0.008202,0.005150,0.004387,-0.009727,-0.056268,-0.658237
10.840316,0.003242,0.008202,0.005150,0.004387,-0.009727,-0.056268,-0.658237
10.850383,0.003242,0.008202,0.005150,0.004387,-0.009727,-0.056268,-0.658237
10.860452,0.003242,0.008202,0.005150,0.004387,-0.009727,-0.056268,-0.658237
10.870523,0.003242,0.008202,0.005150,0.004387,-0.009727,-0.056268,-0.658237
10.880633,0.003242,0.008202,0.005150,0.004387,-0.009727,-0.056268,-0.658237
10.890695,0.003242,0.008202,0.005150,0.004387,-0.009727,-0.056268,-0.658237
10.900763,0.003242,0.008202,0.005150,0.004387,-0.009727,-0.056268,-0.658237
10.910844,0.003242,0.008202,0.005150,0.004387,-0.009727,-0.056268,-0.658237
10.920956,0.003242,0.008202,0.005150,0.004387,-0.009727,-0.056268,-0.658237
10.931021,0.003242,0.008202,0.005150,0.004387,-0.009727,-0.056268,-0.658237
10.941086,0.003242,0.008202,0.005150,0.004387,-0.009727,-0.056268,-0.658237
10.951152,0.003242,0.008202,0.005150,0.004387,-0.009727,-0.056268,-0.658237
10.961218,0.003242,0.008202,0.005150,0.004387,-0.009727,-0.056268,-0.658237
10.971279,0.003242,0.008202,0.005150,0.004387,-0.009727,-0.056268,-0.658237
10.981339,0.003242,0.008202,0.005150,0.004387,-0.009727,-0.056268,-0.658237
10.991399,0.003242,0.008202,0.005150,0.004387,-0.009727,-0.056268,-0.658237
11.001476,0.003242,0.008202,0.005150,0.004387,-0.009727,-0.056268,-0.658237
11.011545,0.003242,0.008202,0.005150,0.004387,-0.009727,-0.056268,-0.658237
11.021610,0.003242,0.008202,0.005150,0.004387,-0.009727,-0.056268,-0.658237
11.031681,0.003242,0.008202,0.005150,0.004387,-0.009727,-0.056268,-0.658237
11.041747,0.003242,0.008202,0.005150,0.004387,-0.009727,-0.056268,-0.658237
11.051819,0.003242,0.008202,0.005150,0.004387,-0.009727,-0.056268,-0.658237
11.061885,0.003242,0.008202,0.005150,0.004387,-0.009727,-0.056268,-0.658237
11.071962,0.003242,0.008202,0.005150,0.004387,-0.009727,-0.056268,-0.658237
11.082095,0.003242,0.008202,0.005150,0.004387,-0.009727,-0.056268,-0.658237
11.092210,0.003242,0.008202,0.005150,0.004387,-0.009727,-0.056268,-0.658237
11.102324,0.003242,0.008202,0.005150,0.004387,-0.009727,-0.056268,-0.658237
11.112442,0.003242,0.008202,0.005150,0.004387,-0.009727,-0.056268,-0.658237
11.122555,0.003242,0.008202,0.005150,0.004387,-0.009727,-0.056268,-0.658237
11.132667,0.003242,0.008202,0.005150,0.004387,-0.009727,-0.056268,-0.658237
11.142778,0.003242,0.008202,0.005150,0.004387,-0.009727,-0.056268,-0.658237
11.152900,0.003242,0.008202,0.005150,0.004387,-0.009727,-0.056268,-0.658237
11.163031,0.003242,0.008202,0.005150,0.004387,-0.009727,-0.056268,-0.658237
11.173144,0.003242,0.008202,0.005150,0.004387,-0.009727,-0.056268,-0.658237
11.183262,0.003242,0.008202,0.005150,0.004387,-0.009727,-0.056268,-0.658237
11.193375,0.003242,0.008202,0.005150,0.004387,-0.009727,-0.056268,-0.658237
11.203489,0.003242,0.008202,0.005150,0.004387,-0.009727,-0.056268,-0.658237
11.213602,0.003242,0.008202,0.005150,0.004387,-0.009727,-0.056268,-0.658237
11.223714,0.003242,0.008202,0.005150,0.004387,-0.009727,-0.056268,-0.658237
11.233826,0.003242,0.008202,0.005150,0.004387,-0.009727,-0.056268,-0.658237
11.243938,0.003242,0.008202,0.005150,0.004387,-0.009727,-0.056268,-0.658237
11.254051,0.003242,0.008202,0.005150,0.004387,-0.009727,-0.056268,-0.658237
11.264166,0.003242,0.008202,0.005150,0.004387,-0.009727,-0.056268,-0.658237
11.274283,0.003242,0.008202,0.005150,0.004387,-0.009727,-0.056268,-0.658237
11.284403,0.003242,0.008202,0.005150,0.004387,-0.009727,-0.056268,-0.658237
11.294513,0.003242,0.008202,0.005150,0.004387,-0.009727,-0.056268,-0.658237
11.304629,0.003242,0.008202,0.005150,0.004387,-0.009727,-0.056268,-0.658237
11.314743,0.003242,0.008202,0.005150,0.004387,-0.009727,-0.056268,-0.658237
11.324856,0.003242,0.008202,0.005150,0.004387,-0.009727,-0.056268,-0.658237
11.334973,0.003242,0.008202,0.005150,0.004387,-0.009727,-0.056268,-0.658237
11.345073,0.003242,0.008202,0.005150,0.004387,-0.009727,-0.056268,-0.658237
11.355190,0.003242,0.008202,0.005150,0.004387,-0.009727,-0.056268,-0.658237
11.365299,0.003242,0.008202,0.005150,0.004387,-0.009727,-0.056268,-0.658237
11.375371,0.003242,0.008202,0.005150,0.004387,-0.009727,-0.056268,-0.658237
11.385435,0.003242,0.008202,0.005150,0.004387,-0.009727,-0.056268,-0.658237
11.395498,0.003242,0.008202,0.005150,0.004387,-0.009727,-0.056268,-0.658237
11.405559,0.003242,0.008202,0.005150,0.004387,-0.009727,-0.056268,-0.658237
11.415620,0.003242,0.008202,0.005150,0.004387,-0.009727,-0.056268,-0.658237
11.425680,0.003242,0.008202,0.005150,0.004387,-0.009727,-0.056268,-0.658237
11.435742,0.003242,0.008202,0.005150,0.004387,-0.009727,-0.056268,-0.658237
11.445806,0.003242,0.008202,0.005150,0.004387,-0.009727,-0.056268,-0.658237
11.455872,0.003242,0.008202,0.005150,0.004387,-0.009727,-0.056268,-0.658237
11.465933,0.003242,0.008202,0.005150,0.004387,-0.009727,-0.056268,-0.658237
11.475994,0.003242,0.008202,0.005150,0.004387,-0.009727,-0.056268,-0.658237
11.486025,0.003242,0.008202,0.005150,0.004387,-0.009727,-0.056268,-0.658237
11.496089,0.003242,0.008202,0.005150,0.004387,-0.009727,-0.056268,-0.658237
11.506152,0.003242,0.008202,0.005150,0.004387,-0.009727,-0.056268,-0.658237
11.516221,0.003242,0.008202,0.005150,0.004387,-0.009727,-0.056268,-0.658237
11.526286,0.003242,0.008202,0.005150,0.004387,-0.009727,-0.056268,-0.658237
11.536355,0.003242,0.008202,0.005150,0.004387,-0.009727,-0.056268,-0.658237
11.546421,0.003242,0.008202,0.005150,0.004387,-0.009727,-0.056268,-0.658237
11.556495,0.003242,0.008202,0.005150,0.004387,-0.009727,-0.056268,-0.658237
11.566560,0.003242,0.008202,0.005150,0.004387,-0.009727,-0.056268,-0.658237
11.576624,0.003242,0.008202,0.005150,0.004387,-0.009727,-0.056268,-0.658237
11.586687,0.003242,0.008202,0.005150,0.004387,-0.009727,-0.056268,-0.658237
11.596754,0.003242,0.008202,0.005150,0.004387,-0.009727,-0.056268,-0.658237
11.606820,0.003242,0.008202,0.005150,0.004387,-0.009727,-0.056268,-0.658237
11.616889,0.003242,0.008202,0.005150,0.004387,-0.009727,-0.056268,-0.658237
11.626955,0.003242,0.008202,0.005150,0.004387,-0.009727,-0.056268,-0.658237
11.637026,0.003242,0.008202,0.005150,0.004387,-0.009727,-0.056268,-0.658237
11.647093,0.003242,0.008202,0.005150,0.004387,-0.009727,-0.056268,-0.658237
11.657156,0.003242,0.008202,0.005150,0.004387,-0.009727,-0.056268,-0.658237
11.667216,0.003242,0.008202,0.005150,0.004387,-0.009727,-0.056268,-0.658237
11.677280,0.003242,0.008202,0.005150,0.004387,-0.009727,-0.056268,-0.658237
11.687342,0.003242,0.008202,0.005150,0.004387,-0.009727,-0.056268,-0.658237
11.697448,0.003242,0.008202,0.005150,0.004387,-0.009727,-0.056268,-0.658237
11.707536,0.003242,0.008202,0.005150,0.004387,-0.009727,-0.056268,-0.658237
11.718192,0.003242,0.008202,0.005150,0.004387,-0.009727,-0.056268,-0.658237
11.728302,0.003242,0.008202,0.005150,0.004387,-0.009727,-0.056268,-0.658237
11.738389,0.003242,0.008202,0.005150,0.004387,-0.009727,-0.056268,-0.658237
11.748469,0.003242,0.008202,0.005150,0.004387,-0.009727,-0.056268,-0.658237
11.758549,0.003242,0.008202,0.005150,0.004387,-0.009727,-0.056268,-0.658237
11.768623,0.003242,0.008202,0.005150,0.004387,-0.009727,-0.056268,-0.658237
11.778695,0.003242,0.008202,0.005150,0.004387,-0.009727,-0.056268,-0.658237
11.788761,0.003242,0.008202,0.005150,0.004387,-0.009727,-0.056268,-0.658237
11.798836,0.003242,0.008202,0.005150,0.004387,-0.009727,-0.056268,-0.658237
11.808899,0.003242,0.008202,0.005150,0.004387,-0.009727,-0.056268,-0.658237
11.818977,0.003242,0.008202,0.005150,0.004387,-0.009727,-0.056268,-0.658237
11.829040,0.003242,0.008202,0.005150,0.004387,-0.009727,-0.056268,-0.658237
11.839117,0.003242,0.008202,0.005150,0.004387,-0.009727,-0.056268,-0.658237
11.849192,0.003242,0.008202,0.005150,0.004387,-0.009727,-0.056268,-0.658237
11.859274,0.003242,0.008202,0.005150,0.004387,-0.009727,-0.056268,-0.658237
11.869342,0.003242,0.008202,0.005150,0.004387,-0.009727,-0.056268,-0.658237
11.879415,0.003242,0.008202,0.005150,0.004387,-0.009727,-0.056268,-0.658237
11.889481,0.003242,0.008202,0.005150,0.004387,-0.009727,-0.056268,-0.658237
11.899568,0.003242,0.008202,0.005150,0.004387,-0.009727,-0.056268,-0.658237
11.909643,0.003242,0.008202,0.005150,0.004387,-0.009727,-0.056268,-0.658237
11.919723,0.003242,0.008202,0.005150,0.004387,-0.009727,-0.056268,-0.658237
11.929786,0.003242,0.008202,0.005150,0.004387,-0.009727,-0.056268,-0.658237
11.939865,0.003242,0.008202,0.005150,0.004387,-0.009727,-0.056268,-0.658237
11.949934,0.003242,0.008202,0.005150,0.004387,-0.009727,-0.056268,-0.658237
11.960001,0.003242,0.008202,0.005150,0.004387,-0.009727,-0.056268,-0.658237
11.970023,0.003242,0.008202,0.005150,0.004387,-0.009727,-0.056268,-0.658237
